( This gcode generated by C:/Program Files (x86)/Eagle/ulp/pcb-gcode.ulp )
( Copyright 2005 by John Johnson. See readme.txt for licensing terms. )

( This file generated from the board R:/projects/svn/eagle/nix2/nix2-driver.brd )
( This file generated 1/11/2011 6:41:35 AM )

G20

G90
G00 Z0.5000 
G00 X0 Y0
M03
G04 P3.000000
G00 Z0.0200 
G00 X0.6369 Y1.3829 
G01 Z-0.0100 F10.00 
G01 X0.6369 Y1.3171 
G01 X0.6329 Y1.3131 
G01 X0.5671 Y1.3131 
G01 X0.5631 Y1.3171 
G01 X0.5631 Y1.3829 
G01 X0.5671 Y1.3869 
G01 X0.6329 Y1.3869 
G01 X0.6369 Y1.3829 
G00 Z0.0200 
G00 X0.5649 Y1.3821 
G01 Z-0.0100 F10.00 
G01 X0.5649 Y1.3179 
G01 X0.5679 Y1.3149 
G01 X0.6321 Y1.3149 
G01 X0.6351 Y1.3179 
G01 X0.6351 Y1.3821 
G01 X0.6321 Y1.3851 
G01 X0.5679 Y1.3851 
G01 X0.5649 Y1.3821 
G00 Z0.0200 
G00 X0.6369 Y0.9829 
G01 Z-0.0100 F10.00 
G01 X0.6369 Y0.9726 
G01 X0.6446 Y0.9649 
G01 X0.6554 Y0.9649 
G01 X0.7499 Y0.9649 
G01 X0.7530 Y0.9649 
G01 X0.7584 Y0.9626 
G01 X0.7589 Y0.9622 
G01 X0.7589 Y0.9622 
G01 X0.7619 Y0.9592 
G01 X0.7666 Y0.9545 
G01 X0.7774 Y0.9545 
G01 X0.7774 Y0.9545 
G01 X0.7812 Y0.9583 
G01 X0.7851 Y0.9622 
G01 X0.7851 Y0.9730 
G01 X0.7851 Y1.1274 
G01 X0.7774 Y1.1351 
G01 X0.7666 Y1.1351 
G01 X0.6446 Y1.1351 
G01 X0.6369 Y1.1274 
G01 X0.6369 Y1.1171 
G01 X0.6329 Y1.1131 
G01 X0.5671 Y1.1131 
G01 X0.5631 Y1.1171 
G01 X0.5631 Y1.1829 
G01 X0.5671 Y1.1869 
G01 X0.6329 Y1.1869 
G01 X0.6369 Y1.1829 
G01 X0.6369 Y1.1726 
G01 X0.6446 Y1.1649 
G01 X0.6554 Y1.1649 
G01 X0.7999 Y1.1649 
G01 X0.8030 Y1.1649 
G01 X0.8084 Y1.1626 
G01 X0.8089 Y1.1622 
G01 X0.8089 Y1.1622 
G01 X0.8119 Y1.1592 
G01 X0.8166 Y1.1545 
G01 X0.8274 Y1.1545 
G01 X0.8274 Y1.1545 
G01 X0.8312 Y1.1583 
G01 X0.8351 Y1.1622 
G01 X0.8351 Y1.1730 
G01 X0.8351 Y1.2166 
G01 X0.8351 Y1.2274 
G01 X0.8274 Y1.2351 
G01 X0.6446 Y1.2351 
G01 X0.6369 Y1.2274 
G01 X0.6369 Y1.2171 
G01 X0.6329 Y1.2131 
G01 X0.5671 Y1.2131 
G01 X0.5631 Y1.2171 
G01 X0.5631 Y1.2829 
G01 X0.5671 Y1.2869 
G01 X0.6329 Y1.2869 
G01 X0.6369 Y1.2829 
G01 X0.6369 Y1.2726 
G01 X0.6446 Y1.2649 
G01 X0.6554 Y1.2649 
G01 X0.8499 Y1.2649 
G01 X0.8530 Y1.2649 
G01 X0.8584 Y1.2626 
G01 X0.8626 Y1.2584 
G01 X0.8649 Y1.2530 
G01 X0.8649 Y0.5062 
G01 X0.8726 Y0.4985 
G01 X0.9104 Y0.4606 
G01 X0.9126 Y0.4584 
G01 X0.9149 Y0.4530 
G01 X0.9149 Y0.4446 
G01 X0.9226 Y0.4369 
G01 X0.9329 Y0.4369 
G01 X0.9369 Y0.4329 
G01 X0.9369 Y0.3671 
G01 X0.9329 Y0.3631 
G01 X0.8671 Y0.3631 
G01 X0.8631 Y0.3671 
G01 X0.8631 Y0.4329 
G01 X0.8742 Y0.4439 
G01 X0.8742 Y0.4548 
G01 X0.8665 Y0.4624 
G01 X0.8665 Y0.4624 
G01 X0.8334 Y0.4955 
G01 X0.8226 Y0.4955 
G01 X0.8149 Y0.4878 
G01 X0.8149 Y0.4770 
G01 X0.8149 Y0.4446 
G01 X0.8226 Y0.4369 
G01 X0.8329 Y0.4369 
G01 X0.8369 Y0.4329 
G01 X0.8369 Y0.3671 
G01 X0.8329 Y0.3631 
G01 X0.7671 Y0.3631 
G01 X0.7631 Y0.3671 
G01 X0.7631 Y0.4329 
G01 X0.7671 Y0.4369 
G01 X0.7774 Y0.4369 
G01 X0.7851 Y0.4446 
G01 X0.7851 Y0.4554 
G01 X0.7851 Y0.4878 
G01 X0.7774 Y0.4955 
G01 X0.7666 Y0.4955 
G01 X0.7589 Y0.4878 
G01 X0.7335 Y0.4624 
G01 X0.7335 Y0.4624 
G01 X0.7259 Y0.4549 
G01 X0.7258 Y0.4548 
G01 X0.7258 Y0.4439 
G01 X0.7258 Y0.4439 
G01 X0.7369 Y0.4329 
G01 X0.7369 Y0.3671 
G01 X0.7329 Y0.3631 
G01 X0.6671 Y0.3631 
G01 X0.6631 Y0.3671 
G01 X0.6631 Y0.4329 
G01 X0.6671 Y0.4369 
G01 X0.6774 Y0.4369 
G01 X0.6851 Y0.4446 
G01 X0.6851 Y0.4530 
G01 X0.6874 Y0.4584 
G01 X0.6972 Y0.4683 
G01 X0.7351 Y0.5062 
G01 X0.7351 Y0.5170 
G01 X0.7351 Y0.5378 
G01 X0.7274 Y0.5455 
G01 X0.7166 Y0.5455 
G01 X0.7089 Y0.5378 
G01 X0.6335 Y0.4624 
G01 X0.6335 Y0.4624 
G01 X0.6260 Y0.4549 
G01 X0.6258 Y0.4548 
G01 X0.6258 Y0.4439 
G01 X0.6258 Y0.4439 
G01 X0.6369 Y0.4329 
G01 X0.6369 Y0.3671 
G01 X0.6329 Y0.3631 
G01 X0.5671 Y0.3631 
G01 X0.5631 Y0.3671 
G01 X0.5631 Y0.4329 
G01 X0.5671 Y0.4369 
G01 X0.5774 Y0.4369 
G01 X0.5851 Y0.4446 
G01 X0.5851 Y0.4530 
G01 X0.5874 Y0.4584 
G01 X0.5972 Y0.4683 
G01 X0.6851 Y0.5562 
G01 X0.6851 Y0.5670 
G01 X0.6851 Y0.8274 
G01 X0.6774 Y0.8351 
G01 X0.6666 Y0.8351 
G01 X0.6446 Y0.8351 
G01 X0.6369 Y0.8274 
G01 X0.6369 Y0.8171 
G01 X0.6329 Y0.8131 
G01 X0.5671 Y0.8131 
G01 X0.5631 Y0.8171 
G01 X0.5631 Y0.8829 
G01 X0.5671 Y0.8869 
G01 X0.6329 Y0.8869 
G01 X0.6369 Y0.8829 
G01 X0.6369 Y0.8726 
G01 X0.6446 Y0.8649 
G01 X0.6554 Y0.8649 
G01 X0.6999 Y0.8649 
G01 X0.7030 Y0.8649 
G01 X0.7084 Y0.8626 
G01 X0.7089 Y0.8622 
G01 X0.7089 Y0.8622 
G01 X0.7119 Y0.8592 
G01 X0.7166 Y0.8545 
G01 X0.7274 Y0.8545 
G01 X0.7274 Y0.8545 
G01 X0.7312 Y0.8583 
G01 X0.7351 Y0.8622 
G01 X0.7351 Y0.8730 
G01 X0.7351 Y0.9274 
G01 X0.7274 Y0.9351 
G01 X0.7166 Y0.9351 
G01 X0.6446 Y0.9351 
G01 X0.6369 Y0.9274 
G01 X0.6369 Y0.9171 
G01 X0.6329 Y0.9131 
G01 X0.5671 Y0.9131 
G01 X0.5631 Y0.9171 
G01 X0.5631 Y0.9829 
G01 X0.5671 Y0.9869 
G01 X0.6329 Y0.9869 
G01 X0.6369 Y0.9829 
G00 Z0.0200 
G00 X0.7679 Y0.3649 
G01 Z-0.0100 F10.00 
G01 X0.8321 Y0.3649 
G01 X0.8351 Y0.3679 
G01 X0.8351 Y0.4321 
G01 X0.8321 Y0.4351 
G01 X0.8131 Y0.4351 
G01 X0.8131 Y1.1554 
G01 X0.8054 Y1.1631 
G01 X0.7946 Y1.1631 
G01 X0.6351 Y1.1631 
G01 X0.6351 Y1.1821 
G01 X0.6321 Y1.1851 
G01 X0.5679 Y1.1851 
G01 X0.5649 Y1.1821 
G01 X0.5649 Y1.1179 
G01 X0.5679 Y1.1149 
G01 X0.6321 Y1.1149 
G01 X0.6351 Y1.1179 
G01 X0.6351 Y1.1369 
G01 X0.7869 Y1.1369 
G01 X0.7869 Y0.4351 
G01 X0.7679 Y0.4351 
G01 X0.7649 Y0.4321 
G01 X0.7649 Y0.3679 
G01 X0.7679 Y0.3649 
G00 Z0.0200 
G00 X0.6679 Y0.3649 
G01 Z-0.0100 F10.00 
G01 X0.7321 Y0.3649 
G01 X0.7351 Y0.3679 
G01 X0.7351 Y0.4321 
G01 X0.7321 Y0.4351 
G01 X0.7131 Y0.4351 
G01 X0.7131 Y0.4446 
G01 X0.7631 Y0.4946 
G01 X0.7631 Y0.5054 
G01 X0.7631 Y0.9554 
G01 X0.7554 Y0.9631 
G01 X0.7446 Y0.9631 
G01 X0.6351 Y0.9631 
G01 X0.6351 Y0.9821 
G01 X0.6321 Y0.9851 
G01 X0.5679 Y0.9851 
G01 X0.5649 Y0.9821 
G01 X0.5649 Y0.9179 
G01 X0.5679 Y0.9149 
G01 X0.6321 Y0.9149 
G01 X0.6351 Y0.9179 
G01 X0.6351 Y0.9369 
G01 X0.7369 Y0.9369 
G01 X0.7369 Y0.5054 
G01 X0.6946 Y0.4631 
G01 X0.6869 Y0.4554 
G01 X0.6869 Y0.4351 
G01 X0.6679 Y0.4351 
G01 X0.6649 Y0.4321 
G01 X0.6649 Y0.3679 
G01 X0.6679 Y0.3649 
G00 Z0.0200 
G00 X0.8679 Y0.3649 
G01 Z-0.0100 F10.00 
G01 X0.9321 Y0.3649 
G01 X0.9351 Y0.3679 
G01 X0.9351 Y0.4321 
G01 X0.9321 Y0.4351 
G01 X0.9131 Y0.4351 
G01 X0.9131 Y0.4554 
G01 X0.9054 Y0.4631 
G01 X0.8631 Y0.5054 
G01 X0.8631 Y1.2554 
G01 X0.8554 Y1.2631 
G01 X0.8446 Y1.2631 
G01 X0.6351 Y1.2631 
G01 X0.6351 Y1.2821 
G01 X0.6321 Y1.2851 
G01 X0.5679 Y1.2851 
G01 X0.5649 Y1.2821 
G01 X0.5649 Y1.2179 
G01 X0.5679 Y1.2149 
G01 X0.6321 Y1.2149 
G01 X0.6351 Y1.2179 
G01 X0.6351 Y1.2369 
G01 X0.8369 Y1.2369 
G01 X0.8369 Y0.5054 
G01 X0.8369 Y0.4946 
G01 X0.8869 Y0.4446 
G01 X0.8869 Y0.4351 
G01 X0.8679 Y0.4351 
G01 X0.8649 Y0.4321 
G01 X0.8649 Y0.3679 
G01 X0.8679 Y0.3649 
G00 Z0.0200 
G00 X0.5679 Y0.3649 
G01 Z-0.0100 F10.00 
G01 X0.6321 Y0.3649 
G01 X0.6351 Y0.3679 
G01 X0.6351 Y0.4321 
G01 X0.6321 Y0.4351 
G01 X0.6131 Y0.4351 
G01 X0.6131 Y0.4446 
G01 X0.7131 Y0.5446 
G01 X0.7131 Y0.5554 
G01 X0.7131 Y0.8554 
G01 X0.7054 Y0.8631 
G01 X0.6946 Y0.8631 
G01 X0.6351 Y0.8631 
G01 X0.6351 Y0.8821 
G01 X0.6321 Y0.8851 
G01 X0.5679 Y0.8851 
G01 X0.5649 Y0.8821 
G01 X0.5649 Y0.8179 
G01 X0.5679 Y0.8149 
G01 X0.6321 Y0.8149 
G01 X0.6351 Y0.8179 
G01 X0.6351 Y0.8369 
G01 X0.6869 Y0.8369 
G01 X0.6869 Y0.5554 
G01 X0.5946 Y0.4631 
G01 X0.5869 Y0.4554 
G01 X0.5869 Y0.4351 
G01 X0.5679 Y0.4351 
G01 X0.5649 Y0.4321 
G01 X0.5649 Y0.3679 
G01 X0.5679 Y0.3649 
G00 Z0.0200 
G00 X1.3369 Y1.3829 
G01 Z-0.0100 F10.00 
G01 X1.3369 Y1.3171 
G01 X1.3329 Y1.3131 
G01 X1.2671 Y1.3131 
G01 X1.2631 Y1.3171 
G01 X1.2631 Y1.3829 
G01 X1.2671 Y1.3869 
G01 X1.3329 Y1.3869 
G01 X1.3369 Y1.3829 
G00 Z0.0200 
G00 X1.2649 Y1.3821 
G01 Z-0.0100 F10.00 
G01 X1.2649 Y1.3179 
G01 X1.2679 Y1.3149 
G01 X1.3321 Y1.3149 
G01 X1.3351 Y1.3179 
G01 X1.3351 Y1.3821 
G01 X1.3321 Y1.3851 
G01 X1.2679 Y1.3851 
G01 X1.2649 Y1.3821 
G00 Z0.0200 
G00 X1.3329 Y1.2131 
G01 Z-0.0100 F10.00 
G01 X1.2671 Y1.2131 
G01 X1.2631 Y1.2171 
G01 X1.2631 Y1.2829 
G01 X1.2671 Y1.2869 
G01 X1.3329 Y1.2869 
G01 X1.3369 Y1.2829 
G01 X1.3369 Y1.2171 
G01 X1.3329 Y1.2131 
G00 Z0.0200 
G00 X1.2649 Y1.2821 
G01 Z-0.0100 F10.00 
G01 X1.2649 Y1.2179 
G01 X1.2679 Y1.2149 
G01 X1.3321 Y1.2149 
G01 X1.3351 Y1.2179 
G01 X1.3351 Y1.2821 
G01 X1.3321 Y1.2851 
G01 X1.2679 Y1.2851 
G01 X1.2649 Y1.2821 
G00 Z0.0200 
G00 X1.3329 Y1.1131 
G01 Z-0.0100 F10.00 
G01 X1.2671 Y1.1131 
G01 X1.2631 Y1.1171 
G01 X1.2631 Y1.1829 
G01 X1.2671 Y1.1869 
G01 X1.3329 Y1.1869 
G01 X1.3369 Y1.1829 
G01 X1.3369 Y1.1171 
G01 X1.3329 Y1.1131 
G00 Z0.0200 
G00 X1.2649 Y1.1821 
G01 Z-0.0100 F10.00 
G01 X1.2649 Y1.1179 
G01 X1.2679 Y1.1149 
G01 X1.3321 Y1.1149 
G01 X1.3351 Y1.1179 
G01 X1.3351 Y1.1821 
G01 X1.3321 Y1.1851 
G01 X1.2679 Y1.1851 
G01 X1.2649 Y1.1821 
G00 Z0.0200 
G00 X1.3329 Y1.0131 
G01 Z-0.0100 F10.00 
G01 X1.2671 Y1.0131 
G01 X1.2631 Y1.0171 
G01 X1.2631 Y1.0829 
G01 X1.2671 Y1.0869 
G01 X1.3329 Y1.0869 
G01 X1.3369 Y1.0829 
G01 X1.3369 Y1.0171 
G01 X1.3329 Y1.0131 
G00 Z0.0200 
G00 X1.2649 Y1.0821 
G01 Z-0.0100 F10.00 
G01 X1.2649 Y1.0179 
G01 X1.2679 Y1.0149 
G01 X1.3321 Y1.0149 
G01 X1.3351 Y1.0179 
G01 X1.3351 Y1.0821 
G01 X1.3321 Y1.0851 
G01 X1.2679 Y1.0851 
G01 X1.2649 Y1.0821 
G00 Z0.0200 
G00 X1.3329 Y0.9131 
G01 Z-0.0100 F10.00 
G01 X1.2671 Y0.9131 
G01 X1.2631 Y0.9171 
G01 X1.2631 Y0.9829 
G01 X1.2671 Y0.9869 
G01 X1.3329 Y0.9869 
G01 X1.3369 Y0.9829 
G01 X1.3369 Y0.9171 
G01 X1.3329 Y0.9131 
G00 Z0.0200 
G00 X1.2649 Y0.9821 
G01 Z-0.0100 F10.00 
G01 X1.2649 Y0.9179 
G01 X1.2679 Y0.9149 
G01 X1.3321 Y0.9149 
G01 X1.3351 Y0.9179 
G01 X1.3351 Y0.9821 
G01 X1.3321 Y0.9851 
G01 X1.2679 Y0.9851 
G01 X1.2649 Y0.9821 
G00 Z0.0200 
G00 X1.3329 Y0.8131 
G01 Z-0.0100 F10.00 
G01 X1.2671 Y0.8131 
G01 X1.2631 Y0.8171 
G01 X1.2631 Y0.8829 
G01 X1.2671 Y0.8869 
G01 X1.3329 Y0.8869 
G01 X1.3369 Y0.8829 
G01 X1.3369 Y0.8171 
G01 X1.3329 Y0.8131 
G00 Z0.0200 
G00 X1.2649 Y0.8821 
G01 Z-0.0100 F10.00 
G01 X1.2649 Y0.8179 
G01 X1.2679 Y0.8149 
G01 X1.3321 Y0.8149 
G01 X1.3351 Y0.8179 
G01 X1.3351 Y0.8821 
G01 X1.3321 Y0.8851 
G01 X1.2679 Y0.8851 
G01 X1.2649 Y0.8821 
G00 Z0.0200 
G00 X1.3329 Y0.7131 
G01 Z-0.0100 F10.00 
G01 X1.2671 Y0.7131 
G01 X1.2631 Y0.7171 
G01 X1.2631 Y0.7829 
G01 X1.2671 Y0.7869 
G01 X1.3329 Y0.7869 
G01 X1.3369 Y0.7829 
G01 X1.3369 Y0.7171 
G01 X1.3329 Y0.7131 
G00 Z0.0200 
G00 X1.2649 Y0.7821 
G01 Z-0.0100 F10.00 
G01 X1.2649 Y0.7179 
G01 X1.2679 Y0.7149 
G01 X1.3321 Y0.7149 
G01 X1.3351 Y0.7179 
G01 X1.3351 Y0.7821 
G01 X1.3321 Y0.7851 
G01 X1.2679 Y0.7851 
G01 X1.2649 Y0.7821 
G00 Z0.0200 
G00 X1.3329 Y0.6131 
G01 Z-0.0100 F10.00 
G01 X1.2671 Y0.6131 
G01 X1.2631 Y0.6171 
G01 X1.2631 Y0.6829 
G01 X1.2671 Y0.6869 
G01 X1.3329 Y0.6869 
G01 X1.3369 Y0.6829 
G01 X1.3369 Y0.6171 
G01 X1.3329 Y0.6131 
G00 Z0.0200 
G00 X1.2649 Y0.6821 
G01 Z-0.0100 F10.00 
G01 X1.2649 Y0.6179 
G01 X1.2679 Y0.6149 
G01 X1.3321 Y0.6149 
G01 X1.3351 Y0.6179 
G01 X1.3351 Y0.6821 
G01 X1.3321 Y0.6851 
G01 X1.2679 Y0.6851 
G01 X1.2649 Y0.6821 
G00 Z0.0200 
G00 X3.3369 Y1.3829 
G01 Z-0.0100 F10.00 
G01 X3.3369 Y1.3171 
G01 X3.3329 Y1.3131 
G01 X3.2671 Y1.3131 
G01 X3.2631 Y1.3171 
G01 X3.2631 Y1.3829 
G01 X3.2671 Y1.3869 
G01 X3.3329 Y1.3869 
G01 X3.3369 Y1.3829 
G00 Z0.0200 
G00 X3.2649 Y1.3821 
G01 Z-0.0100 F10.00 
G01 X3.2649 Y1.3179 
G01 X3.2679 Y1.3149 
G01 X3.3321 Y1.3149 
G01 X3.3351 Y1.3179 
G01 X3.3351 Y1.3821 
G01 X3.3321 Y1.3851 
G01 X3.2679 Y1.3851 
G01 X3.2649 Y1.3821 
G00 Z0.0200 
G00 X3.3329 Y1.2131 
G01 Z-0.0100 F10.00 
G01 X3.2671 Y1.2131 
G01 X3.2631 Y1.2171 
G01 X3.2631 Y1.2829 
G01 X3.2671 Y1.2869 
G01 X3.3329 Y1.2869 
G01 X3.3369 Y1.2829 
G01 X3.3369 Y1.2171 
G01 X3.3329 Y1.2131 
G00 Z0.0200 
G00 X3.2649 Y1.2821 
G01 Z-0.0100 F10.00 
G01 X3.2649 Y1.2179 
G01 X3.2679 Y1.2149 
G01 X3.3321 Y1.2149 
G01 X3.3351 Y1.2179 
G01 X3.3351 Y1.2821 
G01 X3.3321 Y1.2851 
G01 X3.2679 Y1.2851 
G01 X3.2649 Y1.2821 
G00 Z0.0200 
G00 X3.3329 Y1.1131 
G01 Z-0.0100 F10.00 
G01 X3.2671 Y1.1131 
G01 X3.2631 Y1.1171 
G01 X3.2631 Y1.1829 
G01 X3.2671 Y1.1869 
G01 X3.3329 Y1.1869 
G01 X3.3369 Y1.1829 
G01 X3.3369 Y1.1171 
G01 X3.3329 Y1.1131 
G00 Z0.0200 
G00 X3.2649 Y1.1821 
G01 Z-0.0100 F10.00 
G01 X3.2649 Y1.1179 
G01 X3.2679 Y1.1149 
G01 X3.3321 Y1.1149 
G01 X3.3351 Y1.1179 
G01 X3.3351 Y1.1821 
G01 X3.3321 Y1.1851 
G01 X3.2679 Y1.1851 
G01 X3.2649 Y1.1821 
G00 Z0.0200 
G00 X3.3329 Y1.0131 
G01 Z-0.0100 F10.00 
G01 X3.2671 Y1.0131 
G01 X3.2631 Y1.0171 
G01 X3.2631 Y1.0829 
G01 X3.2671 Y1.0869 
G01 X3.3329 Y1.0869 
G01 X3.3369 Y1.0829 
G01 X3.3369 Y1.0171 
G01 X3.3329 Y1.0131 
G00 Z0.0200 
G00 X3.2649 Y1.0821 
G01 Z-0.0100 F10.00 
G01 X3.2649 Y1.0179 
G01 X3.2679 Y1.0149 
G01 X3.3321 Y1.0149 
G01 X3.3351 Y1.0179 
G01 X3.3351 Y1.0821 
G01 X3.3321 Y1.0851 
G01 X3.2679 Y1.0851 
G01 X3.2649 Y1.0821 
G00 Z0.0200 
G00 X3.3329 Y0.9131 
G01 Z-0.0100 F10.00 
G01 X3.2671 Y0.9131 
G01 X3.2631 Y0.9171 
G01 X3.2631 Y0.9829 
G01 X3.2671 Y0.9869 
G01 X3.3329 Y0.9869 
G01 X3.3369 Y0.9829 
G01 X3.3369 Y0.9171 
G01 X3.3329 Y0.9131 
G00 Z0.0200 
G00 X3.2649 Y0.9821 
G01 Z-0.0100 F10.00 
G01 X3.2649 Y0.9179 
G01 X3.2679 Y0.9149 
G01 X3.3321 Y0.9149 
G01 X3.3351 Y0.9179 
G01 X3.3351 Y0.9821 
G01 X3.3321 Y0.9851 
G01 X3.2679 Y0.9851 
G01 X3.2649 Y0.9821 
G00 Z0.0200 
G00 X3.3329 Y0.8131 
G01 Z-0.0100 F10.00 
G01 X3.2671 Y0.8131 
G01 X3.2631 Y0.8171 
G01 X3.2631 Y0.8829 
G01 X3.2671 Y0.8869 
G01 X3.3329 Y0.8869 
G01 X3.3369 Y0.8829 
G01 X3.3369 Y0.8171 
G01 X3.3329 Y0.8131 
G00 Z0.0200 
G00 X3.2649 Y0.8821 
G01 Z-0.0100 F10.00 
G01 X3.2649 Y0.8179 
G01 X3.2679 Y0.8149 
G01 X3.3321 Y0.8149 
G01 X3.3351 Y0.8179 
G01 X3.3351 Y0.8821 
G01 X3.3321 Y0.8851 
G01 X3.2679 Y0.8851 
G01 X3.2649 Y0.8821 
G00 Z0.0200 
G00 X3.3329 Y0.7131 
G01 Z-0.0100 F10.00 
G01 X3.2671 Y0.7131 
G01 X3.2631 Y0.7171 
G01 X3.2631 Y0.7829 
G01 X3.2671 Y0.7869 
G01 X3.3329 Y0.7869 
G01 X3.3369 Y0.7829 
G01 X3.3369 Y0.7171 
G01 X3.3329 Y0.7131 
G00 Z0.0200 
G00 X3.2649 Y0.7821 
G01 Z-0.0100 F10.00 
G01 X3.2649 Y0.7179 
G01 X3.2679 Y0.7149 
G01 X3.3321 Y0.7149 
G01 X3.3351 Y0.7179 
G01 X3.3351 Y0.7821 
G01 X3.3321 Y0.7851 
G01 X3.2679 Y0.7851 
G01 X3.2649 Y0.7821 
G00 Z0.0200 
G00 X3.3329 Y0.6131 
G01 Z-0.0100 F10.00 
G01 X3.2671 Y0.6131 
G01 X3.2631 Y0.6171 
G01 X3.2631 Y0.6829 
G01 X3.2671 Y0.6869 
G01 X3.3329 Y0.6869 
G01 X3.3369 Y0.6829 
G01 X3.3369 Y0.6171 
G01 X3.3329 Y0.6131 
G00 Z0.0200 
G00 X3.2649 Y0.6821 
G01 Z-0.0100 F10.00 
G01 X3.2649 Y0.6179 
G01 X3.2679 Y0.6149 
G01 X3.3321 Y0.6149 
G01 X3.3351 Y0.6179 
G01 X3.3351 Y0.6821 
G01 X3.3321 Y0.6851 
G01 X3.2679 Y0.6851 
G01 X3.2649 Y0.6821 
G00 Z0.0200 
G00 X0.1153 Y1.2194 
G01 Z-0.0100 F10.00 
G01 X0.1153 Y1.2806 
G01 X0.1194 Y1.2847 
G01 X0.1806 Y1.2847 
G01 X0.1847 Y1.2806 
G01 X0.1847 Y1.2194 
G01 X0.1806 Y1.2153 
G01 X0.1194 Y1.2153 
G01 X0.1153 Y1.2194 
G00 Z0.0200 
G00 X0.1829 Y1.2201 
G01 Z-0.0100 F10.00 
G01 X0.1829 Y1.2799 
G01 X0.1799 Y1.2829 
G01 X0.1201 Y1.2829 
G01 X0.1171 Y1.2799 
G01 X0.1171 Y1.2201 
G01 X0.1201 Y1.2171 
G01 X0.1799 Y1.2171 
G01 X0.1829 Y1.2201 
G00 Z0.0200 
G00 X0.1153 Y0.6194 
G01 Z-0.0100 F10.00 
G01 X0.1153 Y0.6806 
G01 X0.1194 Y0.6847 
G01 X0.1806 Y0.6847 
G01 X0.1847 Y0.6806 
G01 X0.1847 Y0.6194 
G01 X0.1806 Y0.6153 
G01 X0.1194 Y0.6153 
G01 X0.1153 Y0.6194 
G00 Z0.0200 
G00 X0.1829 Y0.6201 
G01 Z-0.0100 F10.00 
G01 X0.1829 Y0.6799 
G01 X0.1799 Y0.6829 
G01 X0.1201 Y0.6829 
G01 X0.1171 Y0.6799 
G01 X0.1171 Y0.6201 
G01 X0.1201 Y0.6171 
G01 X0.1799 Y0.6171 
G01 X0.1829 Y0.6201 
G00 Z0.0200 
G00 X0.1153 Y0.7194 
G01 Z-0.0100 F10.00 
G01 X0.1153 Y0.7806 
G01 X0.1194 Y0.7847 
G01 X0.1806 Y0.7847 
G01 X0.1847 Y0.7806 
G01 X0.1847 Y0.7194 
G01 X0.1806 Y0.7153 
G01 X0.1194 Y0.7153 
G01 X0.1153 Y0.7194 
G00 Z0.0200 
G00 X0.1829 Y0.7201 
G01 Z-0.0100 F10.00 
G01 X0.1829 Y0.7799 
G01 X0.1799 Y0.7829 
G01 X0.1201 Y0.7829 
G01 X0.1171 Y0.7799 
G01 X0.1171 Y0.7201 
G01 X0.1201 Y0.7171 
G01 X0.1799 Y0.7171 
G01 X0.1829 Y0.7201 
G00 Z0.0200 
G00 X0.1153 Y0.8194 
G01 Z-0.0100 F10.00 
G01 X0.1153 Y0.8806 
G01 X0.1194 Y0.8847 
G01 X0.1806 Y0.8847 
G01 X0.1847 Y0.8806 
G01 X0.1847 Y0.8194 
G01 X0.1806 Y0.8153 
G01 X0.1194 Y0.8153 
G01 X0.1153 Y0.8194 
G00 Z0.0200 
G00 X0.1829 Y0.8201 
G01 Z-0.0100 F10.00 
G01 X0.1829 Y0.8799 
G01 X0.1799 Y0.8829 
G01 X0.1201 Y0.8829 
G01 X0.1171 Y0.8799 
G01 X0.1171 Y0.8201 
G01 X0.1201 Y0.8171 
G01 X0.1799 Y0.8171 
G01 X0.1829 Y0.8201 
G00 Z0.0200 
G00 X0.1153 Y0.9194 
G01 Z-0.0100 F10.00 
G01 X0.1153 Y0.9806 
G01 X0.1194 Y0.9847 
G01 X0.1806 Y0.9847 
G01 X0.1847 Y0.9806 
G01 X0.1847 Y0.9194 
G01 X0.1806 Y0.9153 
G01 X0.1194 Y0.9153 
G01 X0.1153 Y0.9194 
G00 Z0.0200 
G00 X0.1829 Y0.9201 
G01 Z-0.0100 F10.00 
G01 X0.1829 Y0.9799 
G01 X0.1799 Y0.9829 
G01 X0.1201 Y0.9829 
G01 X0.1171 Y0.9799 
G01 X0.1171 Y0.9201 
G01 X0.1201 Y0.9171 
G01 X0.1799 Y0.9171 
G01 X0.1829 Y0.9201 
G00 Z0.0200 
G00 X0.1153 Y1.0194 
G01 Z-0.0100 F10.00 
G01 X0.1153 Y1.0806 
G01 X0.1194 Y1.0847 
G01 X0.1806 Y1.0847 
G01 X0.1847 Y1.0806 
G01 X0.1847 Y1.0194 
G01 X0.1806 Y1.0153 
G01 X0.1194 Y1.0153 
G01 X0.1153 Y1.0194 
G00 Z0.0200 
G00 X0.1829 Y1.0201 
G01 Z-0.0100 F10.00 
G01 X0.1829 Y1.0799 
G01 X0.1799 Y1.0829 
G01 X0.1201 Y1.0829 
G01 X0.1171 Y1.0799 
G01 X0.1171 Y1.0201 
G01 X0.1201 Y1.0171 
G01 X0.1799 Y1.0171 
G01 X0.1829 Y1.0201 
G00 Z0.0200 
G00 X0.1153 Y1.1194 
G01 Z-0.0100 F10.00 
G01 X0.1153 Y1.1806 
G01 X0.1194 Y1.1847 
G01 X0.1806 Y1.1847 
G01 X0.1847 Y1.1806 
G01 X0.1847 Y1.1194 
G01 X0.1806 Y1.1153 
G01 X0.1194 Y1.1153 
G01 X0.1153 Y1.1194 
G00 Z0.0200 
G00 X0.1829 Y1.1201 
G01 Z-0.0100 F10.00 
G01 X0.1829 Y1.1799 
G01 X0.1799 Y1.1829 
G01 X0.1201 Y1.1829 
G01 X0.1171 Y1.1799 
G01 X0.1171 Y1.1201 
G01 X0.1201 Y1.1171 
G01 X0.1799 Y1.1171 
G01 X0.1829 Y1.1201 
G00 Z0.0200 
G00 X2.1153 Y1.2194 
G01 Z-0.0100 F10.00 
G01 X2.1153 Y1.2806 
G01 X2.1194 Y1.2847 
G01 X2.1806 Y1.2847 
G01 X2.1847 Y1.2806 
G01 X2.1847 Y1.2194 
G01 X2.1806 Y1.2153 
G01 X2.1194 Y1.2153 
G01 X2.1153 Y1.2194 
G00 Z0.0200 
G00 X2.1829 Y1.2201 
G01 Z-0.0100 F10.00 
G01 X2.1829 Y1.2799 
G01 X2.1799 Y1.2829 
G01 X2.1201 Y1.2829 
G01 X2.1171 Y1.2799 
G01 X2.1171 Y1.2201 
G01 X2.1201 Y1.2171 
G01 X2.1799 Y1.2171 
G01 X2.1829 Y1.2201 
G00 Z0.0200 
G00 X2.1153 Y0.6194 
G01 Z-0.0100 F10.00 
G01 X2.1153 Y0.6806 
G01 X2.1194 Y0.6847 
G01 X2.1806 Y0.6847 
G01 X2.1847 Y0.6806 
G01 X2.1847 Y0.6194 
G01 X2.1806 Y0.6153 
G01 X2.1194 Y0.6153 
G01 X2.1153 Y0.6194 
G00 Z0.0200 
G00 X2.1829 Y0.6201 
G01 Z-0.0100 F10.00 
G01 X2.1829 Y0.6799 
G01 X2.1799 Y0.6829 
G01 X2.1201 Y0.6829 
G01 X2.1171 Y0.6799 
G01 X2.1171 Y0.6201 
G01 X2.1201 Y0.6171 
G01 X2.1799 Y0.6171 
G01 X2.1829 Y0.6201 
G00 Z0.0200 
G00 X2.1153 Y0.7194 
G01 Z-0.0100 F10.00 
G01 X2.1153 Y0.7806 
G01 X2.1194 Y0.7847 
G01 X2.1806 Y0.7847 
G01 X2.1847 Y0.7806 
G01 X2.1847 Y0.7194 
G01 X2.1806 Y0.7153 
G01 X2.1194 Y0.7153 
G01 X2.1153 Y0.7194 
G00 Z0.0200 
G00 X2.1829 Y0.7201 
G01 Z-0.0100 F10.00 
G01 X2.1829 Y0.7799 
G01 X2.1799 Y0.7829 
G01 X2.1201 Y0.7829 
G01 X2.1171 Y0.7799 
G01 X2.1171 Y0.7201 
G01 X2.1201 Y0.7171 
G01 X2.1799 Y0.7171 
G01 X2.1829 Y0.7201 
G00 Z0.0200 
G00 X2.1153 Y0.8194 
G01 Z-0.0100 F10.00 
G01 X2.1153 Y0.8806 
G01 X2.1194 Y0.8847 
G01 X2.1806 Y0.8847 
G01 X2.1847 Y0.8806 
G01 X2.1847 Y0.8194 
G01 X2.1806 Y0.8153 
G01 X2.1194 Y0.8153 
G01 X2.1153 Y0.8194 
G00 Z0.0200 
G00 X2.1829 Y0.8201 
G01 Z-0.0100 F10.00 
G01 X2.1829 Y0.8799 
G01 X2.1799 Y0.8829 
G01 X2.1201 Y0.8829 
G01 X2.1171 Y0.8799 
G01 X2.1171 Y0.8201 
G01 X2.1201 Y0.8171 
G01 X2.1799 Y0.8171 
G01 X2.1829 Y0.8201 
G00 Z0.0200 
G00 X2.1153 Y0.9194 
G01 Z-0.0100 F10.00 
G01 X2.1153 Y0.9806 
G01 X2.1194 Y0.9847 
G01 X2.1806 Y0.9847 
G01 X2.1847 Y0.9806 
G01 X2.1847 Y0.9194 
G01 X2.1806 Y0.9153 
G01 X2.1194 Y0.9153 
G01 X2.1153 Y0.9194 
G00 Z0.0200 
G00 X2.1829 Y0.9201 
G01 Z-0.0100 F10.00 
G01 X2.1829 Y0.9799 
G01 X2.1799 Y0.9829 
G01 X2.1201 Y0.9829 
G01 X2.1171 Y0.9799 
G01 X2.1171 Y0.9201 
G01 X2.1201 Y0.9171 
G01 X2.1799 Y0.9171 
G01 X2.1829 Y0.9201 
G00 Z0.0200 
G00 X2.1153 Y1.0194 
G01 Z-0.0100 F10.00 
G01 X2.1153 Y1.0806 
G01 X2.1194 Y1.0847 
G01 X2.1806 Y1.0847 
G01 X2.1847 Y1.0806 
G01 X2.1847 Y1.0194 
G01 X2.1806 Y1.0153 
G01 X2.1194 Y1.0153 
G01 X2.1153 Y1.0194 
G00 Z0.0200 
G00 X2.1829 Y1.0201 
G01 Z-0.0100 F10.00 
G01 X2.1829 Y1.0799 
G01 X2.1799 Y1.0829 
G01 X2.1201 Y1.0829 
G01 X2.1171 Y1.0799 
G01 X2.1171 Y1.0201 
G01 X2.1201 Y1.0171 
G01 X2.1799 Y1.0171 
G01 X2.1829 Y1.0201 
G00 Z0.0200 
G00 X2.1153 Y1.1194 
G01 Z-0.0100 F10.00 
G01 X2.1153 Y1.1806 
G01 X2.1194 Y1.1847 
G01 X2.1806 Y1.1847 
G01 X2.1847 Y1.1806 
G01 X2.1847 Y1.1194 
G01 X2.1806 Y1.1153 
G01 X2.1194 Y1.1153 
G01 X2.1153 Y1.1194 
G00 Z0.0200 
G00 X2.1829 Y1.1201 
G01 Z-0.0100 F10.00 
G01 X2.1829 Y1.1799 
G01 X2.1799 Y1.1829 
G01 X2.1201 Y1.1829 
G01 X2.1171 Y1.1799 
G01 X2.1171 Y1.1201 
G01 X2.1201 Y1.1171 
G01 X2.1799 Y1.1171 
G01 X2.1829 Y1.1201 
G00 Z0.0200 
G00 X3.1153 Y0.6194 
G01 Z-0.0100 F10.00 
G01 X3.1153 Y0.6806 
G01 X3.1194 Y0.6847 
G01 X3.1806 Y0.6847 
G01 X3.1847 Y0.6806 
G01 X3.1847 Y0.6194 
G01 X3.1806 Y0.6153 
G01 X3.1194 Y0.6153 
G01 X3.1153 Y0.6194 
G00 Z0.0200 
G00 X3.1829 Y0.6201 
G01 Z-0.0100 F10.00 
G01 X3.1829 Y0.6799 
G01 X3.1799 Y0.6829 
G01 X3.1201 Y0.6829 
G01 X3.1171 Y0.6799 
G01 X3.1171 Y0.6201 
G01 X3.1201 Y0.6171 
G01 X3.1799 Y0.6171 
G01 X3.1829 Y0.6201 
G00 Z0.0200 
G00 X3.1194 Y0.7847 
G01 Z-0.0100 F10.00 
G01 X3.1806 Y0.7847 
G01 X3.1847 Y0.7806 
G01 X3.1847 Y0.7194 
G01 X3.1806 Y0.7153 
G01 X3.1194 Y0.7153 
G01 X3.1153 Y0.7194 
G01 X3.1153 Y0.7806 
G01 X3.1194 Y0.7847 
G00 Z0.0200 
G00 X3.1829 Y0.7201 
G01 Z-0.0100 F10.00 
G01 X3.1829 Y0.7799 
G01 X3.1799 Y0.7829 
G01 X3.1201 Y0.7829 
G01 X3.1171 Y0.7799 
G01 X3.1171 Y0.7201 
G01 X3.1201 Y0.7171 
G01 X3.1799 Y0.7171 
G01 X3.1829 Y0.7201 
G00 Z0.0200 
G00 X3.1194 Y0.8847 
G01 Z-0.0100 F10.00 
G01 X3.1806 Y0.8847 
G01 X3.1847 Y0.8806 
G01 X3.1847 Y0.8194 
G01 X3.1806 Y0.8153 
G01 X3.1194 Y0.8153 
G01 X3.1153 Y0.8194 
G01 X3.1153 Y0.8806 
G01 X3.1194 Y0.8847 
G00 Z0.0200 
G00 X3.1829 Y0.8201 
G01 Z-0.0100 F10.00 
G01 X3.1829 Y0.8799 
G01 X3.1799 Y0.8829 
G01 X3.1201 Y0.8829 
G01 X3.1171 Y0.8799 
G01 X3.1171 Y0.8201 
G01 X3.1201 Y0.8171 
G01 X3.1799 Y0.8171 
G01 X3.1829 Y0.8201 
G00 Z0.0200 
G00 X3.1194 Y0.9847 
G01 Z-0.0100 F10.00 
G01 X3.1806 Y0.9847 
G01 X3.1847 Y0.9806 
G01 X3.1847 Y0.9194 
G01 X3.1806 Y0.9153 
G01 X3.1194 Y0.9153 
G01 X3.1153 Y0.9194 
G01 X3.1153 Y0.9806 
G01 X3.1194 Y0.9847 
G00 Z0.0200 
G00 X3.1829 Y0.9201 
G01 Z-0.0100 F10.00 
G01 X3.1829 Y0.9799 
G01 X3.1799 Y0.9829 
G01 X3.1201 Y0.9829 
G01 X3.1171 Y0.9799 
G01 X3.1171 Y0.9201 
G01 X3.1201 Y0.9171 
G01 X3.1799 Y0.9171 
G01 X3.1829 Y0.9201 
G00 Z0.0200 
G00 X3.1194 Y1.0847 
G01 Z-0.0100 F10.00 
G01 X3.1806 Y1.0847 
G01 X3.1847 Y1.0806 
G01 X3.1847 Y1.0194 
G01 X3.1806 Y1.0153 
G01 X3.1194 Y1.0153 
G01 X3.1153 Y1.0194 
G01 X3.1153 Y1.0806 
G01 X3.1194 Y1.0847 
G00 Z0.0200 
G00 X3.1829 Y1.0201 
G01 Z-0.0100 F10.00 
G01 X3.1829 Y1.0799 
G01 X3.1799 Y1.0829 
G01 X3.1201 Y1.0829 
G01 X3.1171 Y1.0799 
G01 X3.1171 Y1.0201 
G01 X3.1201 Y1.0171 
G01 X3.1799 Y1.0171 
G01 X3.1829 Y1.0201 
G00 Z0.0200 
G00 X3.1194 Y1.1847 
G01 Z-0.0100 F10.00 
G01 X3.1806 Y1.1847 
G01 X3.1847 Y1.1806 
G01 X3.1847 Y1.1194 
G01 X3.1806 Y1.1153 
G01 X3.1194 Y1.1153 
G01 X3.1153 Y1.1194 
G01 X3.1153 Y1.1806 
G01 X3.1194 Y1.1847 
G00 Z0.0200 
G00 X3.1829 Y1.1201 
G01 Z-0.0100 F10.00 
G01 X3.1829 Y1.1799 
G01 X3.1799 Y1.1829 
G01 X3.1201 Y1.1829 
G01 X3.1171 Y1.1799 
G01 X3.1171 Y1.1201 
G01 X3.1201 Y1.1171 
G01 X3.1799 Y1.1171 
G01 X3.1829 Y1.1201 
G00 Z0.0200 
G00 X1.1194 Y1.2847 
G01 Z-0.0100 F10.00 
G01 X1.1806 Y1.2847 
G01 X1.1847 Y1.2806 
G01 X1.1847 Y1.2194 
G01 X1.1806 Y1.2153 
G01 X1.1194 Y1.2153 
G01 X1.1153 Y1.2194 
G01 X1.1153 Y1.2806 
G01 X1.1194 Y1.2847 
G00 Z0.0200 
G00 X1.1829 Y1.2201 
G01 Z-0.0100 F10.00 
G01 X1.1829 Y1.2799 
G01 X1.1799 Y1.2829 
G01 X1.1201 Y1.2829 
G01 X1.1171 Y1.2799 
G01 X1.1171 Y1.2201 
G01 X1.1201 Y1.2171 
G01 X1.1799 Y1.2171 
G01 X1.1829 Y1.2201 
G00 Z0.0200 
G00 X1.9153 Y0.6194 
G01 Z-0.0100 F10.00 
G01 X1.9153 Y0.6806 
G01 X1.9194 Y0.6847 
G01 X1.9806 Y0.6847 
G01 X1.9847 Y0.6806 
G01 X1.9847 Y0.6194 
G01 X1.9806 Y0.6153 
G01 X1.9194 Y0.6153 
G01 X1.9153 Y0.6194 
G00 Z0.0200 
G00 X1.9829 Y0.6201 
G01 Z-0.0100 F10.00 
G01 X1.9829 Y0.6799 
G01 X1.9799 Y0.6829 
G01 X1.9201 Y0.6829 
G01 X1.9171 Y0.6799 
G01 X1.9171 Y0.6201 
G01 X1.9201 Y0.6171 
G01 X1.9799 Y0.6171 
G01 X1.9829 Y0.6201 
G00 Z0.0200 
G00 X1.9153 Y0.7194 
G01 Z-0.0100 F10.00 
G01 X1.9153 Y0.7806 
G01 X1.9194 Y0.7847 
G01 X1.9806 Y0.7847 
G01 X1.9847 Y0.7806 
G01 X1.9847 Y0.7194 
G01 X1.9806 Y0.7153 
G01 X1.9194 Y0.7153 
G01 X1.9153 Y0.7194 
G00 Z0.0200 
G00 X1.9829 Y0.7201 
G01 Z-0.0100 F10.00 
G01 X1.9829 Y0.7799 
G01 X1.9799 Y0.7829 
G01 X1.9201 Y0.7829 
G01 X1.9171 Y0.7799 
G01 X1.9171 Y0.7201 
G01 X1.9201 Y0.7171 
G01 X1.9799 Y0.7171 
G01 X1.9829 Y0.7201 
G00 Z0.0200 
G00 X1.9153 Y0.8194 
G01 Z-0.0100 F10.00 
G01 X1.9153 Y0.8806 
G01 X1.9194 Y0.8847 
G01 X1.9806 Y0.8847 
G01 X1.9847 Y0.8806 
G01 X1.9847 Y0.8194 
G01 X1.9806 Y0.8153 
G01 X1.9194 Y0.8153 
G01 X1.9153 Y0.8194 
G00 Z0.0200 
G00 X1.9829 Y0.8201 
G01 Z-0.0100 F10.00 
G01 X1.9829 Y0.8799 
G01 X1.9799 Y0.8829 
G01 X1.9201 Y0.8829 
G01 X1.9171 Y0.8799 
G01 X1.9171 Y0.8201 
G01 X1.9201 Y0.8171 
G01 X1.9799 Y0.8171 
G01 X1.9829 Y0.8201 
G00 Z0.0200 
G00 X1.9153 Y0.9194 
G01 Z-0.0100 F10.00 
G01 X1.9153 Y0.9806 
G01 X1.9194 Y0.9847 
G01 X1.9806 Y0.9847 
G01 X1.9847 Y0.9806 
G01 X1.9847 Y0.9194 
G01 X1.9806 Y0.9153 
G01 X1.9194 Y0.9153 
G01 X1.9153 Y0.9194 
G00 Z0.0200 
G00 X1.9829 Y0.9201 
G01 Z-0.0100 F10.00 
G01 X1.9829 Y0.9799 
G01 X1.9799 Y0.9829 
G01 X1.9201 Y0.9829 
G01 X1.9171 Y0.9799 
G01 X1.9171 Y0.9201 
G01 X1.9201 Y0.9171 
G01 X1.9799 Y0.9171 
G01 X1.9829 Y0.9201 
G00 Z0.0200 
G00 X1.9153 Y1.0194 
G01 Z-0.0100 F10.00 
G01 X1.9153 Y1.0806 
G01 X1.9194 Y1.0847 
G01 X1.9806 Y1.0847 
G01 X1.9847 Y1.0806 
G01 X1.9847 Y1.0194 
G01 X1.9806 Y1.0153 
G01 X1.9194 Y1.0153 
G01 X1.9153 Y1.0194 
G00 Z0.0200 
G00 X1.9829 Y1.0201 
G01 Z-0.0100 F10.00 
G01 X1.9829 Y1.0799 
G01 X1.9799 Y1.0829 
G01 X1.9201 Y1.0829 
G01 X1.9171 Y1.0799 
G01 X1.9171 Y1.0201 
G01 X1.9201 Y1.0171 
G01 X1.9799 Y1.0171 
G01 X1.9829 Y1.0201 
G00 Z0.0200 
G00 X1.9823 Y1.2091 
G01 Z-0.0100 F10.00 
G01 X1.9804 Y1.2072 
G01 X1.9778 Y1.2061 
G01 X1.9767 Y1.2035 
G01 X1.9747 Y1.2015 
G01 X1.9747 Y1.1987 
G01 X1.9736 Y1.1961 
G01 X1.9747 Y1.1935 
G01 X1.9747 Y1.1906 
G01 X1.9767 Y1.1886 
G01 X1.9777 Y1.1860 
G01 X1.9804 Y1.1850 
G01 X1.9847 Y1.1806 
G01 X1.9847 Y1.1194 
G01 X1.9806 Y1.1153 
G01 X1.9194 Y1.1153 
G01 X1.9153 Y1.1194 
G01 X1.9153 Y1.1806 
G01 X1.9196 Y1.1850 
G01 X1.9222 Y1.1860 
G01 X1.9233 Y1.1886 
G01 X1.9253 Y1.1906 
G01 X1.9253 Y1.1935 
G01 X1.9264 Y1.1961 
G01 X1.9253 Y1.1987 
G01 X1.9253 Y1.2015 
G01 X1.9233 Y1.2035 
G01 X1.9222 Y1.2061 
G01 X1.9196 Y1.2072 
G01 X1.9176 Y1.2091 
G01 X1.9148 Y1.2091 
G01 X1.9138 Y1.2096 
G01 X1.9096 Y1.2138 
G01 X1.9073 Y1.2193 
G01 X1.9073 Y1.2807 
G01 X1.9096 Y1.2862 
G01 X1.9138 Y1.2904 
G01 X1.9193 Y1.2927 
G01 X1.9807 Y1.2927 
G01 X1.9862 Y1.2904 
G01 X1.9904 Y1.2862 
G01 X1.9927 Y1.2807 
G01 X1.9927 Y1.2193 
G01 X1.9904 Y1.2138 
G01 X1.9862 Y1.2096 
G01 X1.9852 Y1.2091 
G01 X1.9823 Y1.2091 
G00 Z0.0200 
G00 X1.9829 Y1.1201 
G01 Z-0.0100 F10.00 
G01 X1.9829 Y1.1799 
G01 X1.9799 Y1.1829 
G01 X1.9201 Y1.1829 
G01 X1.9171 Y1.1799 
G01 X1.9171 Y1.1201 
G01 X1.9201 Y1.1171 
G01 X1.9799 Y1.1171 
G01 X1.9829 Y1.1201 
G00 Z0.0200 
G00 X1.9829 Y1.2201 
G01 Z-0.0100 F10.00 
G01 X1.9829 Y1.2799 
G01 X1.9799 Y1.2829 
G01 X1.9201 Y1.2829 
G01 X1.9171 Y1.2799 
G01 X1.9171 Y1.2201 
G01 X1.9201 Y1.2171 
G01 X1.9799 Y1.2171 
G01 X1.9829 Y1.2201 
G00 Z0.0200 
G00 X0.3369 Y0.6829 
G01 Z-0.0100 F10.00 
G01 X0.3369 Y0.6171 
G01 X0.3329 Y0.6131 
G01 X0.2671 Y0.6131 
G01 X0.2631 Y0.6171 
G01 X0.2631 Y0.6829 
G01 X0.2671 Y0.6869 
G01 X0.3329 Y0.6869 
G01 X0.3369 Y0.6829 
G00 Z0.0200 
G00 X0.2649 Y0.6821 
G01 Z-0.0100 F10.00 
G01 X0.2649 Y0.6179 
G01 X0.2679 Y0.6149 
G01 X0.3321 Y0.6149 
G01 X0.3351 Y0.6179 
G01 X0.3351 Y0.6821 
G01 X0.3321 Y0.6851 
G01 X0.2679 Y0.6851 
G01 X0.2649 Y0.6821 
G00 Z0.0200 
G00 X0.3369 Y0.7829 
G01 Z-0.0100 F10.00 
G01 X0.3369 Y0.7171 
G01 X0.3329 Y0.7131 
G01 X0.2671 Y0.7131 
G01 X0.2631 Y0.7171 
G01 X0.2631 Y0.7829 
G01 X0.2671 Y0.7869 
G01 X0.3329 Y0.7869 
G01 X0.3369 Y0.7829 
G00 Z0.0200 
G00 X0.2649 Y0.7821 
G01 Z-0.0100 F10.00 
G01 X0.2649 Y0.7179 
G01 X0.2679 Y0.7149 
G01 X0.3321 Y0.7149 
G01 X0.3351 Y0.7179 
G01 X0.3351 Y0.7821 
G01 X0.3321 Y0.7851 
G01 X0.2679 Y0.7851 
G01 X0.2649 Y0.7821 
G00 Z0.0200 
G00 X0.3369 Y0.8829 
G01 Z-0.0100 F10.00 
G01 X0.3369 Y0.8171 
G01 X0.3329 Y0.8131 
G01 X0.2671 Y0.8131 
G01 X0.2631 Y0.8171 
G01 X0.2631 Y0.8829 
G01 X0.2671 Y0.8869 
G01 X0.3329 Y0.8869 
G01 X0.3369 Y0.8829 
G00 Z0.0200 
G00 X0.2649 Y0.8821 
G01 Z-0.0100 F10.00 
G01 X0.2649 Y0.8179 
G01 X0.2679 Y0.8149 
G01 X0.3321 Y0.8149 
G01 X0.3351 Y0.8179 
G01 X0.3351 Y0.8821 
G01 X0.3321 Y0.8851 
G01 X0.2679 Y0.8851 
G01 X0.2649 Y0.8821 
G00 Z0.0200 
G00 X0.3369 Y0.9829 
G01 Z-0.0100 F10.00 
G01 X0.3369 Y0.9171 
G01 X0.3329 Y0.9131 
G01 X0.2671 Y0.9131 
G01 X0.2631 Y0.9171 
G01 X0.2631 Y0.9829 
G01 X0.2671 Y0.9869 
G01 X0.3329 Y0.9869 
G01 X0.3369 Y0.9829 
G00 Z0.0200 
G00 X0.2649 Y0.9821 
G01 Z-0.0100 F10.00 
G01 X0.2649 Y0.9179 
G01 X0.2679 Y0.9149 
G01 X0.3321 Y0.9149 
G01 X0.3351 Y0.9179 
G01 X0.3351 Y0.9821 
G01 X0.3321 Y0.9851 
G01 X0.2679 Y0.9851 
G01 X0.2649 Y0.9821 
G00 Z0.0200 
G00 X0.3369 Y1.0829 
G01 Z-0.0100 F10.00 
G01 X0.3369 Y1.0171 
G01 X0.3329 Y1.0131 
G01 X0.2671 Y1.0131 
G01 X0.2631 Y1.0171 
G01 X0.2631 Y1.0829 
G01 X0.2671 Y1.0869 
G01 X0.3329 Y1.0869 
G01 X0.3369 Y1.0829 
G00 Z0.0200 
G00 X0.2649 Y1.0821 
G01 Z-0.0100 F10.00 
G01 X0.2649 Y1.0179 
G01 X0.2679 Y1.0149 
G01 X0.3321 Y1.0149 
G01 X0.3351 Y1.0179 
G01 X0.3351 Y1.0821 
G01 X0.3321 Y1.0851 
G01 X0.2679 Y1.0851 
G01 X0.2649 Y1.0821 
G00 Z0.0200 
G00 X0.3369 Y1.1829 
G01 Z-0.0100 F10.00 
G01 X0.3369 Y1.1171 
G01 X0.3329 Y1.1131 
G01 X0.2671 Y1.1131 
G01 X0.2631 Y1.1171 
G01 X0.2631 Y1.1829 
G01 X0.2671 Y1.1869 
G01 X0.3329 Y1.1869 
G01 X0.3369 Y1.1829 
G00 Z0.0200 
G00 X0.2649 Y1.1821 
G01 Z-0.0100 F10.00 
G01 X0.2649 Y1.1179 
G01 X0.2679 Y1.1149 
G01 X0.3321 Y1.1149 
G01 X0.3351 Y1.1179 
G01 X0.3351 Y1.1821 
G01 X0.3321 Y1.1851 
G01 X0.2679 Y1.1851 
G01 X0.2649 Y1.1821 
G00 Z0.0200 
G00 X0.3369 Y1.2829 
G01 Z-0.0100 F10.00 
G01 X0.3369 Y1.2171 
G01 X0.3329 Y1.2131 
G01 X0.2671 Y1.2131 
G01 X0.2631 Y1.2171 
G01 X0.2631 Y1.2829 
G01 X0.2671 Y1.2869 
G01 X0.3329 Y1.2869 
G01 X0.3369 Y1.2829 
G00 Z0.0200 
G00 X0.2649 Y1.2821 
G01 Z-0.0100 F10.00 
G01 X0.2649 Y1.2179 
G01 X0.2679 Y1.2149 
G01 X0.3321 Y1.2149 
G01 X0.3351 Y1.2179 
G01 X0.3351 Y1.2821 
G01 X0.3321 Y1.2851 
G01 X0.2679 Y1.2851 
G01 X0.2649 Y1.2821 
G00 Z0.0200 
G00 X0.3369 Y1.3829 
G01 Z-0.0100 F10.00 
G01 X0.3369 Y1.3171 
G01 X0.3329 Y1.3131 
G01 X0.2671 Y1.3131 
G01 X0.2631 Y1.3171 
G01 X0.2631 Y1.3829 
G01 X0.2671 Y1.3869 
G01 X0.3329 Y1.3869 
G01 X0.3369 Y1.3829 
G00 Z0.0200 
G00 X0.2649 Y1.3821 
G01 Z-0.0100 F10.00 
G01 X0.2649 Y1.3179 
G01 X0.2679 Y1.3149 
G01 X0.3321 Y1.3149 
G01 X0.3351 Y1.3179 
G01 X0.3351 Y1.3821 
G01 X0.3321 Y1.3851 
G01 X0.2679 Y1.3851 
G01 X0.2649 Y1.3821 
G00 Z0.0200 
G00 X3.6900 Y1.6019 
G01 Z-0.0100 F10.00 
G01 X3.6954 Y1.5996 
G01 X3.6996 Y1.5954 
G01 X3.7019 Y1.5900 
G01 X3.7019 Y1.5100 
G01 X3.6996 Y1.5046 
G01 X3.6954 Y1.5004 
G01 X3.6900 Y1.4981 
G01 X3.6100 Y1.4981 
G01 X3.6045 Y1.5004 
G01 X3.6004 Y1.5046 
G01 X3.5981 Y1.5100 
G01 X3.5981 Y1.5900 
G01 X3.6004 Y1.5954 
G01 X3.6046 Y1.5996 
G01 X3.6100 Y1.6019 
G01 X3.6900 Y1.6019 
G00 Z0.0200 
G00 X3.6079 Y1.5891 
G01 Z-0.0100 F10.00 
G01 X3.6079 Y1.5109 
G01 X3.6109 Y1.5079 
G01 X3.6891 Y1.5079 
G01 X3.6921 Y1.5109 
G01 X3.6921 Y1.5891 
G01 X3.6891 Y1.5921 
G01 X3.6109 Y1.5921 
G01 X3.6079 Y1.5891 
G00 Z0.0200 
G00 X2.6900 Y1.6019 
G01 Z-0.0100 F10.00 
G01 X2.6954 Y1.5996 
G01 X2.6996 Y1.5954 
G01 X2.7019 Y1.5900 
G01 X2.7019 Y1.5100 
G01 X2.6996 Y1.5046 
G01 X2.6954 Y1.5004 
G01 X2.6900 Y1.4981 
G01 X2.6100 Y1.4981 
G01 X2.6046 Y1.5004 
G01 X2.6004 Y1.5046 
G01 X2.5981 Y1.5100 
G01 X2.5981 Y1.5900 
G01 X2.6004 Y1.5954 
G01 X2.6046 Y1.5996 
G01 X2.6100 Y1.6019 
G01 X2.6900 Y1.6019 
G00 Z0.0200 
G00 X2.6079 Y1.5891 
G01 Z-0.0100 F10.00 
G01 X2.6079 Y1.5109 
G01 X2.6109 Y1.5079 
G01 X2.6891 Y1.5079 
G01 X2.6921 Y1.5109 
G01 X2.6921 Y1.5891 
G01 X2.6891 Y1.5921 
G01 X2.6109 Y1.5921 
G01 X2.6079 Y1.5891 
G00 Z0.0200 
G00 X1.6900 Y1.6019 
G01 Z-0.0100 F10.00 
G01 X1.6954 Y1.5996 
G01 X1.6996 Y1.5954 
G01 X1.7019 Y1.5900 
G01 X1.7019 Y1.5100 
G01 X1.6996 Y1.5046 
G01 X1.6954 Y1.5004 
G01 X1.6900 Y1.4981 
G01 X1.6100 Y1.4981 
G01 X1.6046 Y1.5004 
G01 X1.6004 Y1.5046 
G01 X1.5981 Y1.5100 
G01 X1.5981 Y1.5900 
G01 X1.6004 Y1.5954 
G01 X1.6046 Y1.5996 
G01 X1.6100 Y1.6019 
G01 X1.6900 Y1.6019 
G00 Z0.0200 
G00 X1.6079 Y1.5891 
G01 Z-0.0100 F10.00 
G01 X1.6079 Y1.5109 
G01 X1.6109 Y1.5079 
G01 X1.6891 Y1.5079 
G01 X1.6921 Y1.5109 
G01 X1.6921 Y1.5891 
G01 X1.6891 Y1.5921 
G01 X1.6109 Y1.5921 
G01 X1.6079 Y1.5891 
G00 Z0.0200 
G00 X0.6900 Y1.6019 
G01 Z-0.0100 F10.00 
G01 X0.6954 Y1.5996 
G01 X0.6996 Y1.5954 
G01 X0.7019 Y1.5900 
G01 X0.7019 Y1.5100 
G01 X0.6996 Y1.5046 
G01 X0.6954 Y1.5004 
G01 X0.6900 Y1.4981 
G01 X0.6100 Y1.4981 
G01 X0.6046 Y1.5004 
G01 X0.6004 Y1.5046 
G01 X0.5981 Y1.5100 
G01 X0.5981 Y1.5900 
G01 X0.6004 Y1.5954 
G01 X0.6046 Y1.5996 
G01 X0.6100 Y1.6019 
G01 X0.6900 Y1.6019 
G00 Z0.0200 
G00 X0.6079 Y1.5891 
G01 Z-0.0100 F10.00 
G01 X0.6079 Y1.5109 
G01 X0.6109 Y1.5079 
G01 X0.6891 Y1.5079 
G01 X0.6921 Y1.5109 
G01 X0.6921 Y1.5891 
G01 X0.6891 Y1.5921 
G01 X0.6109 Y1.5921 
G01 X0.6079 Y1.5891 
G00 Z0.0200 
G00 X0.9671 Y0.3631 
G01 Z-0.0100 F10.00 
G01 X0.9631 Y0.3671 
G01 X0.9631 Y0.4329 
G01 X0.9671 Y0.4369 
G01 X0.9774 Y0.4369 
G01 X0.9851 Y0.4446 
G01 X0.9851 Y0.4554 
G01 X0.9851 Y0.5530 
G01 X0.9874 Y0.5584 
G01 X0.9916 Y0.5626 
G01 X0.9970 Y0.5649 
G01 X1.0110 Y0.5649 
G01 X1.6774 Y0.5649 
G01 X1.6851 Y0.5726 
G01 X1.6851 Y0.5834 
G01 X1.6851 Y0.8274 
G01 X1.6774 Y0.8351 
G01 X1.6666 Y0.8351 
G01 X1.6446 Y0.8351 
G01 X1.6369 Y0.8274 
G01 X1.6369 Y0.8171 
G01 X1.6329 Y0.8131 
G01 X1.5671 Y0.8131 
G01 X1.5631 Y0.8171 
G01 X1.5631 Y0.8829 
G01 X1.5671 Y0.8869 
G01 X1.6329 Y0.8869 
G01 X1.6369 Y0.8829 
G01 X1.6369 Y0.8726 
G01 X1.6446 Y0.8649 
G01 X1.6554 Y0.8649 
G01 X1.6999 Y0.8649 
G01 X1.7030 Y0.8649 
G01 X1.7084 Y0.8626 
G01 X1.7089 Y0.8622 
G01 X1.7089 Y0.8622 
G01 X1.7119 Y0.8592 
G01 X1.7166 Y0.8545 
G01 X1.7274 Y0.8545 
G01 X1.7274 Y0.8545 
G01 X1.7312 Y0.8583 
G01 X1.7351 Y0.8622 
G01 X1.7351 Y0.8730 
G01 X1.7351 Y0.9274 
G01 X1.7274 Y0.9351 
G01 X1.7166 Y0.9351 
G01 X1.6554 Y0.9351 
G01 X1.6446 Y0.9351 
G01 X1.6369 Y0.9274 
G01 X1.6369 Y0.9171 
G01 X1.6329 Y0.9131 
G01 X1.5671 Y0.9131 
G01 X1.5631 Y0.9171 
G01 X1.5631 Y0.9829 
G01 X1.5671 Y0.9869 
G01 X1.6329 Y0.9869 
G01 X1.6369 Y0.9829 
G01 X1.6369 Y0.9726 
G01 X1.6446 Y0.9649 
G01 X1.6554 Y0.9649 
G01 X1.7530 Y0.9649 
G01 X1.7584 Y0.9626 
G01 X1.7589 Y0.9622 
G01 X1.7589 Y0.9622 
G01 X1.7619 Y0.9592 
G01 X1.7666 Y0.9545 
G01 X1.7774 Y0.9545 
G01 X1.7774 Y0.9545 
G01 X1.7812 Y0.9583 
G01 X1.7851 Y0.9622 
G01 X1.7851 Y0.9730 
G01 X1.7851 Y1.1274 
G01 X1.7774 Y1.1351 
G01 X1.7666 Y1.1351 
G01 X1.6446 Y1.1351 
G01 X1.6369 Y1.1274 
G01 X1.6369 Y1.1171 
G01 X1.6329 Y1.1131 
G01 X1.5671 Y1.1131 
G01 X1.5631 Y1.1171 
G01 X1.5631 Y1.1829 
G01 X1.5671 Y1.1869 
G01 X1.6329 Y1.1869 
G01 X1.6369 Y1.1829 
G01 X1.6369 Y1.1726 
G01 X1.6446 Y1.1649 
G01 X1.6554 Y1.1649 
G01 X1.7999 Y1.1649 
G01 X1.8030 Y1.1649 
G01 X1.8084 Y1.1626 
G01 X1.8089 Y1.1622 
G01 X1.8089 Y1.1622 
G01 X1.8119 Y1.1592 
G01 X1.8166 Y1.1545 
G01 X1.8274 Y1.1545 
G01 X1.8274 Y1.1545 
G01 X1.8312 Y1.1583 
G01 X1.8351 Y1.1622 
G01 X1.8351 Y1.1730 
G01 X1.8351 Y1.2274 
G01 X1.8274 Y1.2351 
G01 X1.8166 Y1.2351 
G01 X1.6446 Y1.2351 
G01 X1.6369 Y1.2274 
G01 X1.6369 Y1.2171 
G01 X1.6329 Y1.2131 
G01 X1.5671 Y1.2131 
G01 X1.5631 Y1.2171 
G01 X1.5631 Y1.2829 
G01 X1.5671 Y1.2869 
G01 X1.6329 Y1.2869 
G01 X1.6369 Y1.2829 
G01 X1.6369 Y1.2726 
G01 X1.6446 Y1.2649 
G01 X1.6554 Y1.2649 
G01 X1.8530 Y1.2649 
G01 X1.8584 Y1.2626 
G01 X1.8626 Y1.2584 
G01 X1.8649 Y1.2530 
G01 X1.8649 Y1.2390 
G01 X1.8649 Y0.2501 
G01 X1.8649 Y0.2470 
G01 X1.8626 Y0.2416 
G01 X1.8584 Y0.2374 
G01 X1.8530 Y0.2351 
G01 X1.1226 Y0.2351 
G01 X1.1149 Y0.2274 
G01 X1.1149 Y0.2166 
G01 X1.1149 Y0.1446 
G01 X1.1226 Y0.1369 
G01 X1.1329 Y0.1369 
G01 X1.1369 Y0.1329 
G01 X1.1369 Y0.0671 
G01 X1.1329 Y0.0631 
G01 X1.0671 Y0.0631 
G01 X1.0631 Y0.0671 
G01 X1.0631 Y0.1329 
G01 X1.0671 Y0.1369 
G01 X1.0774 Y0.1369 
G01 X1.0851 Y0.1446 
G01 X1.0851 Y0.1554 
G01 X1.0851 Y0.2499 
G01 X1.0851 Y0.2530 
G01 X1.0874 Y0.2584 
G01 X1.0916 Y0.2626 
G01 X1.0970 Y0.2649 
G01 X1.8274 Y0.2649 
G01 X1.8351 Y0.2726 
G01 X1.8351 Y0.2834 
G01 X1.8351 Y0.4378 
G01 X1.8351 Y0.4378 
G01 X1.8313 Y0.4416 
G01 X1.8274 Y0.4455 
G01 X1.8166 Y0.4455 
G01 X1.8166 Y0.4455 
G01 X1.8120 Y0.4410 
G01 X1.8089 Y0.4378 
G01 X1.8089 Y0.4378 
G01 X1.8084 Y0.4374 
G01 X1.8030 Y0.4351 
G01 X1.2446 Y0.4351 
G01 X1.2369 Y0.4274 
G01 X1.2369 Y0.4166 
G01 X1.2369 Y0.3671 
G01 X1.2329 Y0.3631 
G01 X1.1671 Y0.3631 
G01 X1.1631 Y0.3671 
G01 X1.1631 Y0.4329 
G01 X1.1671 Y0.4369 
G01 X1.1774 Y0.4369 
G01 X1.1851 Y0.4446 
G01 X1.1851 Y0.4530 
G01 X1.1874 Y0.4584 
G01 X1.1878 Y0.4589 
G01 X1.1878 Y0.4589 
G01 X1.1908 Y0.4619 
G01 X1.1955 Y0.4666 
G01 X1.1955 Y0.4774 
G01 X1.1955 Y0.4774 
G01 X1.1917 Y0.4812 
G01 X1.1878 Y0.4851 
G01 X1.1770 Y0.4851 
G01 X1.1226 Y0.4851 
G01 X1.1149 Y0.4774 
G01 X1.1149 Y0.4666 
G01 X1.1149 Y0.4446 
G01 X1.1226 Y0.4369 
G01 X1.1329 Y0.4369 
G01 X1.1369 Y0.4329 
G01 X1.1369 Y0.3671 
G01 X1.1329 Y0.3631 
G01 X1.0671 Y0.3631 
G01 X1.0631 Y0.3671 
G01 X1.0631 Y0.4329 
G01 X1.0671 Y0.4369 
G01 X1.0774 Y0.4369 
G01 X1.0851 Y0.4446 
G01 X1.0851 Y0.4554 
G01 X1.0851 Y0.4999 
G01 X1.0851 Y0.5030 
G01 X1.0874 Y0.5084 
G01 X1.0878 Y0.5089 
G01 X1.0878 Y0.5089 
G01 X1.0908 Y0.5119 
G01 X1.0955 Y0.5166 
G01 X1.0955 Y0.5274 
G01 X1.0955 Y0.5274 
G01 X1.0917 Y0.5312 
G01 X1.0878 Y0.5351 
G01 X1.0770 Y0.5351 
G01 X1.0226 Y0.5351 
G01 X1.0149 Y0.5274 
G01 X1.0149 Y0.5166 
G01 X1.0149 Y0.4446 
G01 X1.0226 Y0.4369 
G01 X1.0329 Y0.4369 
G01 X1.0369 Y0.4329 
G01 X1.0369 Y0.3671 
G01 X1.0329 Y0.3631 
G01 X0.9671 Y0.3631 
G00 Z0.0200 
G00 X1.0679 Y0.0649 
G01 Z-0.0100 F10.00 
G01 X1.1321 Y0.0649 
G01 X1.1351 Y0.0679 
G01 X1.1351 Y0.1321 
G01 X1.1321 Y0.1351 
G01 X1.1131 Y0.1351 
G01 X1.1131 Y0.2369 
G01 X1.8446 Y0.2369 
G01 X1.8554 Y0.2369 
G01 X1.8631 Y0.2446 
G01 X1.8631 Y1.2446 
G01 X1.8631 Y1.2554 
G01 X1.8554 Y1.2631 
G01 X1.6351 Y1.2631 
G01 X1.6351 Y1.2821 
G01 X1.6321 Y1.2851 
G01 X1.5679 Y1.2851 
G01 X1.5649 Y1.2821 
G01 X1.5649 Y1.2179 
G01 X1.5679 Y1.2149 
G01 X1.6321 Y1.2149 
G01 X1.6351 Y1.2179 
G01 X1.6351 Y1.2369 
G01 X1.8369 Y1.2369 
G01 X1.8369 Y0.2631 
G01 X1.0946 Y0.2631 
G01 X1.0869 Y0.2554 
G01 X1.0869 Y0.2446 
G01 X1.0869 Y0.1351 
G01 X1.0679 Y0.1351 
G01 X1.0649 Y0.1321 
G01 X1.0649 Y0.0679 
G01 X1.0679 Y0.0649 
G00 Z0.0200 
G00 X0.9679 Y0.3649 
G01 Z-0.0100 F10.00 
G01 X1.0321 Y0.3649 
G01 X1.0351 Y0.3679 
G01 X1.0351 Y0.4321 
G01 X1.0321 Y0.4351 
G01 X1.0131 Y0.4351 
G01 X1.0131 Y0.5369 
G01 X1.7054 Y0.5369 
G01 X1.7131 Y0.5446 
G01 X1.7131 Y0.5554 
G01 X1.7131 Y0.8554 
G01 X1.7054 Y0.8631 
G01 X1.6946 Y0.8631 
G01 X1.6351 Y0.8631 
G01 X1.6351 Y0.8821 
G01 X1.6321 Y0.8851 
G01 X1.5679 Y0.8851 
G01 X1.5649 Y0.8821 
G01 X1.5649 Y0.8179 
G01 X1.5679 Y0.8149 
G01 X1.6321 Y0.8149 
G01 X1.6351 Y0.8179 
G01 X1.6351 Y0.8369 
G01 X1.6869 Y0.8369 
G01 X1.6869 Y0.5631 
G01 X1.0054 Y0.5631 
G01 X0.9946 Y0.5631 
G01 X0.9869 Y0.5554 
G01 X0.9869 Y0.4351 
G01 X0.9679 Y0.4351 
G01 X0.9649 Y0.4321 
G01 X0.9649 Y0.3679 
G01 X0.9679 Y0.3649 
G00 Z0.0200 
G00 X1.0679 Y0.3649 
G01 Z-0.0100 F10.00 
G01 X1.1321 Y0.3649 
G01 X1.1351 Y0.3679 
G01 X1.1351 Y0.4321 
G01 X1.1321 Y0.4351 
G01 X1.1131 Y0.4351 
G01 X1.1131 Y0.4869 
G01 X1.7446 Y0.4869 
G01 X1.7554 Y0.4869 
G01 X1.7631 Y0.4946 
G01 X1.7631 Y0.9446 
G01 X1.7631 Y0.9554 
G01 X1.7554 Y0.9631 
G01 X1.6351 Y0.9631 
G01 X1.6351 Y0.9821 
G01 X1.6321 Y0.9851 
G01 X1.5679 Y0.9851 
G01 X1.5649 Y0.9821 
G01 X1.5649 Y0.9179 
G01 X1.5679 Y0.9149 
G01 X1.6321 Y0.9149 
G01 X1.6351 Y0.9179 
G01 X1.6351 Y0.9369 
G01 X1.7369 Y0.9369 
G01 X1.7369 Y0.5131 
G01 X1.0946 Y0.5131 
G01 X1.0869 Y0.5054 
G01 X1.0869 Y0.4946 
G01 X1.0869 Y0.4351 
G01 X1.0679 Y0.4351 
G01 X1.0649 Y0.4321 
G01 X1.0649 Y0.3679 
G01 X1.0679 Y0.3649 
G00 Z0.0200 
G00 X1.1679 Y0.3649 
G01 Z-0.0100 F10.00 
G01 X1.2321 Y0.3649 
G01 X1.2351 Y0.3679 
G01 X1.2351 Y0.4321 
G01 X1.2321 Y0.4351 
G01 X1.2131 Y0.4351 
G01 X1.2131 Y0.4369 
G01 X1.7946 Y0.4369 
G01 X1.8054 Y0.4369 
G01 X1.8131 Y0.4446 
G01 X1.8131 Y1.1554 
G01 X1.8054 Y1.1631 
G01 X1.7946 Y1.1631 
G01 X1.6351 Y1.1631 
G01 X1.6351 Y1.1821 
G01 X1.6321 Y1.1851 
G01 X1.5679 Y1.1851 
G01 X1.5649 Y1.1821 
G01 X1.5649 Y1.1179 
G01 X1.5679 Y1.1149 
G01 X1.6321 Y1.1149 
G01 X1.6351 Y1.1179 
G01 X1.6351 Y1.1369 
G01 X1.7869 Y1.1369 
G01 X1.7869 Y0.4631 
G01 X1.2054 Y0.4631 
G01 X1.1946 Y0.4631 
G01 X1.1869 Y0.4554 
G01 X1.1869 Y0.4351 
G01 X1.1679 Y0.4351 
G01 X1.1649 Y0.4321 
G01 X1.1649 Y0.3679 
G01 X1.1679 Y0.3649 
G00 Z0.0200 
G00 X1.6369 Y1.3829 
G01 Z-0.0100 F10.00 
G01 X1.6369 Y1.3171 
G01 X1.6329 Y1.3131 
G01 X1.5671 Y1.3131 
G01 X1.5631 Y1.3171 
G01 X1.5631 Y1.3829 
G01 X1.5671 Y1.3869 
G01 X1.6329 Y1.3869 
G01 X1.6369 Y1.3829 
G00 Z0.0200 
G00 X1.5649 Y1.3821 
G01 Z-0.0100 F10.00 
G01 X1.5649 Y1.3179 
G01 X1.5679 Y1.3149 
G01 X1.6321 Y1.3149 
G01 X1.6351 Y1.3179 
G01 X1.6351 Y1.3821 
G01 X1.6321 Y1.3851 
G01 X1.5679 Y1.3851 
G01 X1.5649 Y1.3821 
G00 Z0.0200 
G00 X0.9153 Y0.6194 
G01 Z-0.0100 F10.00 
G01 X0.9153 Y0.6806 
G01 X0.9194 Y0.6847 
G01 X0.9806 Y0.6847 
G01 X0.9847 Y0.6806 
G01 X0.9847 Y0.6194 
G01 X0.9806 Y0.6153 
G01 X0.9194 Y0.6153 
G01 X0.9153 Y0.6194 
G00 Z0.0200 
G00 X0.9829 Y0.6201 
G01 Z-0.0100 F10.00 
G01 X0.9829 Y0.6799 
G01 X0.9799 Y0.6829 
G01 X0.9201 Y0.6829 
G01 X0.9171 Y0.6799 
G01 X0.9171 Y0.6201 
G01 X0.9201 Y0.6171 
G01 X0.9799 Y0.6171 
G01 X0.9829 Y0.6201 
G00 Z0.0200 
G00 X0.9194 Y0.7847 
G01 Z-0.0100 F10.00 
G01 X0.9806 Y0.7847 
G01 X0.9847 Y0.7806 
G01 X0.9847 Y0.7194 
G01 X0.9806 Y0.7153 
G01 X0.9194 Y0.7153 
G01 X0.9153 Y0.7194 
G01 X0.9153 Y0.7806 
G01 X0.9194 Y0.7847 
G00 Z0.0200 
G00 X0.9829 Y0.7201 
G01 Z-0.0100 F10.00 
G01 X0.9829 Y0.7799 
G01 X0.9799 Y0.7829 
G01 X0.9201 Y0.7829 
G01 X0.9171 Y0.7799 
G01 X0.9171 Y0.7201 
G01 X0.9201 Y0.7171 
G01 X0.9799 Y0.7171 
G01 X0.9829 Y0.7201 
G00 Z0.0200 
G00 X0.9194 Y0.8847 
G01 Z-0.0100 F10.00 
G01 X0.9806 Y0.8847 
G01 X0.9847 Y0.8806 
G01 X0.9847 Y0.8194 
G01 X0.9806 Y0.8153 
G01 X0.9194 Y0.8153 
G01 X0.9153 Y0.8194 
G01 X0.9153 Y0.8806 
G01 X0.9194 Y0.8847 
G00 Z0.0200 
G00 X0.9829 Y0.8201 
G01 Z-0.0100 F10.00 
G01 X0.9829 Y0.8799 
G01 X0.9799 Y0.8829 
G01 X0.9201 Y0.8829 
G01 X0.9171 Y0.8799 
G01 X0.9171 Y0.8201 
G01 X0.9201 Y0.8171 
G01 X0.9799 Y0.8171 
G01 X0.9829 Y0.8201 
G00 Z0.0200 
G00 X0.9194 Y0.9847 
G01 Z-0.0100 F10.00 
G01 X0.9806 Y0.9847 
G01 X0.9847 Y0.9806 
G01 X0.9847 Y0.9194 
G01 X0.9806 Y0.9153 
G01 X0.9194 Y0.9153 
G01 X0.9153 Y0.9194 
G01 X0.9153 Y0.9806 
G01 X0.9194 Y0.9847 
G00 Z0.0200 
G00 X0.9829 Y0.9201 
G01 Z-0.0100 F10.00 
G01 X0.9829 Y0.9799 
G01 X0.9799 Y0.9829 
G01 X0.9201 Y0.9829 
G01 X0.9171 Y0.9799 
G01 X0.9171 Y0.9201 
G01 X0.9201 Y0.9171 
G01 X0.9799 Y0.9171 
G01 X0.9829 Y0.9201 
G00 Z0.0200 
G00 X0.9194 Y1.0847 
G01 Z-0.0100 F10.00 
G01 X0.9806 Y1.0847 
G01 X0.9847 Y1.0806 
G01 X0.9847 Y1.0194 
G01 X0.9806 Y1.0153 
G01 X0.9194 Y1.0153 
G01 X0.9153 Y1.0194 
G01 X0.9153 Y1.0806 
G01 X0.9194 Y1.0847 
G00 Z0.0200 
G00 X0.9829 Y1.0201 
G01 Z-0.0100 F10.00 
G01 X0.9829 Y1.0799 
G01 X0.9799 Y1.0829 
G01 X0.9201 Y1.0829 
G01 X0.9171 Y1.0799 
G01 X0.9171 Y1.0201 
G01 X0.9201 Y1.0171 
G01 X0.9799 Y1.0171 
G01 X0.9829 Y1.0201 
G00 Z0.0200 
G00 X1.6369 Y0.6829 
G01 Z-0.0100 F10.00 
G01 X1.6369 Y0.6171 
G01 X1.6329 Y0.6131 
G01 X1.5671 Y0.6131 
G01 X1.5631 Y0.6171 
G01 X1.5631 Y0.6829 
G01 X1.5671 Y0.6869 
G01 X1.6329 Y0.6869 
G01 X1.6369 Y0.6829 
G00 Z0.0200 
G00 X1.5649 Y0.6821 
G01 Z-0.0100 F10.00 
G01 X1.5649 Y0.6179 
G01 X1.5679 Y0.6149 
G01 X1.6321 Y0.6149 
G01 X1.6351 Y0.6179 
G01 X1.6351 Y0.6821 
G01 X1.6321 Y0.6851 
G01 X1.5679 Y0.6851 
G01 X1.5649 Y0.6821 
G00 Z0.0200 
G00 X1.5671 Y0.7131 
G01 Z-0.0100 F10.00 
G01 X1.5631 Y0.7171 
G01 X1.5631 Y0.7829 
G01 X1.5671 Y0.7869 
G01 X1.6329 Y0.7869 
G01 X1.6369 Y0.7829 
G01 X1.6369 Y0.7171 
G01 X1.6329 Y0.7131 
G01 X1.5671 Y0.7131 
G00 Z0.0200 
G00 X1.5649 Y0.7821 
G01 Z-0.0100 F10.00 
G01 X1.5649 Y0.7179 
G01 X1.5679 Y0.7149 
G01 X1.6321 Y0.7149 
G01 X1.6351 Y0.7179 
G01 X1.6351 Y0.7821 
G01 X1.6321 Y0.7851 
G01 X1.5679 Y0.7851 
G01 X1.5649 Y0.7821 
G00 Z0.0200 
G00 X1.0369 Y0.1329 
G01 Z-0.0100 F10.00 
G01 X1.0369 Y0.0671 
G01 X1.0329 Y0.0631 
G01 X0.9671 Y0.0631 
G01 X0.9631 Y0.0671 
G01 X0.9631 Y0.1329 
G01 X0.9671 Y0.1369 
G01 X1.0329 Y0.1369 
G01 X1.0369 Y0.1329 
G00 Z0.0200 
G00 X0.9679 Y0.0649 
G01 Z-0.0100 F10.00 
G01 X1.0321 Y0.0649 
G01 X1.0351 Y0.0679 
G01 X1.0351 Y0.1321 
G01 X1.0321 Y0.1351 
G01 X0.9679 Y0.1351 
G01 X0.9649 Y0.1321 
G01 X0.9649 Y0.0679 
G01 X0.9679 Y0.0649 
G00 Z0.0200 
G00 X2.1079 Y1.7891 
G01 Z-0.0100 F10.00 
G01 X2.1079 Y1.7109 
G01 X2.1107 Y1.7081 
G01 X2.1032 Y1.7081 
G01 X2.0955 Y1.7004 
G01 X2.0955 Y1.7004 
G01 X2.0954 Y1.7004 
G01 X2.0900 Y1.6981 
G01 X2.0100 Y1.6981 
G01 X2.0046 Y1.7004 
G01 X1.9988 Y1.7061 
G01 X1.9880 Y1.7061 
G01 X1.9101 Y1.7061 
G01 X1.9061 Y1.7101 
G01 X1.9061 Y1.7899 
G01 X1.9101 Y1.7939 
G01 X1.9988 Y1.7939 
G01 X2.0046 Y1.7996 
G01 X2.0100 Y1.8019 
G01 X2.0900 Y1.8019 
G01 X2.0954 Y1.7996 
G01 X2.1032 Y1.7919 
G01 X2.1107 Y1.7919 
G01 X2.1079 Y1.7891 
G00 Z0.0200 
G00 X2.0891 Y1.7921 
G01 Z-0.0100 F10.00 
G01 X2.0109 Y1.7921 
G01 X2.0079 Y1.7891 
G01 X2.0079 Y1.7109 
G01 X2.0109 Y1.7079 
G01 X2.0891 Y1.7079 
G01 X2.0921 Y1.7109 
G01 X2.0921 Y1.7891 
G01 X2.0891 Y1.7921 
G00 Z0.0200 
G00 X1.9891 Y1.7921 
G01 Z-0.0100 F10.00 
G01 X1.9109 Y1.7921 
G01 X1.9079 Y1.7891 
G01 X1.9079 Y1.7109 
G01 X1.9109 Y1.7079 
G01 X1.9891 Y1.7079 
G01 X1.9921 Y1.7109 
G01 X1.9921 Y1.7891 
G01 X1.9891 Y1.7921 
G00 Z0.0200 
G00 X0.4671 Y0.1369 
G01 Z-0.0100 F10.00 
G01 X0.5329 Y0.1369 
G01 X0.5369 Y0.1329 
G01 X0.5369 Y0.0671 
G01 X0.5329 Y0.0631 
G01 X0.4671 Y0.0631 
G01 X0.4631 Y0.0671 
G01 X0.4631 Y0.1329 
G01 X0.4671 Y0.1369 
G00 Z0.0200 
G00 X0.4679 Y0.0649 
G01 Z-0.0100 F10.00 
G01 X0.5321 Y0.0649 
G01 X0.5351 Y0.0679 
G01 X0.5351 Y0.1321 
G01 X0.5321 Y0.1351 
G01 X0.4679 Y0.1351 
G01 X0.4649 Y0.1321 
G01 X0.4649 Y0.0679 
G01 X0.4679 Y0.0649 
G00 Z0.0200 
G00 X0.6671 Y0.1369 
G01 Z-0.0100 F10.00 
G01 X0.7329 Y0.1369 
G01 X0.7369 Y0.1329 
G01 X0.7369 Y0.0671 
G01 X0.7329 Y0.0631 
G01 X0.6671 Y0.0631 
G01 X0.6631 Y0.0671 
G01 X0.6631 Y0.1329 
G01 X0.6671 Y0.1369 
G00 Z0.0200 
G00 X0.6679 Y0.0649 
G01 Z-0.0100 F10.00 
G01 X0.7321 Y0.0649 
G01 X0.7351 Y0.0679 
G01 X0.7351 Y0.1321 
G01 X0.7321 Y0.1351 
G01 X0.6679 Y0.1351 
G01 X0.6649 Y0.1321 
G01 X0.6649 Y0.0679 
G01 X0.6679 Y0.0649 
G00 Z0.0200 
G00 X0.9369 Y0.1329 
G01 Z-0.0100 F10.00 
G01 X0.9369 Y0.0671 
G01 X0.9329 Y0.0631 
G01 X0.8671 Y0.0631 
G01 X0.8631 Y0.0671 
G01 X0.8631 Y0.1329 
G01 X0.8671 Y0.1369 
G01 X0.9329 Y0.1369 
G01 X0.9369 Y0.1329 
G00 Z0.0200 
G00 X0.8679 Y0.0649 
G01 Z-0.0100 F10.00 
G01 X0.9321 Y0.0649 
G01 X0.9351 Y0.0679 
G01 X0.9351 Y0.1321 
G01 X0.9321 Y0.1351 
G01 X0.8679 Y0.1351 
G01 X0.8649 Y0.1321 
G01 X0.8649 Y0.0679 
G01 X0.8679 Y0.0649 
G00 Z0.0200 
G00 X0.8369 Y0.1329 
G01 Z-0.0100 F10.00 
G01 X0.8369 Y0.0671 
G01 X0.8329 Y0.0631 
G01 X0.7671 Y0.0631 
G01 X0.7631 Y0.0671 
G01 X0.7631 Y0.1329 
G01 X0.7671 Y0.1369 
G01 X0.8329 Y0.1369 
G01 X0.8369 Y0.1329 
G00 Z0.0200 
G00 X0.7679 Y0.0649 
G01 Z-0.0100 F10.00 
G01 X0.8321 Y0.0649 
G01 X0.8351 Y0.0679 
G01 X0.8351 Y0.1321 
G01 X0.8321 Y0.1351 
G01 X0.7679 Y0.1351 
G01 X0.7649 Y0.1321 
G01 X0.7649 Y0.0679 
G01 X0.7679 Y0.0649 
G00 Z0.0200 
G00 X2.4671 Y0.1369 
G01 Z-0.0100 F10.00 
G01 X2.5329 Y0.1369 
G01 X2.5369 Y0.1329 
G01 X2.5369 Y0.0671 
G01 X2.5329 Y0.0631 
G01 X2.4671 Y0.0631 
G01 X2.4631 Y0.0671 
G01 X2.4631 Y0.1329 
G01 X2.4671 Y0.1369 
G00 Z0.0200 
G00 X2.4679 Y0.0649 
G01 Z-0.0100 F10.00 
G01 X2.5321 Y0.0649 
G01 X2.5351 Y0.0679 
G01 X2.5351 Y0.1321 
G01 X2.5321 Y0.1351 
G01 X2.4679 Y0.1351 
G01 X2.4649 Y0.1321 
G01 X2.4649 Y0.0679 
G01 X2.4679 Y0.0649 
G00 Z0.0200 
G00 X2.5631 Y0.4329 
G01 Z-0.0100 F10.00 
G01 X2.5671 Y0.4369 
G01 X2.5774 Y0.4369 
G01 X2.5851 Y0.4446 
G01 X2.5851 Y0.4530 
G01 X2.5874 Y0.4584 
G01 X2.5972 Y0.4683 
G01 X2.6851 Y0.5562 
G01 X2.6851 Y0.5670 
G01 X2.6851 Y0.8274 
G01 X2.6774 Y0.8351 
G01 X2.6666 Y0.8351 
G01 X2.6446 Y0.8351 
G01 X2.6369 Y0.8274 
G01 X2.6369 Y0.8171 
G01 X2.6329 Y0.8131 
G01 X2.5671 Y0.8131 
G01 X2.5631 Y0.8171 
G01 X2.5631 Y0.8829 
G01 X2.5671 Y0.8869 
G01 X2.6329 Y0.8869 
G01 X2.6369 Y0.8829 
G01 X2.6369 Y0.8726 
G01 X2.6446 Y0.8649 
G01 X2.6554 Y0.8649 
G01 X2.6999 Y0.8649 
G01 X2.7030 Y0.8649 
G01 X2.7084 Y0.8626 
G01 X2.7089 Y0.8622 
G01 X2.7089 Y0.8622 
G01 X2.7119 Y0.8592 
G01 X2.7166 Y0.8545 
G01 X2.7274 Y0.8545 
G01 X2.7274 Y0.8545 
G01 X2.7312 Y0.8583 
G01 X2.7351 Y0.8622 
G01 X2.7351 Y0.8730 
G01 X2.7351 Y0.9274 
G01 X2.7274 Y0.9351 
G01 X2.7166 Y0.9351 
G01 X2.6446 Y0.9351 
G01 X2.6369 Y0.9274 
G01 X2.6369 Y0.9171 
G01 X2.6329 Y0.9131 
G01 X2.5671 Y0.9131 
G01 X2.5631 Y0.9171 
G01 X2.5631 Y0.9829 
G01 X2.5671 Y0.9869 
G01 X2.6329 Y0.9869 
G01 X2.6369 Y0.9829 
G01 X2.6369 Y0.9726 
G01 X2.6446 Y0.9649 
G01 X2.6554 Y0.9649 
G01 X2.7499 Y0.9649 
G01 X2.7530 Y0.9649 
G01 X2.7584 Y0.9626 
G01 X2.7589 Y0.9622 
G01 X2.7589 Y0.9622 
G01 X2.7619 Y0.9592 
G01 X2.7666 Y0.9545 
G01 X2.7774 Y0.9545 
G01 X2.7774 Y0.9545 
G01 X2.7812 Y0.9583 
G01 X2.7851 Y0.9622 
G01 X2.7851 Y0.9730 
G01 X2.7851 Y1.1274 
G01 X2.7774 Y1.1351 
G01 X2.7666 Y1.1351 
G01 X2.6446 Y1.1351 
G01 X2.6369 Y1.1274 
G01 X2.6369 Y1.1171 
G01 X2.6329 Y1.1131 
G01 X2.5671 Y1.1131 
G01 X2.5631 Y1.1171 
G01 X2.5631 Y1.1829 
G01 X2.5671 Y1.1869 
G01 X2.6329 Y1.1869 
G01 X2.6369 Y1.1829 
G01 X2.6369 Y1.1726 
G01 X2.6446 Y1.1649 
G01 X2.6554 Y1.1649 
G01 X2.7999 Y1.1649 
G01 X2.8030 Y1.1649 
G01 X2.8084 Y1.1626 
G01 X2.8089 Y1.1622 
G01 X2.8089 Y1.1622 
G01 X2.8119 Y1.1592 
G01 X2.8166 Y1.1545 
G01 X2.8274 Y1.1545 
G01 X2.8274 Y1.1545 
G01 X2.8312 Y1.1583 
G01 X2.8351 Y1.1622 
G01 X2.8351 Y1.1730 
G01 X2.8351 Y1.2274 
G01 X2.8274 Y1.2351 
G01 X2.8166 Y1.2351 
G01 X2.6446 Y1.2351 
G01 X2.6369 Y1.2274 
G01 X2.6369 Y1.2171 
G01 X2.6329 Y1.2131 
G01 X2.5671 Y1.2131 
G01 X2.5631 Y1.2171 
G01 X2.5631 Y1.2829 
G01 X2.5671 Y1.2869 
G01 X2.6329 Y1.2869 
G01 X2.6369 Y1.2829 
G01 X2.6369 Y1.2726 
G01 X2.6446 Y1.2649 
G01 X2.6554 Y1.2649 
G01 X2.8390 Y1.2649 
G01 X2.8530 Y1.2649 
G01 X2.8584 Y1.2626 
G01 X2.8626 Y1.2584 
G01 X2.8649 Y1.2530 
G01 X2.8649 Y0.5062 
G01 X2.8726 Y0.4985 
G01 X2.9104 Y0.4606 
G01 X2.9126 Y0.4584 
G01 X2.9149 Y0.4530 
G01 X2.9149 Y0.4446 
G01 X2.9226 Y0.4369 
G01 X2.9329 Y0.4369 
G01 X2.9369 Y0.4329 
G01 X2.9369 Y0.3671 
G01 X2.9329 Y0.3631 
G01 X2.8671 Y0.3631 
G01 X2.8631 Y0.3671 
G01 X2.8631 Y0.4329 
G01 X2.8742 Y0.4439 
G01 X2.8742 Y0.4548 
G01 X2.8665 Y0.4624 
G01 X2.8665 Y0.4624 
G01 X2.8334 Y0.4955 
G01 X2.8226 Y0.4955 
G01 X2.8149 Y0.4878 
G01 X2.8149 Y0.4770 
G01 X2.8149 Y0.4446 
G01 X2.8226 Y0.4369 
G01 X2.8329 Y0.4369 
G01 X2.8369 Y0.4329 
G01 X2.8369 Y0.3671 
G01 X2.8329 Y0.3631 
G01 X2.7671 Y0.3631 
G01 X2.7631 Y0.3671 
G01 X2.7631 Y0.4329 
G01 X2.7671 Y0.4369 
G01 X2.7774 Y0.4369 
G01 X2.7851 Y0.4446 
G01 X2.7851 Y0.4554 
G01 X2.7851 Y0.4878 
G01 X2.7774 Y0.4955 
G01 X2.7666 Y0.4955 
G01 X2.7589 Y0.4878 
G01 X2.7335 Y0.4624 
G01 X2.7335 Y0.4624 
G01 X2.7260 Y0.4549 
G01 X2.7258 Y0.4548 
G01 X2.7258 Y0.4439 
G01 X2.7258 Y0.4439 
G01 X2.7369 Y0.4329 
G01 X2.7369 Y0.3671 
G01 X2.7329 Y0.3631 
G01 X2.6671 Y0.3631 
G01 X2.6631 Y0.3671 
G01 X2.6631 Y0.4329 
G01 X2.6671 Y0.4369 
G01 X2.6774 Y0.4369 
G01 X2.6851 Y0.4446 
G01 X2.6851 Y0.4530 
G01 X2.6874 Y0.4584 
G01 X2.6896 Y0.4606 
G01 X2.6896 Y0.4606 
G01 X2.7351 Y0.5062 
G01 X2.7351 Y0.5170 
G01 X2.7351 Y0.5378 
G01 X2.7274 Y0.5455 
G01 X2.7166 Y0.5455 
G01 X2.7089 Y0.5378 
G01 X2.6335 Y0.4624 
G01 X2.6335 Y0.4624 
G01 X2.6259 Y0.4549 
G01 X2.6258 Y0.4548 
G01 X2.6258 Y0.4439 
G01 X2.6258 Y0.4439 
G01 X2.6369 Y0.4329 
G01 X2.6369 Y0.3671 
G01 X2.6329 Y0.3631 
G01 X2.5671 Y0.3631 
G01 X2.5631 Y0.3671 
G01 X2.5631 Y0.4329 
G00 Z0.0200 
G00 X2.7679 Y0.3649 
G01 Z-0.0100 F10.00 
G01 X2.8321 Y0.3649 
G01 X2.8351 Y0.3679 
G01 X2.8351 Y0.4321 
G01 X2.8321 Y0.4351 
G01 X2.8131 Y0.4351 
G01 X2.8131 Y1.1554 
G01 X2.8054 Y1.1631 
G01 X2.7946 Y1.1631 
G01 X2.6351 Y1.1631 
G01 X2.6351 Y1.1821 
G01 X2.6321 Y1.1851 
G01 X2.5679 Y1.1851 
G01 X2.5649 Y1.1821 
G01 X2.5649 Y1.1179 
G01 X2.5679 Y1.1149 
G01 X2.6321 Y1.1149 
G01 X2.6351 Y1.1179 
G01 X2.6351 Y1.1369 
G01 X2.7869 Y1.1369 
G01 X2.7869 Y0.4351 
G01 X2.7679 Y0.4351 
G01 X2.7649 Y0.4321 
G01 X2.7649 Y0.3679 
G01 X2.7679 Y0.3649 
G00 Z0.0200 
G00 X2.6679 Y0.3649 
G01 Z-0.0100 F10.00 
G01 X2.7321 Y0.3649 
G01 X2.7351 Y0.3679 
G01 X2.7351 Y0.4321 
G01 X2.7321 Y0.4351 
G01 X2.7131 Y0.4351 
G01 X2.7131 Y0.4446 
G01 X2.7631 Y0.4946 
G01 X2.7631 Y0.5054 
G01 X2.7631 Y0.9554 
G01 X2.7554 Y0.9631 
G01 X2.7446 Y0.9631 
G01 X2.6351 Y0.9631 
G01 X2.6351 Y0.9821 
G01 X2.6321 Y0.9851 
G01 X2.5679 Y0.9851 
G01 X2.5649 Y0.9821 
G01 X2.5649 Y0.9179 
G01 X2.5679 Y0.9149 
G01 X2.6321 Y0.9149 
G01 X2.6351 Y0.9179 
G01 X2.6351 Y0.9369 
G01 X2.7369 Y0.9369 
G01 X2.7369 Y0.5054 
G01 X2.6946 Y0.4631 
G01 X2.6869 Y0.4554 
G01 X2.6869 Y0.4351 
G01 X2.6679 Y0.4351 
G01 X2.6649 Y0.4321 
G01 X2.6649 Y0.3679 
G01 X2.6679 Y0.3649 
G00 Z0.0200 
G00 X2.8679 Y0.3649 
G01 Z-0.0100 F10.00 
G01 X2.9321 Y0.3649 
G01 X2.9351 Y0.3679 
G01 X2.9351 Y0.4321 
G01 X2.9321 Y0.4351 
G01 X2.9131 Y0.4351 
G01 X2.9131 Y0.4554 
G01 X2.9054 Y0.4631 
G01 X2.8631 Y0.5054 
G01 X2.8631 Y1.2554 
G01 X2.8554 Y1.2631 
G01 X2.8446 Y1.2631 
G01 X2.6351 Y1.2631 
G01 X2.6351 Y1.2821 
G01 X2.6321 Y1.2851 
G01 X2.5679 Y1.2851 
G01 X2.5649 Y1.2821 
G01 X2.5649 Y1.2179 
G01 X2.5679 Y1.2149 
G01 X2.6321 Y1.2149 
G01 X2.6351 Y1.2179 
G01 X2.6351 Y1.2369 
G01 X2.8369 Y1.2369 
G01 X2.8369 Y0.5054 
G01 X2.8369 Y0.4946 
G01 X2.8869 Y0.4446 
G01 X2.8869 Y0.4351 
G01 X2.8679 Y0.4351 
G01 X2.8649 Y0.4321 
G01 X2.8649 Y0.3679 
G01 X2.8679 Y0.3649 
G00 Z0.0200 
G00 X2.5679 Y0.3649 
G01 Z-0.0100 F10.00 
G01 X2.6321 Y0.3649 
G01 X2.6351 Y0.3679 
G01 X2.6351 Y0.4321 
G01 X2.6321 Y0.4351 
G01 X2.6131 Y0.4351 
G01 X2.6131 Y0.4446 
G01 X2.7131 Y0.5446 
G01 X2.7131 Y0.5554 
G01 X2.7131 Y0.8554 
G01 X2.7054 Y0.8631 
G01 X2.6946 Y0.8631 
G01 X2.6351 Y0.8631 
G01 X2.6351 Y0.8821 
G01 X2.6321 Y0.8851 
G01 X2.5679 Y0.8851 
G01 X2.5649 Y0.8821 
G01 X2.5649 Y0.8179 
G01 X2.5679 Y0.8149 
G01 X2.6321 Y0.8149 
G01 X2.6351 Y0.8179 
G01 X2.6351 Y0.8369 
G01 X2.6869 Y0.8369 
G01 X2.6869 Y0.5554 
G01 X2.5946 Y0.4631 
G01 X2.5869 Y0.4554 
G01 X2.5869 Y0.4351 
G01 X2.5679 Y0.4351 
G01 X2.5649 Y0.4321 
G01 X2.5649 Y0.3679 
G01 X2.5679 Y0.3649 
G00 Z0.0200 
G00 X3.5671 Y0.7131 
G01 Z-0.0100 F10.00 
G01 X3.5631 Y0.7171 
G01 X3.5631 Y0.7829 
G01 X3.5671 Y0.7869 
G01 X3.6329 Y0.7869 
G01 X3.6369 Y0.7829 
G01 X3.6369 Y0.7171 
G01 X3.6329 Y0.7131 
G01 X3.5671 Y0.7131 
G00 Z0.0200 
G00 X3.5649 Y0.7821 
G01 Z-0.0100 F10.00 
G01 X3.5649 Y0.7179 
G01 X3.5679 Y0.7149 
G01 X3.6321 Y0.7149 
G01 X3.6351 Y0.7179 
G01 X3.6351 Y0.7821 
G01 X3.6321 Y0.7851 
G01 X3.5679 Y0.7851 
G01 X3.5649 Y0.7821 
G00 Z0.0200 
G00 X3.6369 Y0.6829 
G01 Z-0.0100 F10.00 
G01 X3.6369 Y0.6171 
G01 X3.6329 Y0.6131 
G01 X3.5671 Y0.6131 
G01 X3.5631 Y0.6171 
G01 X3.5631 Y0.6829 
G01 X3.5671 Y0.6869 
G01 X3.6329 Y0.6869 
G01 X3.6369 Y0.6829 
G00 Z0.0200 
G00 X3.5649 Y0.6821 
G01 Z-0.0100 F10.00 
G01 X3.5649 Y0.6179 
G01 X3.5679 Y0.6149 
G01 X3.6321 Y0.6149 
G01 X3.6351 Y0.6179 
G01 X3.6351 Y0.6821 
G01 X3.6321 Y0.6851 
G01 X3.5679 Y0.6851 
G01 X3.5649 Y0.6821 
G00 Z0.0200 
G00 X3.6369 Y1.3829 
G01 Z-0.0100 F10.00 
G01 X3.6369 Y1.3171 
G01 X3.6329 Y1.3131 
G01 X3.5671 Y1.3131 
G01 X3.5631 Y1.3171 
G01 X3.5631 Y1.3829 
G01 X3.5671 Y1.3869 
G01 X3.6329 Y1.3869 
G01 X3.6369 Y1.3829 
G00 Z0.0200 
G00 X3.5649 Y1.3821 
G01 Z-0.0100 F10.00 
G01 X3.5649 Y1.3179 
G01 X3.5679 Y1.3149 
G01 X3.6321 Y1.3149 
G01 X3.6351 Y1.3179 
G01 X3.6351 Y1.3821 
G01 X3.6321 Y1.3851 
G01 X3.5679 Y1.3851 
G01 X3.5649 Y1.3821 
G00 Z0.0200 
G00 X3.0851 Y0.1890 
G01 Z-0.0100 F10.00 
G01 X3.0851 Y0.2030 
G01 X3.0874 Y0.2084 
G01 X3.0916 Y0.2126 
G01 X3.0970 Y0.2149 
G01 X3.6938 Y0.2149 
G01 X3.7015 Y0.2226 
G01 X3.8351 Y0.3562 
G01 X3.8351 Y0.3670 
G01 X3.8351 Y0.4378 
G01 X3.8351 Y0.4378 
G01 X3.8313 Y0.4416 
G01 X3.8274 Y0.4455 
G01 X3.8166 Y0.4455 
G01 X3.8166 Y0.4455 
G01 X3.8120 Y0.4410 
G01 X3.8089 Y0.4378 
G01 X3.8089 Y0.4378 
G01 X3.8084 Y0.4374 
G01 X3.8030 Y0.4351 
G01 X3.7890 Y0.4351 
G01 X3.2446 Y0.4351 
G01 X3.2369 Y0.4274 
G01 X3.2369 Y0.4166 
G01 X3.2369 Y0.3671 
G01 X3.2329 Y0.3631 
G01 X3.1671 Y0.3631 
G01 X3.1631 Y0.3671 
G01 X3.1631 Y0.4329 
G01 X3.1671 Y0.4369 
G01 X3.1774 Y0.4369 
G01 X3.1851 Y0.4446 
G01 X3.1851 Y0.4530 
G01 X3.1874 Y0.4584 
G01 X3.1878 Y0.4589 
G01 X3.1878 Y0.4589 
G01 X3.1908 Y0.4619 
G01 X3.1955 Y0.4666 
G01 X3.1955 Y0.4774 
G01 X3.1955 Y0.4774 
G01 X3.1917 Y0.4812 
G01 X3.1878 Y0.4851 
G01 X3.1770 Y0.4851 
G01 X3.1226 Y0.4851 
G01 X3.1149 Y0.4774 
G01 X3.1149 Y0.4666 
G01 X3.1149 Y0.4446 
G01 X3.1226 Y0.4369 
G01 X3.1329 Y0.4369 
G01 X3.1369 Y0.4329 
G01 X3.1369 Y0.3671 
G01 X3.1329 Y0.3631 
G01 X3.0671 Y0.3631 
G01 X3.0631 Y0.3671 
G01 X3.0631 Y0.4329 
G01 X3.0671 Y0.4369 
G01 X3.0774 Y0.4369 
G01 X3.0851 Y0.4446 
G01 X3.0851 Y0.4554 
G01 X3.0851 Y0.4999 
G01 X3.0851 Y0.5030 
G01 X3.0874 Y0.5084 
G01 X3.0878 Y0.5089 
G01 X3.0878 Y0.5089 
G01 X3.0932 Y0.5143 
G01 X3.0955 Y0.5166 
G01 X3.0955 Y0.5166 
G01 X3.0955 Y0.5274 
G01 X3.0897 Y0.5332 
G01 X3.0878 Y0.5351 
G01 X3.0878 Y0.5351 
G01 X3.0226 Y0.5351 
G01 X3.0149 Y0.5274 
G01 X3.0149 Y0.5166 
G01 X3.0149 Y0.4446 
G01 X3.0226 Y0.4369 
G01 X3.0329 Y0.4369 
G01 X3.0369 Y0.4329 
G01 X3.0369 Y0.3671 
G01 X3.0329 Y0.3631 
G01 X2.9671 Y0.3631 
G01 X2.9631 Y0.3671 
G01 X2.9631 Y0.4329 
G01 X2.9671 Y0.4369 
G01 X2.9774 Y0.4369 
G01 X2.9851 Y0.4446 
G01 X2.9851 Y0.4554 
G01 X2.9851 Y0.5499 
G01 X2.9851 Y0.5530 
G01 X2.9874 Y0.5584 
G01 X2.9916 Y0.5626 
G01 X2.9970 Y0.5649 
G01 X3.6774 Y0.5649 
G01 X3.6851 Y0.5726 
G01 X3.6851 Y0.5834 
G01 X3.6851 Y0.8274 
G01 X3.6774 Y0.8351 
G01 X3.6666 Y0.8351 
G01 X3.6446 Y0.8351 
G01 X3.6369 Y0.8274 
G01 X3.6369 Y0.8171 
G01 X3.6329 Y0.8131 
G01 X3.5671 Y0.8131 
G01 X3.5631 Y0.8171 
G01 X3.5631 Y0.8829 
G01 X3.5671 Y0.8869 
G01 X3.6329 Y0.8869 
G01 X3.6369 Y0.8829 
G01 X3.6369 Y0.8726 
G01 X3.6446 Y0.8649 
G01 X3.6554 Y0.8649 
G01 X3.6999 Y0.8649 
G01 X3.7030 Y0.8649 
G01 X3.7084 Y0.8626 
G01 X3.7089 Y0.8622 
G01 X3.7089 Y0.8622 
G01 X3.7119 Y0.8592 
G01 X3.7166 Y0.8545 
G01 X3.7274 Y0.8545 
G01 X3.7274 Y0.8545 
G01 X3.7312 Y0.8583 
G01 X3.7351 Y0.8622 
G01 X3.7351 Y0.8730 
G01 X3.7351 Y0.9274 
G01 X3.7274 Y0.9351 
G01 X3.7166 Y0.9351 
G01 X3.6446 Y0.9351 
G01 X3.6369 Y0.9274 
G01 X3.6369 Y0.9171 
G01 X3.6329 Y0.9131 
G01 X3.5671 Y0.9131 
G01 X3.5631 Y0.9171 
G01 X3.5631 Y0.9829 
G01 X3.5671 Y0.9869 
G01 X3.6329 Y0.9869 
G01 X3.6369 Y0.9829 
G01 X3.6369 Y0.9726 
G01 X3.6446 Y0.9649 
G01 X3.6554 Y0.9649 
G01 X3.7530 Y0.9649 
G01 X3.7584 Y0.9626 
G01 X3.7589 Y0.9622 
G01 X3.7589 Y0.9622 
G01 X3.7619 Y0.9592 
G01 X3.7666 Y0.9545 
G01 X3.7774 Y0.9545 
G01 X3.7774 Y0.9545 
G01 X3.7812 Y0.9583 
G01 X3.7851 Y0.9622 
G01 X3.7851 Y0.9730 
G01 X3.7851 Y1.1274 
G01 X3.7774 Y1.1351 
G01 X3.7666 Y1.1351 
G01 X3.6446 Y1.1351 
G01 X3.6369 Y1.1274 
G01 X3.6369 Y1.1171 
G01 X3.6329 Y1.1131 
G01 X3.5671 Y1.1131 
G01 X3.5631 Y1.1171 
G01 X3.5631 Y1.1829 
G01 X3.5671 Y1.1869 
G01 X3.6329 Y1.1869 
G01 X3.6369 Y1.1829 
G01 X3.6369 Y1.1726 
G01 X3.6446 Y1.1649 
G01 X3.6554 Y1.1649 
G01 X3.7999 Y1.1649 
G01 X3.8030 Y1.1649 
G01 X3.8084 Y1.1626 
G01 X3.8089 Y1.1622 
G01 X3.8089 Y1.1622 
G01 X3.8119 Y1.1592 
G01 X3.8166 Y1.1545 
G01 X3.8274 Y1.1545 
G01 X3.8274 Y1.1545 
G01 X3.8312 Y1.1583 
G01 X3.8351 Y1.1622 
G01 X3.8351 Y1.1730 
G01 X3.8351 Y1.2274 
G01 X3.8274 Y1.2351 
G01 X3.8166 Y1.2351 
G01 X3.6446 Y1.2351 
G01 X3.6369 Y1.2274 
G01 X3.6369 Y1.2171 
G01 X3.6329 Y1.2131 
G01 X3.5671 Y1.2131 
G01 X3.5631 Y1.2171 
G01 X3.5631 Y1.2829 
G01 X3.5671 Y1.2869 
G01 X3.6329 Y1.2869 
G01 X3.6369 Y1.2829 
G01 X3.6369 Y1.2726 
G01 X3.6446 Y1.2649 
G01 X3.6554 Y1.2649 
G01 X3.8499 Y1.2649 
G01 X3.8530 Y1.2649 
G01 X3.8584 Y1.2626 
G01 X3.8626 Y1.2584 
G01 X3.8649 Y1.2530 
G01 X3.8649 Y0.5501 
G01 X3.8649 Y0.3470 
G01 X3.8626 Y0.3416 
G01 X3.8528 Y0.3317 
G01 X3.7084 Y0.1874 
G01 X3.7030 Y0.1851 
G01 X3.6890 Y0.1851 
G01 X3.1226 Y0.1851 
G01 X3.1149 Y0.1774 
G01 X3.1149 Y0.1666 
G01 X3.1149 Y0.1446 
G01 X3.1226 Y0.1369 
G01 X3.1329 Y0.1369 
G01 X3.1369 Y0.1329 
G01 X3.1369 Y0.0671 
G01 X3.1329 Y0.0631 
G01 X3.0671 Y0.0631 
G01 X3.0631 Y0.0671 
G01 X3.0631 Y0.1329 
G01 X3.0671 Y0.1369 
G01 X3.0774 Y0.1369 
G01 X3.0851 Y0.1446 
G01 X3.0851 Y0.1554 
G01 X3.0851 Y0.1890 
G00 Z0.0200 
G00 X3.8631 Y1.2554 
G01 Z-0.0100 F10.00 
G01 X3.8554 Y1.2631 
G01 X3.8446 Y1.2631 
G01 X3.6351 Y1.2631 
G01 X3.6351 Y1.2821 
G01 X3.6321 Y1.2851 
G01 X3.5679 Y1.2851 
G01 X3.5649 Y1.2821 
G01 X3.5649 Y1.2179 
G01 X3.5679 Y1.2149 
G01 X3.6321 Y1.2149 
G01 X3.6351 Y1.2179 
G01 X3.6351 Y1.2369 
G01 X3.8369 Y1.2369 
G01 X3.8369 Y0.5554 
G01 X3.8369 Y0.3554 
G01 X3.6946 Y0.2131 
G01 X3.0946 Y0.2131 
G01 X3.0869 Y0.2054 
G01 X3.0869 Y0.1946 
G01 X3.0869 Y0.1351 
G01 X3.0679 Y0.1351 
G01 X3.0649 Y0.1321 
G01 X3.0649 Y0.0679 
G01 X3.0679 Y0.0649 
G01 X3.1321 Y0.0649 
G01 X3.1351 Y0.0679 
G01 X3.1351 Y0.1321 
G01 X3.1321 Y0.1351 
G01 X3.1131 Y0.1351 
G01 X3.1131 Y0.1869 
G01 X3.6946 Y0.1869 
G01 X3.7054 Y0.1869 
G01 X3.8554 Y0.3369 
G01 X3.8631 Y0.3446 
G01 X3.8631 Y0.5554 
G01 X3.8631 Y1.2554 
G00 Z0.0200 
G00 X2.9679 Y0.3649 
G01 Z-0.0100 F10.00 
G01 X3.0321 Y0.3649 
G01 X3.0351 Y0.3679 
G01 X3.0351 Y0.4321 
G01 X3.0321 Y0.4351 
G01 X3.0131 Y0.4351 
G01 X3.0131 Y0.5369 
G01 X3.7054 Y0.5369 
G01 X3.7131 Y0.5446 
G01 X3.7131 Y0.5554 
G01 X3.7131 Y0.8554 
G01 X3.7054 Y0.8631 
G01 X3.6946 Y0.8631 
G01 X3.6351 Y0.8631 
G01 X3.6351 Y0.8821 
G01 X3.6321 Y0.8851 
G01 X3.5679 Y0.8851 
G01 X3.5649 Y0.8821 
G01 X3.5649 Y0.8179 
G01 X3.5679 Y0.8149 
G01 X3.6321 Y0.8149 
G01 X3.6351 Y0.8179 
G01 X3.6351 Y0.8369 
G01 X3.6869 Y0.8369 
G01 X3.6869 Y0.5631 
G01 X3.0054 Y0.5631 
G01 X2.9946 Y0.5631 
G01 X2.9869 Y0.5554 
G01 X2.9869 Y0.4351 
G01 X2.9679 Y0.4351 
G01 X2.9649 Y0.4321 
G01 X2.9649 Y0.3679 
G01 X2.9679 Y0.3649 
G00 Z0.0200 
G00 X3.0679 Y0.3649 
G01 Z-0.0100 F10.00 
G01 X3.1321 Y0.3649 
G01 X3.1351 Y0.3679 
G01 X3.1351 Y0.4321 
G01 X3.1321 Y0.4351 
G01 X3.1131 Y0.4351 
G01 X3.1131 Y0.4869 
G01 X3.7446 Y0.4869 
G01 X3.7554 Y0.4869 
G01 X3.7631 Y0.4946 
G01 X3.7631 Y0.9446 
G01 X3.7631 Y0.9554 
G01 X3.7554 Y0.9631 
G01 X3.6351 Y0.9631 
G01 X3.6351 Y0.9821 
G01 X3.6321 Y0.9851 
G01 X3.5679 Y0.9851 
G01 X3.5649 Y0.9821 
G01 X3.5649 Y0.9179 
G01 X3.5679 Y0.9149 
G01 X3.6321 Y0.9149 
G01 X3.6351 Y0.9179 
G01 X3.6351 Y0.9369 
G01 X3.7369 Y0.9369 
G01 X3.7369 Y0.5131 
G01 X3.0946 Y0.5131 
G01 X3.0869 Y0.5054 
G01 X3.0869 Y0.4946 
G01 X3.0869 Y0.4351 
G01 X3.0679 Y0.4351 
G01 X3.0649 Y0.4321 
G01 X3.0649 Y0.3679 
G01 X3.0679 Y0.3649 
G00 Z0.0200 
G00 X3.1679 Y0.3649 
G01 Z-0.0100 F10.00 
G01 X3.2321 Y0.3649 
G01 X3.2351 Y0.3679 
G01 X3.2351 Y0.4321 
G01 X3.2321 Y0.4351 
G01 X3.2131 Y0.4351 
G01 X3.2131 Y0.4369 
G01 X3.7946 Y0.4369 
G01 X3.8054 Y0.4369 
G01 X3.8131 Y0.4446 
G01 X3.8131 Y1.1554 
G01 X3.8054 Y1.1631 
G01 X3.7946 Y1.1631 
G01 X3.6351 Y1.1631 
G01 X3.6351 Y1.1821 
G01 X3.6321 Y1.1851 
G01 X3.5679 Y1.1851 
G01 X3.5649 Y1.1821 
G01 X3.5649 Y1.1179 
G01 X3.5679 Y1.1149 
G01 X3.6321 Y1.1149 
G01 X3.6351 Y1.1179 
G01 X3.6351 Y1.1369 
G01 X3.7869 Y1.1369 
G01 X3.7869 Y0.4631 
G01 X3.1946 Y0.4631 
G01 X3.1869 Y0.4554 
G01 X3.1869 Y0.4446 
G01 X3.1869 Y0.4351 
G01 X3.1679 Y0.4351 
G01 X3.1649 Y0.4321 
G01 X3.1649 Y0.3679 
G01 X3.1679 Y0.3649 
G00 Z0.0200 
G00 X2.8329 Y0.1369 
G01 Z-0.0100 F10.00 
G01 X2.8369 Y0.1329 
G01 X2.8369 Y0.0671 
G01 X2.8329 Y0.0631 
G01 X2.7671 Y0.0631 
G01 X2.7631 Y0.0671 
G01 X2.7631 Y0.1329 
G01 X2.7671 Y0.1369 
G01 X2.8329 Y0.1369 
G00 Z0.0200 
G00 X2.7679 Y0.0649 
G01 Z-0.0100 F10.00 
G01 X2.8321 Y0.0649 
G01 X2.8351 Y0.0679 
G01 X2.8351 Y0.1321 
G01 X2.8321 Y0.1351 
G01 X2.7679 Y0.1351 
G01 X2.7649 Y0.1321 
G01 X2.7649 Y0.0679 
G01 X2.7679 Y0.0649 
G00 Z0.0200 
G00 X2.9369 Y0.1329 
G01 Z-0.0100 F10.00 
G01 X2.9369 Y0.0671 
G01 X2.9329 Y0.0631 
G01 X2.8671 Y0.0631 
G01 X2.8631 Y0.0671 
G01 X2.8631 Y0.1329 
G01 X2.8671 Y0.1369 
G01 X2.9329 Y0.1369 
G01 X2.9369 Y0.1329 
G00 Z0.0200 
G00 X2.8679 Y0.0649 
G01 Z-0.0100 F10.00 
G01 X2.9321 Y0.0649 
G01 X2.9351 Y0.0679 
G01 X2.9351 Y0.1321 
G01 X2.9321 Y0.1351 
G01 X2.8679 Y0.1351 
G01 X2.8649 Y0.1321 
G01 X2.8649 Y0.0679 
G01 X2.8679 Y0.0649 
G00 Z0.0200 
G00 X2.4671 Y0.4369 
G01 Z-0.0100 F10.00 
G01 X2.5329 Y0.4369 
G01 X2.5369 Y0.4329 
G01 X2.5369 Y0.3671 
G01 X2.5329 Y0.3631 
G01 X2.4671 Y0.3631 
G01 X2.4631 Y0.3671 
G01 X2.4631 Y0.4329 
G01 X2.4671 Y0.4369 
G00 Z0.0200 
G00 X2.4679 Y0.3649 
G01 Z-0.0100 F10.00 
G01 X2.5321 Y0.3649 
G01 X2.5351 Y0.3679 
G01 X2.5351 Y0.4321 
G01 X2.5321 Y0.4351 
G01 X2.4679 Y0.4351 
G01 X2.4649 Y0.4321 
G01 X2.4649 Y0.3679 
G01 X2.4679 Y0.3649 
G00 Z0.0200 
G00 X0.4671 Y0.4369 
G01 Z-0.0100 F10.00 
G01 X0.5329 Y0.4369 
G01 X0.5369 Y0.4329 
G01 X0.5369 Y0.3671 
G01 X0.5329 Y0.3631 
G01 X0.4671 Y0.3631 
G01 X0.4631 Y0.3671 
G01 X0.4631 Y0.4329 
G01 X0.4671 Y0.4369 
G00 Z0.0200 
G00 X0.4679 Y0.3649 
G01 Z-0.0100 F10.00 
G01 X0.5321 Y0.3649 
G01 X0.5351 Y0.3679 
G01 X0.5351 Y0.4321 
G01 X0.5321 Y0.4351 
G01 X0.4679 Y0.4351 
G01 X0.4649 Y0.4321 
G01 X0.4649 Y0.3679 
G01 X0.4679 Y0.3649 
G00 Z0.0200 
G00 X0.9900 Y1.6019 
G01 Z-0.0100 F10.00 
G01 X0.9954 Y1.5996 
G01 X0.9996 Y1.5954 
G01 X1.0019 Y1.5900 
G01 X1.0019 Y1.5100 
G01 X0.9996 Y1.5045 
G01 X0.9954 Y1.5004 
G01 X0.9900 Y1.4981 
G01 X0.9100 Y1.4981 
G01 X0.9046 Y1.5004 
G01 X0.9004 Y1.5046 
G01 X0.8981 Y1.5100 
G01 X0.8981 Y1.5900 
G01 X0.9004 Y1.5954 
G01 X0.9046 Y1.5996 
G01 X0.9100 Y1.6019 
G01 X0.9900 Y1.6019 
G00 Z0.0200 
G00 X0.9079 Y1.5891 
G01 Z-0.0100 F10.00 
G01 X0.9079 Y1.5109 
G01 X0.9109 Y1.5079 
G01 X0.9891 Y1.5079 
G01 X0.9921 Y1.5109 
G01 X0.9921 Y1.5891 
G01 X0.9891 Y1.5921 
G01 X0.9109 Y1.5921 
G01 X0.9079 Y1.5891 
G00 Z0.0200 
G00 X1.9900 Y1.6019 
G01 Z-0.0100 F10.00 
G01 X1.9954 Y1.5996 
G01 X1.9996 Y1.5954 
G01 X2.0019 Y1.5900 
G01 X2.0019 Y1.5100 
G01 X1.9996 Y1.5046 
G01 X1.9954 Y1.5004 
G01 X1.9900 Y1.4981 
G01 X1.9100 Y1.4981 
G01 X1.9046 Y1.5004 
G01 X1.9004 Y1.5046 
G01 X1.8981 Y1.5100 
G01 X1.8981 Y1.5900 
G01 X1.9004 Y1.5954 
G01 X1.9046 Y1.5996 
G01 X1.9100 Y1.6019 
G01 X1.9900 Y1.6019 
G00 Z0.0200 
G00 X1.9079 Y1.5891 
G01 Z-0.0100 F10.00 
G01 X1.9079 Y1.5109 
G01 X1.9109 Y1.5079 
G01 X1.9891 Y1.5079 
G01 X1.9921 Y1.5109 
G01 X1.9921 Y1.5891 
G01 X1.9891 Y1.5921 
G01 X1.9109 Y1.5921 
G01 X1.9079 Y1.5891 
G00 Z0.0200 
G00 X2.9900 Y1.6019 
G01 Z-0.0100 F10.00 
G01 X2.9954 Y1.5996 
G01 X2.9996 Y1.5954 
G01 X3.0019 Y1.5900 
G01 X3.0019 Y1.5100 
G01 X2.9996 Y1.5046 
G01 X2.9954 Y1.5004 
G01 X2.9900 Y1.4981 
G01 X2.9100 Y1.4981 
G01 X2.9046 Y1.5004 
G01 X2.9004 Y1.5046 
G01 X2.8981 Y1.5100 
G01 X2.8981 Y1.5900 
G01 X2.9004 Y1.5954 
G01 X2.9046 Y1.5996 
G01 X2.9100 Y1.6019 
G01 X2.9900 Y1.6019 
G00 Z0.0200 
G00 X2.9079 Y1.5891 
G01 Z-0.0100 F10.00 
G01 X2.9079 Y1.5109 
G01 X2.9109 Y1.5079 
G01 X2.9891 Y1.5079 
G01 X2.9921 Y1.5109 
G01 X2.9921 Y1.5891 
G01 X2.9891 Y1.5921 
G01 X2.9109 Y1.5921 
G01 X2.9079 Y1.5891 
G00 Z0.0200 
G00 X3.9900 Y1.6019 
G01 Z-0.0100 F10.00 
G01 X3.9954 Y1.5996 
G01 X3.9996 Y1.5954 
G01 X4.0019 Y1.5900 
G01 X4.0019 Y1.5100 
G01 X3.9996 Y1.5046 
G01 X3.9954 Y1.5004 
G01 X3.9900 Y1.4981 
G01 X3.9100 Y1.4981 
G01 X3.9046 Y1.5004 
G01 X3.9004 Y1.5046 
G01 X3.8981 Y1.5100 
G01 X3.8981 Y1.5900 
G01 X3.9004 Y1.5954 
G01 X3.9046 Y1.5996 
G01 X3.9100 Y1.6019 
G01 X3.9900 Y1.6019 
G00 Z0.0200 
G00 X3.9079 Y1.5891 
G01 Z-0.0100 F10.00 
G01 X3.9079 Y1.5109 
G01 X3.9109 Y1.5079 
G01 X3.9891 Y1.5079 
G01 X3.9921 Y1.5109 
G01 X3.9921 Y1.5891 
G01 X3.9891 Y1.5921 
G01 X3.9109 Y1.5921 
G01 X3.9079 Y1.5891 
G00 Z0.0200 
G00 X2.3369 Y1.3829 
G01 Z-0.0100 F10.00 
G01 X2.3369 Y1.3171 
G01 X2.3329 Y1.3131 
G01 X2.2671 Y1.3131 
G01 X2.2631 Y1.3171 
G01 X2.2631 Y1.3829 
G01 X2.2671 Y1.3869 
G01 X2.3329 Y1.3869 
G01 X2.3369 Y1.3829 
G00 Z0.0200 
G00 X2.2649 Y1.3821 
G01 Z-0.0100 F10.00 
G01 X2.2649 Y1.3179 
G01 X2.2679 Y1.3149 
G01 X2.3321 Y1.3149 
G01 X2.3351 Y1.3179 
G01 X2.3351 Y1.3821 
G01 X2.3321 Y1.3851 
G01 X2.2679 Y1.3851 
G01 X2.2649 Y1.3821 
G00 Z0.0200 
G00 X2.3369 Y1.2829 
G01 Z-0.0100 F10.00 
G01 X2.3369 Y1.2171 
G01 X2.3329 Y1.2131 
G01 X2.2671 Y1.2131 
G01 X2.2631 Y1.2171 
G01 X2.2631 Y1.2829 
G01 X2.2671 Y1.2869 
G01 X2.3329 Y1.2869 
G01 X2.3369 Y1.2829 
G00 Z0.0200 
G00 X2.2649 Y1.2821 
G01 Z-0.0100 F10.00 
G01 X2.2649 Y1.2179 
G01 X2.2679 Y1.2149 
G01 X2.3321 Y1.2149 
G01 X2.3351 Y1.2179 
G01 X2.3351 Y1.2821 
G01 X2.3321 Y1.2851 
G01 X2.2679 Y1.2851 
G01 X2.2649 Y1.2821 
G00 Z0.0200 
G00 X2.3369 Y1.1829 
G01 Z-0.0100 F10.00 
G01 X2.3369 Y1.1171 
G01 X2.3329 Y1.1131 
G01 X2.2671 Y1.1131 
G01 X2.2631 Y1.1171 
G01 X2.2631 Y1.1829 
G01 X2.2671 Y1.1869 
G01 X2.3329 Y1.1869 
G01 X2.3369 Y1.1829 
G00 Z0.0200 
G00 X2.2649 Y1.1821 
G01 Z-0.0100 F10.00 
G01 X2.2649 Y1.1179 
G01 X2.2679 Y1.1149 
G01 X2.3321 Y1.1149 
G01 X2.3351 Y1.1179 
G01 X2.3351 Y1.1821 
G01 X2.3321 Y1.1851 
G01 X2.2679 Y1.1851 
G01 X2.2649 Y1.1821 
G00 Z0.0200 
G00 X2.3369 Y1.0829 
G01 Z-0.0100 F10.00 
G01 X2.3369 Y1.0171 
G01 X2.3329 Y1.0131 
G01 X2.2671 Y1.0131 
G01 X2.2631 Y1.0171 
G01 X2.2631 Y1.0829 
G01 X2.2671 Y1.0869 
G01 X2.3329 Y1.0869 
G01 X2.3369 Y1.0829 
G00 Z0.0200 
G00 X2.2649 Y1.0821 
G01 Z-0.0100 F10.00 
G01 X2.2649 Y1.0179 
G01 X2.2679 Y1.0149 
G01 X2.3321 Y1.0149 
G01 X2.3351 Y1.0179 
G01 X2.3351 Y1.0821 
G01 X2.3321 Y1.0851 
G01 X2.2679 Y1.0851 
G01 X2.2649 Y1.0821 
G00 Z0.0200 
G00 X2.3369 Y0.9829 
G01 Z-0.0100 F10.00 
G01 X2.3369 Y0.9171 
G01 X2.3329 Y0.9131 
G01 X2.2671 Y0.9131 
G01 X2.2631 Y0.9171 
G01 X2.2631 Y0.9829 
G01 X2.2671 Y0.9869 
G01 X2.3329 Y0.9869 
G01 X2.3369 Y0.9829 
G00 Z0.0200 
G00 X2.2649 Y0.9821 
G01 Z-0.0100 F10.00 
G01 X2.2649 Y0.9179 
G01 X2.2679 Y0.9149 
G01 X2.3321 Y0.9149 
G01 X2.3351 Y0.9179 
G01 X2.3351 Y0.9821 
G01 X2.3321 Y0.9851 
G01 X2.2679 Y0.9851 
G01 X2.2649 Y0.9821 
G00 Z0.0200 
G00 X2.3369 Y0.8829 
G01 Z-0.0100 F10.00 
G01 X2.3369 Y0.8171 
G01 X2.3329 Y0.8131 
G01 X2.2671 Y0.8131 
G01 X2.2631 Y0.8171 
G01 X2.2631 Y0.8829 
G01 X2.2671 Y0.8869 
G01 X2.3329 Y0.8869 
G01 X2.3369 Y0.8829 
G00 Z0.0200 
G00 X2.2649 Y0.8821 
G01 Z-0.0100 F10.00 
G01 X2.2649 Y0.8179 
G01 X2.2679 Y0.8149 
G01 X2.3321 Y0.8149 
G01 X2.3351 Y0.8179 
G01 X2.3351 Y0.8821 
G01 X2.3321 Y0.8851 
G01 X2.2679 Y0.8851 
G01 X2.2649 Y0.8821 
G00 Z0.0200 
G00 X2.3369 Y0.7829 
G01 Z-0.0100 F10.00 
G01 X2.3369 Y0.7171 
G01 X2.3329 Y0.7131 
G01 X2.2671 Y0.7131 
G01 X2.2631 Y0.7171 
G01 X2.2631 Y0.7829 
G01 X2.2671 Y0.7869 
G01 X2.3329 Y0.7869 
G01 X2.3369 Y0.7829 
G00 Z0.0200 
G00 X2.2649 Y0.7821 
G01 Z-0.0100 F10.00 
G01 X2.2649 Y0.7179 
G01 X2.2679 Y0.7149 
G01 X2.3321 Y0.7149 
G01 X2.3351 Y0.7179 
G01 X2.3351 Y0.7821 
G01 X2.3321 Y0.7851 
G01 X2.2679 Y0.7851 
G01 X2.2649 Y0.7821 
G00 Z0.0200 
G00 X2.3369 Y0.6829 
G01 Z-0.0100 F10.00 
G01 X2.3369 Y0.6171 
G01 X2.3329 Y0.6131 
G01 X2.2671 Y0.6131 
G01 X2.2631 Y0.6171 
G01 X2.2631 Y0.6829 
G01 X2.2671 Y0.6869 
G01 X2.3329 Y0.6869 
G01 X2.3369 Y0.6829 
G00 Z0.0200 
G00 X2.2649 Y0.6821 
G01 Z-0.0100 F10.00 
G01 X2.2649 Y0.6179 
G01 X2.2679 Y0.6149 
G01 X2.3321 Y0.6149 
G01 X2.3351 Y0.6179 
G01 X2.3351 Y0.6821 
G01 X2.3321 Y0.6851 
G01 X2.2679 Y0.6851 
G01 X2.2649 Y0.6821 
G00 Z0.0200 
G00 X1.1194 Y1.1847 
G01 Z-0.0100 F10.00 
G01 X1.1806 Y1.1847 
G01 X1.1847 Y1.1806 
G01 X1.1847 Y1.1194 
G01 X1.1806 Y1.1153 
G01 X1.1194 Y1.1153 
G01 X1.1153 Y1.1194 
G01 X1.1153 Y1.1806 
G01 X1.1194 Y1.1847 
G00 Z0.0200 
G00 X1.1829 Y1.1201 
G01 Z-0.0100 F10.00 
G01 X1.1829 Y1.1799 
G01 X1.1799 Y1.1829 
G01 X1.1201 Y1.1829 
G01 X1.1171 Y1.1799 
G01 X1.1171 Y1.1201 
G01 X1.1201 Y1.1171 
G01 X1.1799 Y1.1171 
G01 X1.1829 Y1.1201 
G00 Z0.0200 
G00 X1.1194 Y1.0847 
G01 Z-0.0100 F10.00 
G01 X1.1806 Y1.0847 
G01 X1.1847 Y1.0806 
G01 X1.1847 Y1.0194 
G01 X1.1806 Y1.0153 
G01 X1.1194 Y1.0153 
G01 X1.1153 Y1.0194 
G01 X1.1153 Y1.0806 
G01 X1.1194 Y1.0847 
G00 Z0.0200 
G00 X1.1829 Y1.0201 
G01 Z-0.0100 F10.00 
G01 X1.1829 Y1.0799 
G01 X1.1799 Y1.0829 
G01 X1.1201 Y1.0829 
G01 X1.1171 Y1.0799 
G01 X1.1171 Y1.0201 
G01 X1.1201 Y1.0171 
G01 X1.1799 Y1.0171 
G01 X1.1829 Y1.0201 
G00 Z0.0200 
G00 X1.1194 Y0.9847 
G01 Z-0.0100 F10.00 
G01 X1.1806 Y0.9847 
G01 X1.1847 Y0.9806 
G01 X1.1847 Y0.9194 
G01 X1.1806 Y0.9153 
G01 X1.1194 Y0.9153 
G01 X1.1153 Y0.9194 
G01 X1.1153 Y0.9806 
G01 X1.1194 Y0.9847 
G00 Z0.0200 
G00 X1.1829 Y0.9201 
G01 Z-0.0100 F10.00 
G01 X1.1829 Y0.9799 
G01 X1.1799 Y0.9829 
G01 X1.1201 Y0.9829 
G01 X1.1171 Y0.9799 
G01 X1.1171 Y0.9201 
G01 X1.1201 Y0.9171 
G01 X1.1799 Y0.9171 
G01 X1.1829 Y0.9201 
G00 Z0.0200 
G00 X1.1194 Y0.8847 
G01 Z-0.0100 F10.00 
G01 X1.1806 Y0.8847 
G01 X1.1847 Y0.8806 
G01 X1.1847 Y0.8194 
G01 X1.1806 Y0.8153 
G01 X1.1194 Y0.8153 
G01 X1.1153 Y0.8194 
G01 X1.1153 Y0.8806 
G01 X1.1194 Y0.8847 
G00 Z0.0200 
G00 X1.1829 Y0.8201 
G01 Z-0.0100 F10.00 
G01 X1.1829 Y0.8799 
G01 X1.1799 Y0.8829 
G01 X1.1201 Y0.8829 
G01 X1.1171 Y0.8799 
G01 X1.1171 Y0.8201 
G01 X1.1201 Y0.8171 
G01 X1.1799 Y0.8171 
G01 X1.1829 Y0.8201 
G00 Z0.0200 
G00 X1.1194 Y0.7847 
G01 Z-0.0100 F10.00 
G01 X1.1806 Y0.7847 
G01 X1.1847 Y0.7806 
G01 X1.1847 Y0.7194 
G01 X1.1806 Y0.7153 
G01 X1.1194 Y0.7153 
G01 X1.1153 Y0.7194 
G01 X1.1153 Y0.7806 
G01 X1.1194 Y0.7847 
G00 Z0.0200 
G00 X1.1829 Y0.7201 
G01 Z-0.0100 F10.00 
G01 X1.1829 Y0.7799 
G01 X1.1799 Y0.7829 
G01 X1.1201 Y0.7829 
G01 X1.1171 Y0.7799 
G01 X1.1171 Y0.7201 
G01 X1.1201 Y0.7171 
G01 X1.1799 Y0.7171 
G01 X1.1829 Y0.7201 
G00 Z0.0200 
G00 X1.1153 Y0.6194 
G01 Z-0.0100 F10.00 
G01 X1.1153 Y0.6806 
G01 X1.1194 Y0.6847 
G01 X1.1806 Y0.6847 
G01 X1.1847 Y0.6806 
G01 X1.1847 Y0.6194 
G01 X1.1806 Y0.6153 
G01 X1.1194 Y0.6153 
G01 X1.1153 Y0.6194 
G00 Z0.0200 
G00 X1.1829 Y0.6201 
G01 Z-0.0100 F10.00 
G01 X1.1829 Y0.6799 
G01 X1.1799 Y0.6829 
G01 X1.1201 Y0.6829 
G01 X1.1171 Y0.6799 
G01 X1.1171 Y0.6201 
G01 X1.1201 Y0.6171 
G01 X1.1799 Y0.6171 
G01 X1.1829 Y0.6201 
G00 Z0.0200 
G00 X2.9806 Y0.7847 
G01 Z-0.0100 F10.00 
G01 X2.9847 Y0.7806 
G01 X2.9847 Y0.7194 
G01 X2.9806 Y0.7153 
G01 X2.9194 Y0.7153 
G01 X2.9153 Y0.7194 
G01 X2.9153 Y0.7806 
G01 X2.9194 Y0.7847 
G01 X2.9806 Y0.7847 
G00 Z0.0200 
G00 X2.9829 Y0.7201 
G01 Z-0.0100 F10.00 
G01 X2.9829 Y0.7799 
G01 X2.9799 Y0.7829 
G01 X2.9201 Y0.7829 
G01 X2.9171 Y0.7799 
G01 X2.9171 Y0.7201 
G01 X2.9201 Y0.7171 
G01 X2.9799 Y0.7171 
G01 X2.9829 Y0.7201 
G00 Z0.0200 
G00 X2.9806 Y0.8847 
G01 Z-0.0100 F10.00 
G01 X2.9847 Y0.8806 
G01 X2.9847 Y0.8194 
G01 X2.9806 Y0.8153 
G01 X2.9194 Y0.8153 
G01 X2.9153 Y0.8194 
G01 X2.9153 Y0.8806 
G01 X2.9194 Y0.8847 
G01 X2.9806 Y0.8847 
G00 Z0.0200 
G00 X2.9829 Y0.8201 
G01 Z-0.0100 F10.00 
G01 X2.9829 Y0.8799 
G01 X2.9799 Y0.8829 
G01 X2.9201 Y0.8829 
G01 X2.9171 Y0.8799 
G01 X2.9171 Y0.8201 
G01 X2.9201 Y0.8171 
G01 X2.9799 Y0.8171 
G01 X2.9829 Y0.8201 
G00 Z0.0200 
G00 X2.9806 Y0.9847 
G01 Z-0.0100 F10.00 
G01 X2.9847 Y0.9806 
G01 X2.9847 Y0.9194 
G01 X2.9806 Y0.9153 
G01 X2.9194 Y0.9153 
G01 X2.9153 Y0.9194 
G01 X2.9153 Y0.9806 
G01 X2.9194 Y0.9847 
G01 X2.9806 Y0.9847 
G00 Z0.0200 
G00 X2.9829 Y0.9201 
G01 Z-0.0100 F10.00 
G01 X2.9829 Y0.9799 
G01 X2.9799 Y0.9829 
G01 X2.9201 Y0.9829 
G01 X2.9171 Y0.9799 
G01 X2.9171 Y0.9201 
G01 X2.9201 Y0.9171 
G01 X2.9799 Y0.9171 
G01 X2.9829 Y0.9201 
G00 Z0.0200 
G00 X2.9806 Y1.0847 
G01 Z-0.0100 F10.00 
G01 X2.9847 Y1.0806 
G01 X2.9847 Y1.0194 
G01 X2.9806 Y1.0153 
G01 X2.9194 Y1.0153 
G01 X2.9153 Y1.0194 
G01 X2.9153 Y1.0806 
G01 X2.9194 Y1.0847 
G01 X2.9806 Y1.0847 
G00 Z0.0200 
G00 X2.9829 Y1.0201 
G01 Z-0.0100 F10.00 
G01 X2.9829 Y1.0799 
G01 X2.9799 Y1.0829 
G01 X2.9201 Y1.0829 
G01 X2.9171 Y1.0799 
G01 X2.9171 Y1.0201 
G01 X2.9201 Y1.0171 
G01 X2.9799 Y1.0171 
G01 X2.9829 Y1.0201 
G00 Z0.0200 
G00 X2.9153 Y0.6194 
G01 Z-0.0100 F10.00 
G01 X2.9153 Y0.6806 
G01 X2.9194 Y0.6847 
G01 X2.9806 Y0.6847 
G01 X2.9847 Y0.6806 
G01 X2.9847 Y0.6194 
G01 X2.9806 Y0.6153 
G01 X2.9194 Y0.6153 
G01 X2.9153 Y0.6194 
G00 Z0.0200 
G00 X2.9829 Y0.6201 
G01 Z-0.0100 F10.00 
G01 X2.9829 Y0.6799 
G01 X2.9799 Y0.6829 
G01 X2.9201 Y0.6829 
G01 X2.9171 Y0.6799 
G01 X2.9171 Y0.6201 
G01 X2.9201 Y0.6171 
G01 X2.9799 Y0.6171 
G01 X2.9829 Y0.6201 
G00 Z0.0200 
G00 X3.9823 Y1.2091 
G01 Z-0.0100 F10.00 
G01 X3.9804 Y1.2072 
G01 X3.9778 Y1.2061 
G01 X3.9767 Y1.2035 
G01 X3.9747 Y1.2015 
G01 X3.9747 Y1.1987 
G01 X3.9736 Y1.1961 
G01 X3.9747 Y1.1935 
G01 X3.9747 Y1.1906 
G01 X3.9767 Y1.1886 
G01 X3.9777 Y1.1860 
G01 X3.9804 Y1.1850 
G01 X3.9847 Y1.1806 
G01 X3.9847 Y1.1194 
G01 X3.9806 Y1.1153 
G01 X3.9194 Y1.1153 
G01 X3.9153 Y1.1194 
G01 X3.9153 Y1.1806 
G01 X3.9196 Y1.1850 
G01 X3.9222 Y1.1860 
G01 X3.9233 Y1.1886 
G01 X3.9253 Y1.1906 
G01 X3.9253 Y1.1935 
G01 X3.9264 Y1.1961 
G01 X3.9253 Y1.1987 
G01 X3.9253 Y1.2015 
G01 X3.9233 Y1.2035 
G01 X3.9222 Y1.2061 
G01 X3.9196 Y1.2072 
G01 X3.9176 Y1.2091 
G01 X3.9148 Y1.2091 
G01 X3.9138 Y1.2096 
G01 X3.9096 Y1.2138 
G01 X3.9073 Y1.2193 
G01 X3.9073 Y1.2807 
G01 X3.9096 Y1.2862 
G01 X3.9138 Y1.2904 
G01 X3.9193 Y1.2927 
G01 X3.9807 Y1.2927 
G01 X3.9862 Y1.2904 
G01 X3.9904 Y1.2862 
G01 X3.9927 Y1.2807 
G01 X3.9927 Y1.2193 
G01 X3.9904 Y1.2138 
G01 X3.9862 Y1.2096 
G01 X3.9852 Y1.2091 
G01 X3.9823 Y1.2091 
G00 Z0.0200 
G00 X3.9829 Y1.1201 
G01 Z-0.0100 F10.00 
G01 X3.9829 Y1.1799 
G01 X3.9799 Y1.1829 
G01 X3.9201 Y1.1829 
G01 X3.9171 Y1.1799 
G01 X3.9171 Y1.1201 
G01 X3.9201 Y1.1171 
G01 X3.9799 Y1.1171 
G01 X3.9829 Y1.1201 
G00 Z0.0200 
G00 X3.9829 Y1.2201 
G01 Z-0.0100 F10.00 
G01 X3.9829 Y1.2799 
G01 X3.9799 Y1.2829 
G01 X3.9201 Y1.2829 
G01 X3.9171 Y1.2799 
G01 X3.9171 Y1.2201 
G01 X3.9201 Y1.2171 
G01 X3.9799 Y1.2171 
G01 X3.9829 Y1.2201 
G00 Z0.0200 
G00 X3.9153 Y0.6194 
G01 Z-0.0100 F10.00 
G01 X3.9153 Y0.6806 
G01 X3.9194 Y0.6847 
G01 X3.9806 Y0.6847 
G01 X3.9847 Y0.6806 
G01 X3.9847 Y0.6194 
G01 X3.9806 Y0.6153 
G01 X3.9194 Y0.6153 
G01 X3.9153 Y0.6194 
G00 Z0.0200 
G00 X3.9829 Y0.6201 
G01 Z-0.0100 F10.00 
G01 X3.9829 Y0.6799 
G01 X3.9799 Y0.6829 
G01 X3.9201 Y0.6829 
G01 X3.9171 Y0.6799 
G01 X3.9171 Y0.6201 
G01 X3.9201 Y0.6171 
G01 X3.9799 Y0.6171 
G01 X3.9829 Y0.6201 
G00 Z0.0200 
G00 X3.9153 Y0.7194 
G01 Z-0.0100 F10.00 
G01 X3.9153 Y0.7806 
G01 X3.9194 Y0.7847 
G01 X3.9806 Y0.7847 
G01 X3.9847 Y0.7806 
G01 X3.9847 Y0.7194 
G01 X3.9806 Y0.7153 
G01 X3.9194 Y0.7153 
G01 X3.9153 Y0.7194 
G00 Z0.0200 
G00 X3.9829 Y0.7201 
G01 Z-0.0100 F10.00 
G01 X3.9829 Y0.7799 
G01 X3.9799 Y0.7829 
G01 X3.9201 Y0.7829 
G01 X3.9171 Y0.7799 
G01 X3.9171 Y0.7201 
G01 X3.9201 Y0.7171 
G01 X3.9799 Y0.7171 
G01 X3.9829 Y0.7201 
G00 Z0.0200 
G00 X3.9153 Y0.8194 
G01 Z-0.0100 F10.00 
G01 X3.9153 Y0.8806 
G01 X3.9194 Y0.8847 
G01 X3.9806 Y0.8847 
G01 X3.9847 Y0.8806 
G01 X3.9847 Y0.8194 
G01 X3.9806 Y0.8153 
G01 X3.9194 Y0.8153 
G01 X3.9153 Y0.8194 
G00 Z0.0200 
G00 X3.9829 Y0.8201 
G01 Z-0.0100 F10.00 
G01 X3.9829 Y0.8799 
G01 X3.9799 Y0.8829 
G01 X3.9201 Y0.8829 
G01 X3.9171 Y0.8799 
G01 X3.9171 Y0.8201 
G01 X3.9201 Y0.8171 
G01 X3.9799 Y0.8171 
G01 X3.9829 Y0.8201 
G00 Z0.0200 
G00 X3.9153 Y0.9194 
G01 Z-0.0100 F10.00 
G01 X3.9153 Y0.9806 
G01 X3.9194 Y0.9847 
G01 X3.9806 Y0.9847 
G01 X3.9847 Y0.9806 
G01 X3.9847 Y0.9194 
G01 X3.9806 Y0.9153 
G01 X3.9194 Y0.9153 
G01 X3.9153 Y0.9194 
G00 Z0.0200 
G00 X3.9829 Y0.9201 
G01 Z-0.0100 F10.00 
G01 X3.9829 Y0.9799 
G01 X3.9799 Y0.9829 
G01 X3.9201 Y0.9829 
G01 X3.9171 Y0.9799 
G01 X3.9171 Y0.9201 
G01 X3.9201 Y0.9171 
G01 X3.9799 Y0.9171 
G01 X3.9829 Y0.9201 
G00 Z0.0200 
G00 X3.9153 Y1.0194 
G01 Z-0.0100 F10.00 
G01 X3.9153 Y1.0806 
G01 X3.9194 Y1.0847 
G01 X3.9806 Y1.0847 
G01 X3.9847 Y1.0806 
G01 X3.9847 Y1.0194 
G01 X3.9806 Y1.0153 
G01 X3.9194 Y1.0153 
G01 X3.9153 Y1.0194 
G00 Z0.0200 
G00 X3.9829 Y1.0201 
G01 Z-0.0100 F10.00 
G01 X3.9829 Y1.0799 
G01 X3.9799 Y1.0829 
G01 X3.9201 Y1.0829 
G01 X3.9171 Y1.0799 
G01 X3.9171 Y1.0201 
G01 X3.9201 Y1.0171 
G01 X3.9799 Y1.0171 
G01 X3.9829 Y1.0201 
G00 Z0.0200 
G00 X3.1194 Y1.2847 
G01 Z-0.0100 F10.00 
G01 X3.1806 Y1.2847 
G01 X3.1847 Y1.2806 
G01 X3.1847 Y1.2194 
G01 X3.1806 Y1.2153 
G01 X3.1194 Y1.2153 
G01 X3.1153 Y1.2194 
G01 X3.1153 Y1.2806 
G01 X3.1194 Y1.2847 
G00 Z0.0200 
G00 X3.1829 Y1.2201 
G01 Z-0.0100 F10.00 
G01 X3.1829 Y1.2799 
G01 X3.1799 Y1.2829 
G01 X3.1201 Y1.2829 
G01 X3.1171 Y1.2799 
G01 X3.1171 Y1.2201 
G01 X3.1201 Y1.2171 
G01 X3.1799 Y1.2171 
G01 X3.1829 Y1.2201 
G00 Z0.0200 
G00 X2.9824 Y1.2091 
G01 Z-0.0100 F10.00 
G01 X2.9804 Y1.2072 
G01 X2.9778 Y1.2061 
G01 X2.9767 Y1.2035 
G01 X2.9747 Y1.2015 
G01 X2.9747 Y1.1987 
G01 X2.9736 Y1.1961 
G01 X2.9747 Y1.1935 
G01 X2.9747 Y1.1906 
G01 X2.9767 Y1.1886 
G01 X2.9778 Y1.1860 
G01 X2.9804 Y1.1850 
G01 X2.9847 Y1.1806 
G01 X2.9847 Y1.1194 
G01 X2.9806 Y1.1153 
G01 X2.9194 Y1.1153 
G01 X2.9153 Y1.1194 
G01 X2.9153 Y1.1806 
G01 X2.9196 Y1.1850 
G01 X2.9222 Y1.1860 
G01 X2.9233 Y1.1886 
G01 X2.9253 Y1.1906 
G01 X2.9253 Y1.1935 
G01 X2.9264 Y1.1961 
G01 X2.9253 Y1.1987 
G01 X2.9253 Y1.2015 
G01 X2.9233 Y1.2035 
G01 X2.9222 Y1.2061 
G01 X2.9196 Y1.2072 
G01 X2.9176 Y1.2091 
G01 X2.9148 Y1.2091 
G01 X2.9138 Y1.2096 
G01 X2.9096 Y1.2138 
G01 X2.9073 Y1.2193 
G01 X2.9073 Y1.2807 
G01 X2.9096 Y1.2862 
G01 X2.9138 Y1.2904 
G01 X2.9193 Y1.2927 
G01 X2.9807 Y1.2927 
G01 X2.9862 Y1.2904 
G01 X2.9904 Y1.2862 
G01 X2.9927 Y1.2807 
G01 X2.9927 Y1.2193 
G01 X2.9904 Y1.2138 
G01 X2.9862 Y1.2096 
G01 X2.9852 Y1.2091 
G01 X2.9824 Y1.2091 
G00 Z0.0200 
G00 X2.9829 Y1.1201 
G01 Z-0.0100 F10.00 
G01 X2.9829 Y1.1799 
G01 X2.9799 Y1.1829 
G01 X2.9201 Y1.1829 
G01 X2.9171 Y1.1799 
G01 X2.9171 Y1.1201 
G01 X2.9201 Y1.1171 
G01 X2.9799 Y1.1171 
G01 X2.9829 Y1.1201 
G00 Z0.0200 
G00 X2.9829 Y1.2201 
G01 Z-0.0100 F10.00 
G01 X2.9829 Y1.2799 
G01 X2.9799 Y1.2829 
G01 X2.9201 Y1.2829 
G01 X2.9171 Y1.2799 
G01 X2.9171 Y1.2201 
G01 X2.9201 Y1.2171 
G01 X2.9799 Y1.2171 
G01 X2.9829 Y1.2201 
G00 Z0.0200 
G00 X0.9823 Y1.2091 
G01 Z-0.0100 F10.00 
G01 X0.9804 Y1.2072 
G01 X0.9778 Y1.2061 
G01 X0.9767 Y1.2035 
G01 X0.9747 Y1.2015 
G01 X0.9747 Y1.1987 
G01 X0.9736 Y1.1961 
G01 X0.9747 Y1.1935 
G01 X0.9747 Y1.1906 
G01 X0.9767 Y1.1886 
G01 X0.9777 Y1.1860 
G01 X0.9804 Y1.1850 
G01 X0.9847 Y1.1806 
G01 X0.9847 Y1.1194 
G01 X0.9806 Y1.1153 
G01 X0.9194 Y1.1153 
G01 X0.9153 Y1.1194 
G01 X0.9153 Y1.1806 
G01 X0.9196 Y1.1850 
G01 X0.9222 Y1.1860 
G01 X0.9233 Y1.1886 
G01 X0.9253 Y1.1906 
G01 X0.9253 Y1.1935 
G01 X0.9264 Y1.1961 
G01 X0.9253 Y1.1987 
G01 X0.9253 Y1.2015 
G01 X0.9233 Y1.2035 
G01 X0.9222 Y1.2061 
G01 X0.9196 Y1.2072 
G01 X0.9176 Y1.2091 
G01 X0.9148 Y1.2091 
G01 X0.9138 Y1.2096 
G01 X0.9096 Y1.2138 
G01 X0.9073 Y1.2193 
G01 X0.9073 Y1.2807 
G01 X0.9096 Y1.2862 
G01 X0.9138 Y1.2904 
G01 X0.9193 Y1.2927 
G01 X0.9807 Y1.2927 
G01 X0.9862 Y1.2904 
G01 X0.9904 Y1.2862 
G01 X0.9927 Y1.2807 
G01 X0.9927 Y1.2193 
G01 X0.9904 Y1.2138 
G01 X0.9862 Y1.2096 
G01 X0.9852 Y1.2091 
G01 X0.9823 Y1.2091 
G00 Z0.0200 
G00 X0.9829 Y1.1201 
G01 Z-0.0100 F10.00 
G01 X0.9829 Y1.1799 
G01 X0.9799 Y1.1829 
G01 X0.9201 Y1.1829 
G01 X0.9171 Y1.1799 
G01 X0.9171 Y1.1201 
G01 X0.9201 Y1.1171 
G01 X0.9799 Y1.1171 
G01 X0.9829 Y1.1201 
G00 Z0.0200 
G00 X0.9829 Y1.2201 
G01 Z-0.0100 F10.00 
G01 X0.9829 Y1.2799 
G01 X0.9799 Y1.2829 
G01 X0.9201 Y1.2829 
G01 X0.9171 Y1.2799 
G01 X0.9171 Y1.2201 
G01 X0.9201 Y1.2171 
G01 X0.9799 Y1.2171 
G01 X0.9829 Y1.2201 
G00 Z0.0200 
G00 X2.6369 Y1.3829 
G01 Z-0.0100 F10.00 
G01 X2.6369 Y1.3171 
G01 X2.6329 Y1.3131 
G01 X2.5671 Y1.3131 
G01 X2.5631 Y1.3171 
G01 X2.5631 Y1.3829 
G01 X2.5671 Y1.3869 
G01 X2.6329 Y1.3869 
G01 X2.6369 Y1.3829 
G00 Z0.0200 
G00 X2.5649 Y1.3821 
G01 Z-0.0100 F10.00 
G01 X2.5649 Y1.3179 
G01 X2.5679 Y1.3149 
G01 X2.6321 Y1.3149 
G01 X2.6351 Y1.3179 
G01 X2.6351 Y1.3821 
G01 X2.6321 Y1.3851 
G01 X2.5679 Y1.3851 
G01 X2.5649 Y1.3821 
G00 Z0.0200 
G00 X2.6369 Y0.7171 
G01 Z-0.0100 F10.00 
G01 X2.6329 Y0.7131 
G01 X2.5671 Y0.7131 
G01 X2.5631 Y0.7171 
G01 X2.5631 Y0.7829 
G01 X2.5671 Y0.7869 
G01 X2.6329 Y0.7869 
G01 X2.6369 Y0.7829 
G01 X2.6369 Y0.7171 
G00 Z0.0200 
G00 X2.5649 Y0.7821 
G01 Z-0.0100 F10.00 
G01 X2.5649 Y0.7179 
G01 X2.5679 Y0.7149 
G01 X2.6321 Y0.7149 
G01 X2.6351 Y0.7179 
G01 X2.6351 Y0.7821 
G01 X2.6321 Y0.7851 
G01 X2.5679 Y0.7851 
G01 X2.5649 Y0.7821 
G00 Z0.0200 
G00 X2.6369 Y0.6829 
G01 Z-0.0100 F10.00 
G01 X2.6369 Y0.6171 
G01 X2.6329 Y0.6131 
G01 X2.5671 Y0.6131 
G01 X2.5631 Y0.6171 
G01 X2.5631 Y0.6829 
G01 X2.5671 Y0.6869 
G01 X2.6329 Y0.6869 
G01 X2.6369 Y0.6829 
G00 Z0.0200 
G00 X2.5649 Y0.6821 
G01 Z-0.0100 F10.00 
G01 X2.5649 Y0.6179 
G01 X2.5679 Y0.6149 
G01 X2.6321 Y0.6149 
G01 X2.6351 Y0.6179 
G01 X2.6351 Y0.6821 
G01 X2.6321 Y0.6851 
G01 X2.5679 Y0.6851 
G01 X2.5649 Y0.6821 
G00 Z0.0200 
G00 X0.6369 Y0.7829 
G01 Z-0.0100 F10.00 
G01 X0.6369 Y0.7171 
G01 X0.6329 Y0.7131 
G01 X0.5671 Y0.7131 
G01 X0.5631 Y0.7171 
G01 X0.5631 Y0.7829 
G01 X0.5671 Y0.7869 
G01 X0.6329 Y0.7869 
G01 X0.6369 Y0.7829 
G00 Z0.0200 
G00 X0.5649 Y0.7821 
G01 Z-0.0100 F10.00 
G01 X0.5649 Y0.7179 
G01 X0.5679 Y0.7149 
G01 X0.6321 Y0.7149 
G01 X0.6351 Y0.7179 
G01 X0.6351 Y0.7821 
G01 X0.6321 Y0.7851 
G01 X0.5679 Y0.7851 
G01 X0.5649 Y0.7821 
G00 Z0.0200 
G00 X0.6369 Y0.6829 
G01 Z-0.0100 F10.00 
G01 X0.6369 Y0.6171 
G01 X0.6329 Y0.6131 
G01 X0.5671 Y0.6131 
G01 X0.5631 Y0.6171 
G01 X0.5631 Y0.6829 
G01 X0.5671 Y0.6869 
G01 X0.6329 Y0.6869 
G01 X0.6369 Y0.6829 
G00 Z0.0200 
G00 X0.5649 Y0.6821 
G01 Z-0.0100 F10.00 
G01 X0.5649 Y0.6179 
G01 X0.5679 Y0.6149 
G01 X0.6321 Y0.6149 
G01 X0.6351 Y0.6179 
G01 X0.6351 Y0.6821 
G01 X0.6321 Y0.6851 
G01 X0.5679 Y0.6851 
G01 X0.5649 Y0.6821 
G00 Z0.0200 
G00 X2.6671 Y0.1369 
G01 Z-0.0100 F10.00 
G01 X2.6774 Y0.1369 
G01 X2.6851 Y0.1446 
G01 X2.6851 Y0.1554 
G01 X2.6851 Y0.2774 
G01 X2.6774 Y0.2851 
G01 X2.6666 Y0.2851 
G01 X2.0726 Y0.2851 
G01 X2.0649 Y0.2774 
G01 X2.0649 Y0.2666 
G01 X2.0649 Y0.1516 
G01 X2.0726 Y0.1439 
G01 X2.0834 Y0.1439 
G01 X2.0899 Y0.1439 
G01 X2.0946 Y0.1392 
G01 X2.0946 Y0.1392 
G01 X2.0946 Y0.1392 
G01 X2.0999 Y0.1392 
G01 X2.1054 Y0.1392 
G01 X2.1101 Y0.1439 
G01 X2.1899 Y0.1439 
G01 X2.1939 Y0.1399 
G01 X2.1939 Y0.0601 
G01 X2.1899 Y0.0561 
G01 X2.1101 Y0.0561 
G01 X2.1055 Y0.0607 
G01 X2.1054 Y0.0608 
G01 X2.1054 Y0.0608 
G01 X2.1054 Y0.0608 
G01 X2.1000 Y0.0608 
G01 X2.0946 Y0.0608 
G01 X2.0946 Y0.0608 
G01 X2.0946 Y0.0608 
G01 X2.0899 Y0.0561 
G01 X2.0101 Y0.0561 
G01 X2.0055 Y0.0607 
G01 X2.0054 Y0.0608 
G01 X2.0054 Y0.0608 
G01 X2.0000 Y0.0608 
G01 X1.9946 Y0.0608 
G01 X1.9946 Y0.0608 
G01 X1.9946 Y0.0608 
G01 X1.9899 Y0.0561 
G01 X1.9726 Y0.0561 
G01 X1.9649 Y0.0484 
G01 X1.9649 Y0.0376 
G01 X1.9649 Y0.0226 
G01 X1.9726 Y0.0149 
G01 X1.9834 Y0.0149 
G01 X2.9774 Y0.0149 
G01 X2.9851 Y0.0226 
G01 X2.9851 Y0.0334 
G01 X2.9851 Y0.0554 
G01 X2.9774 Y0.0631 
G01 X2.9671 Y0.0631 
G01 X2.9631 Y0.0671 
G01 X2.9631 Y0.1329 
G01 X2.9671 Y0.1369 
G01 X3.0329 Y0.1369 
G01 X3.0369 Y0.1329 
G01 X3.0369 Y0.0671 
G01 X3.0329 Y0.0631 
G01 X3.0226 Y0.0631 
G01 X3.0149 Y0.0554 
G01 X3.0149 Y0.0446 
G01 X3.0149 Y-0.0054 
G01 X3.0226 Y-0.0131 
G01 X3.0334 Y-0.0131 
G01 X3.8554 Y-0.0131 
G01 X3.8631 Y-0.0054 
G01 X3.8631 Y0.0054 
G01 X3.8631 Y0.0713 
G01 X3.8640 Y0.0730 
G01 X3.8631 Y0.0765 
G01 X3.8631 Y0.0802 
G01 X3.8617 Y0.0816 
G01 X3.8600 Y0.0881 
G01 X3.8600 Y0.1119 
G01 X3.8617 Y0.1184 
G01 X3.8631 Y0.1198 
G01 X3.8631 Y0.1235 
G01 X3.8640 Y0.1270 
G01 X3.8631 Y0.1287 
G01 X3.8631 Y0.1869 
G01 X3.9213 Y0.1869 
G01 X3.9230 Y0.1859 
G01 X3.9265 Y0.1869 
G01 X3.9302 Y0.1869 
G01 X3.9316 Y0.1883 
G01 X3.9381 Y0.1900 
G01 X3.9619 Y0.1900 
G01 X3.9684 Y0.1883 
G01 X3.9698 Y0.1869 
G01 X3.9735 Y0.1869 
G01 X3.9770 Y0.1859 
G01 X3.9787 Y0.1869 
G01 X4.0554 Y0.1869 
G01 X4.0631 Y0.1946 
G01 X4.0631 Y0.2054 
G01 X4.0631 Y1.6554 
G01 X4.0554 Y1.6631 
G01 X4.0446 Y1.6631 
G01 X3.9787 Y1.6631 
G01 X3.9770 Y1.6640 
G01 X3.9735 Y1.6631 
G01 X3.9698 Y1.6631 
G01 X3.9684 Y1.6617 
G01 X3.9619 Y1.6600 
G01 X3.9381 Y1.6600 
G01 X3.9316 Y1.6617 
G01 X3.9302 Y1.6631 
G01 X3.9265 Y1.6631 
G01 X3.9230 Y1.6640 
G01 X3.9213 Y1.6631 
G01 X3.8631 Y1.6631 
G01 X3.8631 Y1.7213 
G01 X3.8640 Y1.7230 
G01 X3.8631 Y1.7265 
G01 X3.8631 Y1.7302 
G01 X3.8617 Y1.7316 
G01 X3.8600 Y1.7381 
G01 X3.8600 Y1.7618 
G01 X3.8617 Y1.7684 
G01 X3.8631 Y1.7698 
G01 X3.8631 Y1.7735 
G01 X3.8640 Y1.7770 
G01 X3.8631 Y1.7787 
G01 X3.8631 Y1.8554 
G01 X3.8554 Y1.8631 
G01 X3.8446 Y1.8631 
G01 X0.2446 Y1.8631 
G01 X0.2369 Y1.8554 
G01 X0.2369 Y1.8446 
G01 X0.2369 Y1.7787 
G01 X0.2359 Y1.7770 
G01 X0.2369 Y1.7735 
G01 X0.2369 Y1.7698 
G01 X0.2383 Y1.7684 
G01 X0.2400 Y1.7619 
G01 X0.2400 Y1.7381 
G01 X0.2383 Y1.7316 
G01 X0.2369 Y1.7302 
G01 X0.2369 Y1.7265 
G01 X0.2359 Y1.7230 
G01 X0.2369 Y1.7213 
G01 X0.2369 Y1.6631 
G01 X0.1787 Y1.6631 
G01 X0.1770 Y1.6640 
G01 X0.1735 Y1.6631 
G01 X0.1698 Y1.6631 
G01 X0.1684 Y1.6617 
G01 X0.1619 Y1.6600 
G01 X0.1381 Y1.6600 
G01 X0.1316 Y1.6617 
G01 X0.1302 Y1.6631 
G01 X0.1265 Y1.6631 
G01 X0.1230 Y1.6640 
G01 X0.1213 Y1.6631 
G01 X0.0446 Y1.6631 
G01 X0.0369 Y1.6554 
G01 X0.0369 Y1.6446 
G01 X0.0369 Y0.1946 
G01 X0.0446 Y0.1869 
G01 X0.0554 Y0.1869 
G01 X0.1213 Y0.1869 
G01 X0.1229 Y0.1859 
G01 X0.1265 Y0.1869 
G01 X0.1302 Y0.1869 
G01 X0.1316 Y0.1883 
G01 X0.1381 Y0.1900 
G01 X0.1619 Y0.1900 
G01 X0.1684 Y0.1883 
G01 X0.1698 Y0.1869 
G01 X0.1735 Y0.1869 
G01 X0.1770 Y0.1859 
G01 X0.1787 Y0.1869 
G01 X0.2369 Y0.1869 
G01 X0.2369 Y0.1287 
G01 X0.2359 Y0.1270 
G01 X0.2369 Y0.1235 
G01 X0.2369 Y0.1198 
G01 X0.2383 Y0.1184 
G01 X0.2400 Y0.1119 
G01 X0.2400 Y0.0881 
G01 X0.2383 Y0.0816 
G01 X0.2369 Y0.0802 
G01 X0.2369 Y0.0765 
G01 X0.2359 Y0.0729 
G01 X0.2369 Y0.0713 
G01 X0.2369 Y-0.0054 
G01 X0.2446 Y-0.0131 
G01 X0.2554 Y-0.0131 
G01 X1.9274 Y-0.0131 
G01 X1.9351 Y-0.0054 
G01 X1.9351 Y0.0054 
G01 X1.9351 Y0.0110 
G01 X1.9351 Y0.0484 
G01 X1.9274 Y0.0561 
G01 X1.9166 Y0.0561 
G01 X1.9101 Y0.0561 
G01 X1.9061 Y0.0601 
G01 X1.9061 Y0.1399 
G01 X1.9101 Y0.1439 
G01 X1.9899 Y0.1439 
G01 X1.9946 Y0.1392 
G01 X1.9946 Y0.1392 
G01 X1.9946 Y0.1392 
G01 X1.9999 Y0.1392 
G01 X2.0054 Y0.1392 
G01 X2.0101 Y0.1439 
G01 X2.0274 Y0.1439 
G01 X2.0351 Y0.1516 
G01 X2.0351 Y0.1624 
G01 X2.0351 Y0.2890 
G01 X2.0351 Y0.3030 
G01 X2.0374 Y0.3084 
G01 X2.0416 Y0.3126 
G01 X2.0470 Y0.3149 
G01 X2.6999 Y0.3149 
G01 X2.7030 Y0.3149 
G01 X2.7084 Y0.3126 
G01 X2.7126 Y0.3084 
G01 X2.7149 Y0.3030 
G01 X2.7149 Y0.1446 
G01 X2.7226 Y0.1369 
G01 X2.7329 Y0.1369 
G01 X2.7369 Y0.1329 
G01 X2.7369 Y0.0671 
G01 X2.7329 Y0.0631 
G01 X2.6671 Y0.0631 
G01 X2.6631 Y0.0671 
G01 X2.6631 Y0.1329 
G01 X2.6671 Y0.1369 
G00 Z0.0200 
G00 X2.1891 Y0.1421 
G01 Z-0.0100 F10.00 
G01 X2.1109 Y0.1421 
G01 X2.1079 Y0.1391 
G01 X2.1079 Y0.0609 
G01 X2.1109 Y0.0579 
G01 X2.1891 Y0.0579 
G01 X2.1921 Y0.0609 
G01 X2.1921 Y0.1391 
G01 X2.1891 Y0.1421 
G00 Z0.0200 
G00 X2.0891 Y0.1421 
G01 Z-0.0100 F10.00 
G01 X2.0631 Y0.1421 
G01 X2.0631 Y0.2869 
G01 X2.6869 Y0.2869 
G01 X2.6869 Y0.1351 
G01 X2.6679 Y0.1351 
G01 X2.6649 Y0.1321 
G01 X2.6649 Y0.0679 
G01 X2.6679 Y0.0649 
G01 X2.7321 Y0.0649 
G01 X2.7351 Y0.0679 
G01 X2.7351 Y0.1321 
G01 X2.7321 Y0.1351 
G01 X2.7131 Y0.1351 
G01 X2.7131 Y0.3054 
G01 X2.7054 Y0.3131 
G01 X2.6946 Y0.3131 
G01 X2.0446 Y0.3131 
G01 X2.0369 Y0.3054 
G01 X2.0369 Y0.2946 
G01 X2.0369 Y0.1421 
G01 X2.0109 Y0.1421 
G01 X2.0079 Y0.1391 
G01 X2.0079 Y0.0609 
G01 X2.0109 Y0.0579 
G01 X2.0891 Y0.0579 
G01 X2.0921 Y0.0609 
G01 X2.0921 Y0.1391 
G01 X2.0891 Y0.1421 
G00 Z0.0200 
G00 X2.9679 Y0.0649 
G01 Z-0.0100 F10.00 
G01 X2.9869 Y0.0649 
G01 X2.9869 Y0.0131 
G01 X1.9631 Y0.0131 
G01 X1.9631 Y0.0579 
G01 X1.9891 Y0.0579 
G01 X1.9921 Y0.0609 
G01 X1.9921 Y0.1391 
G01 X1.9891 Y0.1421 
G01 X1.9109 Y0.1421 
G01 X1.9079 Y0.1391 
G01 X1.9079 Y0.0609 
G01 X1.9109 Y0.0579 
G01 X1.9369 Y0.0579 
G01 X1.9369 Y0.0054 
G01 X1.9369 Y-0.0054 
G01 X1.9446 Y-0.0131 
G01 X2.9946 Y-0.0131 
G01 X3.0054 Y-0.0131 
G01 X3.0131 Y-0.0054 
G01 X3.0131 Y0.0649 
G01 X3.0321 Y0.0649 
G01 X3.0351 Y0.0679 
G01 X3.0351 Y0.1321 
G01 X3.0321 Y0.1351 
G01 X2.9679 Y0.1351 
G01 X2.9649 Y0.1321 
G01 X2.9649 Y0.0679 
G01 X2.9679 Y0.0649 
G00 Z0.0200 
G00 X1.8219 Y1.1495 
G01 Z-0.0100 F10.00 
G01 X1.8295 Y1.1495 
G01 X1.8319 Y1.1519 
G01 X1.8319 Y0.4481 
G01 X1.8296 Y0.4503 
G01 X1.8295 Y0.4505 
G01 X1.8295 Y0.4505 
G01 X1.8221 Y0.4505 
G01 X1.8181 Y0.4505 
G01 X1.8181 Y1.1495 
G01 X1.8219 Y1.1495 
G00 Z0.0200 
G00 X1.7181 Y0.8495 
G01 Z-0.0100 F10.00 
G01 X1.7219 Y0.8495 
G01 X1.7295 Y0.8495 
G01 X1.7319 Y0.8519 
G01 X1.7319 Y0.5181 
G01 X1.1005 Y0.5181 
G01 X1.1005 Y0.5219 
G01 X1.1005 Y0.5295 
G01 X1.0981 Y0.5319 
G01 X1.7075 Y0.5319 
G01 X1.7181 Y0.5425 
G01 X1.7181 Y0.5575 
G01 X1.7181 Y0.8495 
G00 Z0.0200 
G00 X1.7719 Y0.9495 
G01 Z-0.0100 F10.00 
G01 X1.7795 Y0.9495 
G01 X1.7819 Y0.9519 
G01 X1.7819 Y0.4681 
G01 X1.2075 Y0.4681 
G01 X1.2005 Y0.4681 
G01 X1.2005 Y0.4719 
G01 X1.2005 Y0.4795 
G01 X1.1981 Y0.4819 
G01 X1.7425 Y0.4819 
G01 X1.7575 Y0.4819 
G01 X1.7681 Y0.4925 
G01 X1.7681 Y0.9425 
G01 X1.7681 Y0.9495 
G01 X1.7719 Y0.9495 
G00 Z0.0200 
G00 X1.9971 Y0.1342 
G01 Z-0.0100 F10.00 
G01 X1.9999 Y0.1342 
G01 X2.0029 Y0.1342 
G01 X2.0029 Y0.0658 
G01 X2.0001 Y0.0658 
G01 X1.9971 Y0.0658 
G01 X1.9971 Y0.1342 
G00 Z0.0200 
G00 X2.1029 Y0.0658 
G01 Z-0.0100 F10.00 
G01 X2.1001 Y0.0658 
G01 X2.0971 Y0.0658 
G01 X2.0971 Y0.1342 
G01 X2.0999 Y0.1342 
G01 X2.1029 Y0.1342 
G01 X2.1029 Y0.0658 
G00 Z0.0200 
G00 X2.6208 Y0.4418 
G01 Z-0.0100 F10.00 
G01 X2.6208 Y0.4418 
G01 X2.6226 Y0.4401 
G01 X2.6181 Y0.4401 
G01 X2.6181 Y0.4425 
G01 X2.6208 Y0.4453 
G01 X2.6208 Y0.4418 
G00 Z0.0200 
G00 X2.7219 Y0.8495 
G01 Z-0.0100 F10.00 
G01 X2.7295 Y0.8495 
G01 X2.7319 Y0.8519 
G01 X2.7319 Y0.5481 
G01 X2.7295 Y0.5505 
G01 X2.7181 Y0.5505 
G01 X2.7181 Y0.5575 
G01 X2.7181 Y0.8495 
G01 X2.7219 Y0.8495 
G00 Z0.0200 
G00 X2.7719 Y0.9495 
G01 Z-0.0100 F10.00 
G01 X2.7795 Y0.9495 
G01 X2.7819 Y0.9519 
G01 X2.7819 Y0.4981 
G01 X2.7795 Y0.5005 
G01 X2.7681 Y0.5005 
G01 X2.7681 Y0.5075 
G01 X2.7681 Y0.9495 
G01 X2.7719 Y0.9495 
G00 Z0.0200 
G00 X2.7208 Y0.4418 
G01 Z-0.0100 F10.00 
G01 X2.7208 Y0.4418 
G01 X2.7226 Y0.4401 
G01 X2.7181 Y0.4401 
G01 X2.7181 Y0.4425 
G01 X2.7208 Y0.4453 
G01 X2.7208 Y0.4418 
G00 Z0.0200 
G00 X2.8219 Y1.1495 
G01 Z-0.0100 F10.00 
G01 X2.8295 Y1.1495 
G01 X2.8319 Y1.1519 
G01 X2.8319 Y0.5075 
G01 X2.8319 Y0.5005 
G01 X2.8205 Y0.5005 
G01 X2.8181 Y0.4981 
G01 X2.8181 Y1.1495 
G01 X2.8219 Y1.1495 
G00 Z0.0200 
G00 X2.8774 Y0.4401 
G01 Z-0.0100 F10.00 
G01 X2.8792 Y0.4418 
G01 X2.8792 Y0.4453 
G01 X2.8819 Y0.4425 
G01 X2.8819 Y0.4401 
G01 X2.8774 Y0.4401 
G00 Z0.0200 
G00 X2.0971 Y1.7909 
G01 Z-0.0100 F10.00 
G01 X2.1011 Y1.7869 
G01 X2.1029 Y1.7869 
G01 X2.1029 Y1.7131 
G01 X2.1011 Y1.7131 
G01 X2.0971 Y1.7091 
G01 X2.0971 Y1.7909 
G00 Z0.0200 
G00 X1.9971 Y1.7889 
G01 Z-0.0100 F10.00 
G01 X2.0009 Y1.7889 
G01 X2.0029 Y1.7909 
G01 X2.0029 Y1.7091 
G01 X2.0009 Y1.7111 
