( This gcode generated by C:/Program Files (x86)/Eagle/ulp/pcb-gcode.ulp )
( Copyright 2005 by John Johnson. See readme.txt for licensing terms. )

( This file generated from the board R:/projects/svn/eagle/nix2/nix2-driver.brd )
( This file generated 1/11/2011 6:41:42 AM )

( T01 0.027559 )
( T02 0.032000 )
( T03 0.035433 )
( T04 0.040000 )
( T05 0.110236 )
G20

G90
M05
G00 X5.5000 Y3.4000 Z7.6000 
M06 T01  ; 0.0276 
G00 Z0.0200 
M03
G04 P3.000000
G00 Z0.020000
G00 X0.1500 Y0.6500 
G01 Z-0.1200 F5.00  
G01 Z0.020000
(R0.0200  P10.000000)
(G00 Z0.020000)
G00 X0.1500 Y0.7500 
G01 Z-0.120000
G01 Z0.020000
(G00 Z0.020000)
G00 X0.1500 Y0.8500 
G01 Z-0.120000
G01 Z0.020000
(G00 Z0.020000)
G00 X0.1500 Y0.9500 
G01 Z-0.120000
G01 Z0.020000
(G00 Z0.020000)
G00 X0.1500 Y1.0500 
G01 Z-0.120000
G01 Z0.020000
(G00 Z0.020000)
G00 X0.1500 Y1.1500 
G01 Z-0.120000
G01 Z0.020000
(G00 Z0.020000)
G00 X0.1500 Y1.2500 
G01 Z-0.120000
G01 Z0.020000
(G00 Z0.020000)
G00 X3.9500 Y0.6500 
G01 Z-0.120000
G01 Z0.020000
(G00 Z0.020000)
G00 X3.9500 Y0.7500 
G01 Z-0.120000
G01 Z0.020000
(G00 Z0.020000)
G00 X3.9500 Y0.8500 
G01 Z-0.120000
G01 Z0.020000
(G00 Z0.020000)
G00 X3.9500 Y0.9500 
G01 Z-0.120000
G01 Z0.020000
(G00 Z0.020000)
G00 X3.9500 Y1.0500 
G01 Z-0.120000
G01 Z0.020000
(G00 Z0.020000)
G00 X3.9500 Y1.1500 
G01 Z-0.120000
G01 Z0.020000
(G00 Z0.020000)
G00 X3.9500 Y1.2500 
G01 Z-0.120000
G01 Z0.020000
(G00 Z0.020000)
G00 X0.9500 Y0.6500 
G01 Z-0.120000
G01 Z0.020000
(G00 Z0.020000)
G00 X0.9500 Y0.7500 
G01 Z-0.120000
G01 Z0.020000
(G00 Z0.020000)
G00 X0.9500 Y0.8500 
G01 Z-0.120000
G01 Z0.020000
(G00 Z0.020000)
G00 X0.9500 Y0.9500 
G01 Z-0.120000
G01 Z0.020000
(G00 Z0.020000)
G00 X0.9500 Y1.0500 
G01 Z-0.120000
G01 Z0.020000
(G00 Z0.020000)
G00 X0.9500 Y1.1500 
G01 Z-0.120000
G01 Z0.020000
(G00 Z0.020000)
G00 X0.9500 Y1.2500 
G01 Z-0.120000
G01 Z0.020000
(G00 Z0.020000)
G00 X1.1500 Y0.6500 
G01 Z-0.120000
G01 Z0.020000
(G00 Z0.020000)
G00 X1.1500 Y0.7500 
G01 Z-0.120000
G01 Z0.020000
(G00 Z0.020000)
G00 X1.1500 Y0.8500 
G01 Z-0.120000
G01 Z0.020000
(G00 Z0.020000)
G00 X1.1500 Y0.9500 
G01 Z-0.120000
G01 Z0.020000
(G00 Z0.020000)
G00 X1.1500 Y1.0500 
G01 Z-0.120000
G01 Z0.020000
(G00 Z0.020000)
G00 X1.1500 Y1.1500 
G01 Z-0.120000
G01 Z0.020000
(G00 Z0.020000)
G00 X1.1500 Y1.2500 
G01 Z-0.120000
G01 Z0.020000
(G00 Z0.020000)
G00 X1.9500 Y0.6500 
G01 Z-0.120000
G01 Z0.020000
(G00 Z0.020000)
G00 X1.9500 Y0.7500 
G01 Z-0.120000
G01 Z0.020000
(G00 Z0.020000)
G00 X1.9500 Y0.8500 
G01 Z-0.120000
G01 Z0.020000
(G00 Z0.020000)
G00 X1.9500 Y0.9500 
G01 Z-0.120000
G01 Z0.020000
(G00 Z0.020000)
G00 X1.9500 Y1.0500 
G01 Z-0.120000
G01 Z0.020000
(G00 Z0.020000)
G00 X1.9500 Y1.1500 
G01 Z-0.120000
G01 Z0.020000
(G00 Z0.020000)
G00 X1.9500 Y1.2500 
G01 Z-0.120000
G01 Z0.020000
(G00 Z0.020000)
G00 X2.1500 Y0.6500 
G01 Z-0.120000
G01 Z0.020000
(G00 Z0.020000)
G00 X2.1500 Y0.7500 
G01 Z-0.120000
G01 Z0.020000
(G00 Z0.020000)
G00 X2.1500 Y0.8500 
G01 Z-0.120000
G01 Z0.020000
(G00 Z0.020000)
G00 X2.1500 Y0.9500 
G01 Z-0.120000
G01 Z0.020000
(G00 Z0.020000)
G00 X2.1500 Y1.0500 
G01 Z-0.120000
G01 Z0.020000
(G00 Z0.020000)
G00 X2.1500 Y1.1500 
G01 Z-0.120000
G01 Z0.020000
(G00 Z0.020000)
G00 X2.1500 Y1.2500 
G01 Z-0.120000
G01 Z0.020000
(G00 Z0.020000)
G00 X2.9500 Y0.6500 
G01 Z-0.120000
G01 Z0.020000
(G00 Z0.020000)
G00 X2.9500 Y0.7500 
G01 Z-0.120000
G01 Z0.020000
(G00 Z0.020000)
G00 X2.9500 Y0.8500 
G01 Z-0.120000
G01 Z0.020000
(G00 Z0.020000)
G00 X2.9500 Y0.9500 
G01 Z-0.120000
G01 Z0.020000
(G00 Z0.020000)
G00 X2.9500 Y1.0500 
G01 Z-0.120000
G01 Z0.020000
(G00 Z0.020000)
G00 X2.9500 Y1.1500 
G01 Z-0.120000
G01 Z0.020000
(G00 Z0.020000)
G00 X2.9500 Y1.2500 
G01 Z-0.120000
G01 Z0.020000
(G00 Z0.020000)
G00 X3.1500 Y0.6500 
G01 Z-0.120000
G01 Z0.020000
(G00 Z0.020000)
G00 X3.1500 Y0.7500 
G01 Z-0.120000
G01 Z0.020000
(G00 Z0.020000)
G00 X3.1500 Y0.8500 
G01 Z-0.120000
G01 Z0.020000
(G00 Z0.020000)
G00 X3.1500 Y0.9500 
G01 Z-0.120000
G01 Z0.020000
(G00 Z0.020000)
G00 X3.1500 Y1.0500 
G01 Z-0.120000
G01 Z0.020000
(G00 Z0.020000)
G00 X3.1500 Y1.1500 
G01 Z-0.120000
G01 Z0.020000
(G00 Z0.020000)
G00 X3.1500 Y1.2500 
G01 Z-0.120000
G01 Z0.020000
M05
G00 X5.5000 Y3.4000 Z7.6000 
M06 T02  ; 0.0320 
G00 Z0.0200 
M03
G04 P3.000000
G00 Z0.020000
G00 X0.3000 Y0.6500 
G01 Z-0.1200 F5.00  
G01 Z0.020000
(R0.0200  P10.000000)
(G00 Z0.020000)
G00 X0.3000 Y0.7500 
G01 Z-0.120000
G01 Z0.020000
(G00 Z0.020000)
G00 X0.3000 Y0.8500 
G01 Z-0.120000
G01 Z0.020000
(G00 Z0.020000)
G00 X0.3000 Y0.9500 
G01 Z-0.120000
G01 Z0.020000
(G00 Z0.020000)
G00 X0.3000 Y1.0500 
G01 Z-0.120000
G01 Z0.020000
(G00 Z0.020000)
G00 X0.3000 Y1.1500 
G01 Z-0.120000
G01 Z0.020000
(G00 Z0.020000)
G00 X0.3000 Y1.2500 
G01 Z-0.120000
G01 Z0.020000
(G00 Z0.020000)
G00 X0.3000 Y1.3500 
G01 Z-0.120000
G01 Z0.020000
(G00 Z0.020000)
G00 X0.5000 Y0.1000 
G01 Z-0.120000
G01 Z0.020000
(G00 Z0.020000)
G00 X0.5000 Y0.4000 
G01 Z-0.120000
G01 Z0.020000
(G00 Z0.020000)
G00 X0.6000 Y0.1000 
G01 Z-0.120000
G01 Z0.020000
(G00 Z0.020000)
G00 X0.6000 Y0.4000 
G01 Z-0.120000
G01 Z0.020000
(G00 Z0.020000)
G00 X0.6000 Y0.6500 
G01 Z-0.120000
G01 Z0.020000
(G00 Z0.020000)
G00 X0.6000 Y0.7500 
G01 Z-0.120000
G01 Z0.020000
(G00 Z0.020000)
G00 X0.6000 Y0.8500 
G01 Z-0.120000
G01 Z0.020000
(G00 Z0.020000)
G00 X0.6000 Y0.9500 
G01 Z-0.120000
G01 Z0.020000
(G00 Z0.020000)
G00 X0.6000 Y1.0500 
G01 Z-0.120000
G01 Z0.020000
(G00 Z0.020000)
G00 X0.6000 Y1.1500 
G01 Z-0.120000
G01 Z0.020000
(G00 Z0.020000)
G00 X0.6000 Y1.2500 
G01 Z-0.120000
G01 Z0.020000
(G00 Z0.020000)
G00 X0.6000 Y1.3500 
G01 Z-0.120000
G01 Z0.020000
(G00 Z0.020000)
G00 X0.7000 Y0.1000 
G01 Z-0.120000
G01 Z0.020000
(G00 Z0.020000)
G00 X0.7000 Y0.4000 
G01 Z-0.120000
G01 Z0.020000
(G00 Z0.020000)
G00 X0.8000 Y0.1000 
G01 Z-0.120000
G01 Z0.020000
(G00 Z0.020000)
G00 X0.8000 Y0.4000 
G01 Z-0.120000
G01 Z0.020000
(G00 Z0.020000)
G00 X0.9000 Y0.1000 
G01 Z-0.120000
G01 Z0.020000
(G00 Z0.020000)
G00 X0.9000 Y0.4000 
G01 Z-0.120000
G01 Z0.020000
(G00 Z0.020000)
G00 X1.0000 Y0.1000 
G01 Z-0.120000
G01 Z0.020000
(G00 Z0.020000)
G00 X1.0000 Y0.4000 
G01 Z-0.120000
G01 Z0.020000
(G00 Z0.020000)
G00 X1.1000 Y0.1000 
G01 Z-0.120000
G01 Z0.020000
(G00 Z0.020000)
G00 X1.1000 Y0.4000 
G01 Z-0.120000
G01 Z0.020000
(G00 Z0.020000)
G00 X1.2000 Y0.1000 
G01 Z-0.120000
G01 Z0.020000
(G00 Z0.020000)
G00 X1.2000 Y0.4000 
G01 Z-0.120000
G01 Z0.020000
(G00 Z0.020000)
G00 X1.3000 Y0.6500 
G01 Z-0.120000
G01 Z0.020000
(G00 Z0.020000)
G00 X1.3000 Y0.7500 
G01 Z-0.120000
G01 Z0.020000
(G00 Z0.020000)
G00 X1.3000 Y0.8500 
G01 Z-0.120000
G01 Z0.020000
(G00 Z0.020000)
G00 X1.3000 Y0.9500 
G01 Z-0.120000
G01 Z0.020000
(G00 Z0.020000)
G00 X1.3000 Y1.0500 
G01 Z-0.120000
G01 Z0.020000
(G00 Z0.020000)
G00 X1.3000 Y1.1500 
G01 Z-0.120000
G01 Z0.020000
(G00 Z0.020000)
G00 X1.3000 Y1.2500 
G01 Z-0.120000
G01 Z0.020000
(G00 Z0.020000)
G00 X1.3000 Y1.3500 
G01 Z-0.120000
G01 Z0.020000
(G00 Z0.020000)
G00 X1.6000 Y0.6500 
G01 Z-0.120000
G01 Z0.020000
(G00 Z0.020000)
G00 X1.6000 Y0.7500 
G01 Z-0.120000
G01 Z0.020000
(G00 Z0.020000)
G00 X1.6000 Y0.8500 
G01 Z-0.120000
G01 Z0.020000
(G00 Z0.020000)
G00 X1.6000 Y0.9500 
G01 Z-0.120000
G01 Z0.020000
(G00 Z0.020000)
G00 X1.6000 Y1.0500 
G01 Z-0.120000
G01 Z0.020000
(G00 Z0.020000)
G00 X1.6000 Y1.1500 
G01 Z-0.120000
G01 Z0.020000
(G00 Z0.020000)
G00 X1.6000 Y1.2500 
G01 Z-0.120000
G01 Z0.020000
(G00 Z0.020000)
G00 X1.6000 Y1.3500 
G01 Z-0.120000
G01 Z0.020000
(G00 Z0.020000)
G00 X2.3000 Y0.6500 
G01 Z-0.120000
G01 Z0.020000
(G00 Z0.020000)
G00 X2.3000 Y0.7500 
G01 Z-0.120000
G01 Z0.020000
(G00 Z0.020000)
G00 X2.3000 Y0.8500 
G01 Z-0.120000
G01 Z0.020000
(G00 Z0.020000)
G00 X2.3000 Y0.9500 
G01 Z-0.120000
G01 Z0.020000
(G00 Z0.020000)
G00 X2.3000 Y1.0500 
G01 Z-0.120000
G01 Z0.020000
(G00 Z0.020000)
G00 X2.3000 Y1.1500 
G01 Z-0.120000
G01 Z0.020000
(G00 Z0.020000)
G00 X2.3000 Y1.2500 
G01 Z-0.120000
G01 Z0.020000
(G00 Z0.020000)
G00 X2.3000 Y1.3500 
G01 Z-0.120000
G01 Z0.020000
(G00 Z0.020000)
G00 X2.5000 Y0.1000 
G01 Z-0.120000
G01 Z0.020000
(G00 Z0.020000)
G00 X2.5000 Y0.4000 
G01 Z-0.120000
G01 Z0.020000
(G00 Z0.020000)
G00 X2.6000 Y0.1000 
G01 Z-0.120000
G01 Z0.020000
(G00 Z0.020000)
G00 X2.6000 Y0.4000 
G01 Z-0.120000
G01 Z0.020000
(G00 Z0.020000)
G00 X2.6000 Y0.6500 
G01 Z-0.120000
G01 Z0.020000
(G00 Z0.020000)
G00 X2.6000 Y0.7500 
G01 Z-0.120000
G01 Z0.020000
(G00 Z0.020000)
G00 X2.6000 Y0.8500 
G01 Z-0.120000
G01 Z0.020000
(G00 Z0.020000)
G00 X2.6000 Y0.9500 
G01 Z-0.120000
G01 Z0.020000
(G00 Z0.020000)
G00 X2.6000 Y1.0500 
G01 Z-0.120000
G01 Z0.020000
(G00 Z0.020000)
G00 X2.6000 Y1.1500 
G01 Z-0.120000
G01 Z0.020000
(G00 Z0.020000)
G00 X2.6000 Y1.2500 
G01 Z-0.120000
G01 Z0.020000
(G00 Z0.020000)
G00 X2.6000 Y1.3500 
G01 Z-0.120000
G01 Z0.020000
(G00 Z0.020000)
G00 X2.7000 Y0.1000 
G01 Z-0.120000
G01 Z0.020000
(G00 Z0.020000)
G00 X2.7000 Y0.4000 
G01 Z-0.120000
G01 Z0.020000
(G00 Z0.020000)
G00 X2.8000 Y0.1000 
G01 Z-0.120000
G01 Z0.020000
(G00 Z0.020000)
G00 X2.8000 Y0.4000 
G01 Z-0.120000
G01 Z0.020000
(G00 Z0.020000)
G00 X2.9000 Y0.1000 
G01 Z-0.120000
G01 Z0.020000
(G00 Z0.020000)
G00 X2.9000 Y0.4000 
G01 Z-0.120000
G01 Z0.020000
(G00 Z0.020000)
G00 X3.0000 Y0.1000 
G01 Z-0.120000
G01 Z0.020000
(G00 Z0.020000)
G00 X3.0000 Y0.4000 
G01 Z-0.120000
G01 Z0.020000
(G00 Z0.020000)
G00 X3.1000 Y0.1000 
G01 Z-0.120000
G01 Z0.020000
(G00 Z0.020000)
G00 X3.1000 Y0.4000 
G01 Z-0.120000
G01 Z0.020000
(G00 Z0.020000)
G00 X3.2000 Y0.1000 
G01 Z-0.120000
G01 Z0.020000
(G00 Z0.020000)
G00 X3.2000 Y0.4000 
G01 Z-0.120000
G01 Z0.020000
(G00 Z0.020000)
G00 X3.3000 Y0.6500 
G01 Z-0.120000
G01 Z0.020000
(G00 Z0.020000)
G00 X3.3000 Y0.7500 
G01 Z-0.120000
G01 Z0.020000
(G00 Z0.020000)
G00 X3.3000 Y0.8500 
G01 Z-0.120000
G01 Z0.020000
(G00 Z0.020000)
G00 X3.3000 Y0.9500 
G01 Z-0.120000
G01 Z0.020000
(G00 Z0.020000)
G00 X3.3000 Y1.0500 
G01 Z-0.120000
G01 Z0.020000
(G00 Z0.020000)
G00 X3.3000 Y1.1500 
G01 Z-0.120000
G01 Z0.020000
(G00 Z0.020000)
G00 X3.3000 Y1.2500 
G01 Z-0.120000
G01 Z0.020000
(G00 Z0.020000)
G00 X3.3000 Y1.3500 
G01 Z-0.120000
G01 Z0.020000
(G00 Z0.020000)
G00 X3.6000 Y0.6500 
G01 Z-0.120000
G01 Z0.020000
(G00 Z0.020000)
G00 X3.6000 Y0.7500 
G01 Z-0.120000
G01 Z0.020000
(G00 Z0.020000)
G00 X3.6000 Y0.8500 
G01 Z-0.120000
G01 Z0.020000
(G00 Z0.020000)
G00 X3.6000 Y0.9500 
G01 Z-0.120000
G01 Z0.020000
(G00 Z0.020000)
G00 X3.6000 Y1.0500 
G01 Z-0.120000
G01 Z0.020000
(G00 Z0.020000)
G00 X3.6000 Y1.1500 
G01 Z-0.120000
G01 Z0.020000
(G00 Z0.020000)
G00 X3.6000 Y1.2500 
G01 Z-0.120000
G01 Z0.020000
(G00 Z0.020000)
G00 X3.6000 Y1.3500 
G01 Z-0.120000
G01 Z0.020000
M05
G00 X5.5000 Y3.4000 Z7.6000 
M06 T03  ; 0.0354 
G00 Z0.0200 
M03
G04 P3.000000
G00 Z0.020000
G00 X3.9500 Y1.5500 
G01 Z-0.1200 F5.00  
G01 Z0.020000
(R0.0200  P10.000000)
(G00 Z0.020000)
G00 X0.6500 Y1.5500 
G01 Z-0.120000
G01 Z0.020000
(G00 Z0.020000)
G00 X0.9500 Y1.5500 
G01 Z-0.120000
G01 Z0.020000
(G00 Z0.020000)
G00 X1.6500 Y1.5500 
G01 Z-0.120000
G01 Z0.020000
(G00 Z0.020000)
G00 X1.9500 Y1.5500 
G01 Z-0.120000
G01 Z0.020000
(G00 Z0.020000)
G00 X2.6500 Y1.5500 
G01 Z-0.120000
G01 Z0.020000
(G00 Z0.020000)
G00 X2.9500 Y1.5500 
G01 Z-0.120000
G01 Z0.020000
(G00 Z0.020000)
G00 X3.6500 Y1.5500 
G01 Z-0.120000
G01 Z0.020000
M05
G00 X5.5000 Y3.4000 Z7.6000 
M06 T04  ; 0.0400 
G00 Z0.0200 
M03
G04 P3.000000
G00 Z0.020000
G00 X1.9500 Y0.1000 
G01 Z-0.1200 F5.00  
G01 Z0.020000
(R0.0200  P10.000000)
(G00 Z0.020000)
G00 X1.9500 Y1.7500 
G01 Z-0.120000
G01 Z0.020000
(G00 Z0.020000)
G00 X2.0500 Y0.1000 
G01 Z-0.120000
G01 Z0.020000
(G00 Z0.020000)
G00 X2.0500 Y1.7500 
G01 Z-0.120000
G01 Z0.020000
(G00 Z0.020000)
G00 X2.1500 Y0.1000 
G01 Z-0.120000
G01 Z0.020000
(G00 Z0.020000)
G00 X2.1500 Y1.7500 
G01 Z-0.120000
G01 Z0.020000
M05
G00 X5.5000 Y3.4000 Z7.6000 
M06 T05  ; 0.1102 
G00 Z0.0200 
M03
G04 P3.000000
G00 Z0.020000
G00 X0.1500 Y0.1000 
G01 Z-0.1200 F5.00  
G01 Z0.020000
(R0.0200  P10.000000)
(G00 Z0.020000)
G00 X0.1500 Y1.7500 
G01 Z-0.120000
G01 Z0.020000
(G00 Z0.020000)
G00 X3.9500 Y0.1000 
G01 Z-0.120000
G01 Z0.020000
(G00 Z0.020000)
G00 X3.9500 Y1.7500 
G01 Z-0.120000
G01 Z0.020000
(File Footer)
T01 
G00 Z0.5000 
M05
M02
