( This gcode generated by C:/Program Files (x86)/Eagle/ulp/pcb-gcode.ulp )
( Copyright 2005 by John Johnson. See readme.txt for licensing terms. )

( This file generated from the board R:/projects/svn/eagle/nix2/nix2-driver.brd )
( This file generated 1/11/2011 6:41:39 AM )

G20

G90
G00 Z0.5000 
G00 X0 Y0
M03
G04 P3.000000
G00 Z0.0200 
G00 X-0.4671 Y0.1369 
G01 Z-0.0100 F10.00 
G01 X-0.5329 Y0.1369 
G01 X-0.5369 Y0.1329 
G01 X-0.5369 Y0.0671 
G01 X-0.5329 Y0.0631 
G01 X-0.4671 Y0.0631 
G01 X-0.4631 Y0.0671 
G01 X-0.4631 Y0.1329 
G01 X-0.4671 Y0.1369 
G00 Z0.0200 
G00 X-0.4679 Y0.0649 
G01 Z-0.0100 F10.00 
G01 X-0.5321 Y0.0649 
G01 X-0.5351 Y0.0679 
G01 X-0.5351 Y0.1321 
G01 X-0.5321 Y0.1351 
G01 X-0.4679 Y0.1351 
G01 X-0.4649 Y0.1321 
G01 X-0.4649 Y0.0679 
G01 X-0.4679 Y0.0649 
G00 Z0.0200 
G00 X-0.6369 Y0.1329 
G01 Z-0.0100 F10.00 
G01 X-0.6369 Y0.0671 
G01 X-0.6329 Y0.0631 
G01 X-0.5671 Y0.0631 
G01 X-0.5631 Y0.0671 
G01 X-0.5631 Y0.1329 
G01 X-0.5671 Y0.1369 
G01 X-0.6329 Y0.1369 
G01 X-0.6369 Y0.1329 
G00 Z0.0200 
G00 X-0.5679 Y0.0649 
G01 Z-0.0100 F10.00 
G01 X-0.6321 Y0.0649 
G01 X-0.6351 Y0.0679 
G01 X-0.6351 Y0.1321 
G01 X-0.6321 Y0.1351 
G01 X-0.5679 Y0.1351 
G01 X-0.5649 Y0.1321 
G01 X-0.5649 Y0.0679 
G01 X-0.5679 Y0.0649 
G00 Z0.0200 
G00 X-1.1153 Y1.1194 
G01 Z-0.0100 F10.00 
G01 X-1.1153 Y1.1806 
G01 X-1.1194 Y1.1847 
G01 X-1.1806 Y1.1847 
G01 X-1.1847 Y1.1806 
G01 X-1.1847 Y1.1726 
G01 X-1.1924 Y1.1649 
G01 X-1.2032 Y1.1649 
G01 X-1.2554 Y1.1649 
G01 X-1.2631 Y1.1726 
G01 X-1.2631 Y1.1829 
G01 X-1.2671 Y1.1869 
G01 X-1.3329 Y1.1869 
G01 X-1.3369 Y1.1829 
G01 X-1.3369 Y1.1171 
G01 X-1.3329 Y1.1131 
G01 X-1.2671 Y1.1131 
G01 X-1.2631 Y1.1171 
G01 X-1.2631 Y1.1274 
G01 X-1.2554 Y1.1351 
G01 X-1.2446 Y1.1351 
G01 X-1.1924 Y1.1351 
G01 X-1.1847 Y1.1274 
G01 X-1.1847 Y1.1194 
G01 X-1.1806 Y1.1153 
G01 X-1.1194 Y1.1153 
G01 X-1.1153 Y1.1194 
G00 Z0.0200 
G00 X-1.1829 Y1.1201 
G01 Z-0.0100 F10.00 
G01 X-1.1829 Y1.1369 
G01 X-1.2649 Y1.1369 
G01 X-1.2649 Y1.1179 
G01 X-1.2679 Y1.1149 
G01 X-1.3321 Y1.1149 
G01 X-1.3351 Y1.1179 
G01 X-1.3351 Y1.1821 
G01 X-1.3321 Y1.1851 
G01 X-1.2679 Y1.1851 
G01 X-1.2649 Y1.1821 
G01 X-1.2649 Y1.1631 
G01 X-1.1829 Y1.1631 
G01 X-1.1829 Y1.1799 
G01 X-1.1799 Y1.1829 
G01 X-1.1201 Y1.1829 
G01 X-1.1171 Y1.1799 
G01 X-1.1171 Y1.1201 
G01 X-1.1201 Y1.1171 
G01 X-1.1799 Y1.1171 
G01 X-1.1829 Y1.1201 
G00 Z0.0200 
G00 X-3.1153 Y1.1194 
G01 Z-0.0100 F10.00 
G01 X-3.1153 Y1.1806 
G01 X-3.1194 Y1.1847 
G01 X-3.1806 Y1.1847 
G01 X-3.1847 Y1.1806 
G01 X-3.1847 Y1.1726 
G01 X-3.1924 Y1.1649 
G01 X-3.2032 Y1.1649 
G01 X-3.2554 Y1.1649 
G01 X-3.2631 Y1.1726 
G01 X-3.2631 Y1.1829 
G01 X-3.2671 Y1.1869 
G01 X-3.3329 Y1.1869 
G01 X-3.3369 Y1.1829 
G01 X-3.3369 Y1.1171 
G01 X-3.3329 Y1.1131 
G01 X-3.2671 Y1.1131 
G01 X-3.2631 Y1.1171 
G01 X-3.2631 Y1.1274 
G01 X-3.2554 Y1.1351 
G01 X-3.2446 Y1.1351 
G01 X-3.1924 Y1.1351 
G01 X-3.1847 Y1.1274 
G01 X-3.1847 Y1.1194 
G01 X-3.1806 Y1.1153 
G01 X-3.1194 Y1.1153 
G01 X-3.1153 Y1.1194 
G00 Z0.0200 
G00 X-3.2649 Y1.1821 
G01 Z-0.0100 F10.00 
G01 X-3.2649 Y1.1631 
G01 X-3.1829 Y1.1631 
G01 X-3.1829 Y1.1799 
G01 X-3.1799 Y1.1829 
G01 X-3.1201 Y1.1829 
G01 X-3.1171 Y1.1799 
G01 X-3.1171 Y1.1201 
G01 X-3.1201 Y1.1171 
G01 X-3.1799 Y1.1171 
G01 X-3.1829 Y1.1201 
G01 X-3.1829 Y1.1369 
G01 X-3.2649 Y1.1369 
G01 X-3.2649 Y1.1179 
G01 X-3.2679 Y1.1149 
G01 X-3.3321 Y1.1149 
G01 X-3.3351 Y1.1179 
G01 X-3.3351 Y1.1821 
G01 X-3.3321 Y1.1851 
G01 X-3.2679 Y1.1851 
G01 X-3.2649 Y1.1821 
G00 Z0.0200 
G00 X-3.9153 Y0.6194 
G01 Z-0.0100 F10.00 
G01 X-3.9153 Y0.6274 
G01 X-3.9076 Y0.6351 
G01 X-3.8968 Y0.6351 
G01 X-3.6446 Y0.6351 
G01 X-3.6369 Y0.6274 
G01 X-3.6369 Y0.6171 
G01 X-3.6329 Y0.6131 
G01 X-3.5671 Y0.6131 
G01 X-3.5631 Y0.6171 
G01 X-3.5631 Y0.6829 
G01 X-3.5671 Y0.6869 
G01 X-3.6329 Y0.6869 
G01 X-3.6369 Y0.6829 
G01 X-3.6369 Y0.6726 
G01 X-3.6446 Y0.6649 
G01 X-3.6554 Y0.6649 
G01 X-3.9076 Y0.6649 
G01 X-3.9153 Y0.6726 
G01 X-3.9153 Y0.6806 
G01 X-3.9194 Y0.6847 
G01 X-3.9806 Y0.6847 
G01 X-3.9847 Y0.6806 
G01 X-3.9847 Y0.6194 
G01 X-3.9806 Y0.6153 
G01 X-3.9194 Y0.6153 
G01 X-3.9153 Y0.6194 
G00 Z0.0200 
G00 X-3.5649 Y0.6821 
G01 Z-0.0100 F10.00 
G01 X-3.5649 Y0.6179 
G01 X-3.5679 Y0.6149 
G01 X-3.6321 Y0.6149 
G01 X-3.6351 Y0.6179 
G01 X-3.6351 Y0.6369 
G01 X-3.9171 Y0.6369 
G01 X-3.9171 Y0.6201 
G01 X-3.9201 Y0.6171 
G01 X-3.9799 Y0.6171 
G01 X-3.9829 Y0.6201 
G01 X-3.9829 Y0.6799 
G01 X-3.9799 Y0.6829 
G01 X-3.9201 Y0.6829 
G01 X-3.9171 Y0.6799 
G01 X-3.9171 Y0.6631 
G01 X-3.6351 Y0.6631 
G01 X-3.6351 Y0.6821 
G01 X-3.6321 Y0.6851 
G01 X-3.5679 Y0.6851 
G01 X-3.5649 Y0.6821 
G00 Z0.0200 
G00 X-0.3329 Y0.7131 
G01 Z-0.0100 F10.00 
G01 X-0.2671 Y0.7131 
G01 X-0.2631 Y0.7171 
G01 X-0.2631 Y0.7274 
G01 X-0.2554 Y0.7351 
G01 X-0.2446 Y0.7351 
G01 X-0.1924 Y0.7351 
G01 X-0.1847 Y0.7274 
G01 X-0.1847 Y0.7194 
G01 X-0.1806 Y0.7153 
G01 X-0.1194 Y0.7153 
G01 X-0.1153 Y0.7194 
G01 X-0.1153 Y0.7806 
G01 X-0.1194 Y0.7847 
G01 X-0.1806 Y0.7847 
G01 X-0.1847 Y0.7806 
G01 X-0.1847 Y0.7726 
G01 X-0.1924 Y0.7649 
G01 X-0.2032 Y0.7649 
G01 X-0.2554 Y0.7649 
G01 X-0.2631 Y0.7726 
G01 X-0.2631 Y0.7829 
G01 X-0.2671 Y0.7869 
G01 X-0.3329 Y0.7869 
G01 X-0.3369 Y0.7829 
G01 X-0.3369 Y0.7171 
G01 X-0.3329 Y0.7131 
G00 Z0.0200 
G00 X-0.2649 Y0.7821 
G01 Z-0.0100 F10.00 
G01 X-0.2649 Y0.7631 
G01 X-0.1829 Y0.7631 
G01 X-0.1829 Y0.7799 
G01 X-0.1799 Y0.7829 
G01 X-0.1201 Y0.7829 
G01 X-0.1171 Y0.7799 
G01 X-0.1171 Y0.7201 
G01 X-0.1201 Y0.7171 
G01 X-0.1799 Y0.7171 
G01 X-0.1829 Y0.7201 
G01 X-0.1829 Y0.7369 
G01 X-0.2649 Y0.7369 
G01 X-0.2649 Y0.7179 
G01 X-0.2679 Y0.7149 
G01 X-0.3321 Y0.7149 
G01 X-0.3351 Y0.7179 
G01 X-0.3351 Y0.7821 
G01 X-0.3321 Y0.7851 
G01 X-0.2679 Y0.7851 
G01 X-0.2649 Y0.7821 
G00 Z0.0200 
G00 X-0.3329 Y0.9131 
G01 Z-0.0100 F10.00 
G01 X-0.2671 Y0.9131 
G01 X-0.2631 Y0.9171 
G01 X-0.2631 Y0.9274 
G01 X-0.2554 Y0.9351 
G01 X-0.2446 Y0.9351 
G01 X-0.1924 Y0.9351 
G01 X-0.1847 Y0.9274 
G01 X-0.1847 Y0.9194 
G01 X-0.1806 Y0.9153 
G01 X-0.1194 Y0.9153 
G01 X-0.1153 Y0.9194 
G01 X-0.1153 Y0.9806 
G01 X-0.1194 Y0.9847 
G01 X-0.1806 Y0.9847 
G01 X-0.1847 Y0.9806 
G01 X-0.1847 Y0.9726 
G01 X-0.1924 Y0.9649 
G01 X-0.2032 Y0.9649 
G01 X-0.2554 Y0.9649 
G01 X-0.2631 Y0.9726 
G01 X-0.2631 Y0.9829 
G01 X-0.2671 Y0.9869 
G01 X-0.3329 Y0.9869 
G01 X-0.3369 Y0.9829 
G01 X-0.3369 Y0.9171 
G01 X-0.3329 Y0.9131 
G00 Z0.0200 
G00 X-0.2649 Y0.9821 
G01 Z-0.0100 F10.00 
G01 X-0.2649 Y0.9631 
G01 X-0.1829 Y0.9631 
G01 X-0.1829 Y0.9799 
G01 X-0.1799 Y0.9829 
G01 X-0.1201 Y0.9829 
G01 X-0.1171 Y0.9799 
G01 X-0.1171 Y0.9201 
G01 X-0.1201 Y0.9171 
G01 X-0.1799 Y0.9171 
G01 X-0.1829 Y0.9201 
G01 X-0.1829 Y0.9369 
G01 X-0.2649 Y0.9369 
G01 X-0.2649 Y0.9179 
G01 X-0.2679 Y0.9149 
G01 X-0.3321 Y0.9149 
G01 X-0.3351 Y0.9179 
G01 X-0.3351 Y0.9821 
G01 X-0.3321 Y0.9851 
G01 X-0.2679 Y0.9851 
G01 X-0.2649 Y0.9821 
G00 Z0.0200 
G00 X-1.3329 Y1.2131 
G01 Z-0.0100 F10.00 
G01 X-1.2671 Y1.2131 
G01 X-1.2631 Y1.2171 
G01 X-1.2631 Y1.2274 
G01 X-1.2554 Y1.2351 
G01 X-1.2446 Y1.2351 
G01 X-1.1924 Y1.2351 
G01 X-1.1847 Y1.2274 
G01 X-1.1847 Y1.2194 
G01 X-1.1806 Y1.2153 
G01 X-1.1194 Y1.2153 
G01 X-1.1153 Y1.2194 
G01 X-1.1153 Y1.2806 
G01 X-1.1194 Y1.2847 
G01 X-1.1806 Y1.2847 
G01 X-1.1847 Y1.2806 
G01 X-1.1847 Y1.2726 
G01 X-1.1924 Y1.2649 
G01 X-1.2032 Y1.2649 
G01 X-1.2554 Y1.2649 
G01 X-1.2631 Y1.2726 
G01 X-1.2631 Y1.2829 
G01 X-1.2671 Y1.2869 
G01 X-1.3329 Y1.2869 
G01 X-1.3369 Y1.2829 
G01 X-1.3369 Y1.2171 
G01 X-1.3329 Y1.2131 
G00 Z0.0200 
G00 X-1.2649 Y1.2821 
G01 Z-0.0100 F10.00 
G01 X-1.2649 Y1.2631 
G01 X-1.1829 Y1.2631 
G01 X-1.1829 Y1.2799 
G01 X-1.1799 Y1.2829 
G01 X-1.1201 Y1.2829 
G01 X-1.1171 Y1.2799 
G01 X-1.1171 Y1.2201 
G01 X-1.1201 Y1.2171 
G01 X-1.1799 Y1.2171 
G01 X-1.1829 Y1.2201 
G01 X-1.1829 Y1.2369 
G01 X-1.2649 Y1.2369 
G01 X-1.2649 Y1.2179 
G01 X-1.2679 Y1.2149 
G01 X-1.3321 Y1.2149 
G01 X-1.3351 Y1.2179 
G01 X-1.3351 Y1.2821 
G01 X-1.3321 Y1.2851 
G01 X-1.2679 Y1.2851 
G01 X-1.2649 Y1.2821 
G00 Z0.0200 
G00 X-1.6369 Y1.0171 
G01 Z-0.0100 F10.00 
G01 X-1.6329 Y1.0131 
G01 X-1.5671 Y1.0131 
G01 X-1.5631 Y1.0171 
G01 X-1.5631 Y1.0829 
G01 X-1.5671 Y1.0869 
G01 X-1.6329 Y1.0869 
G01 X-1.6369 Y1.0829 
G01 X-1.6369 Y1.0171 
G00 Z0.0200 
G00 X-1.5649 Y1.0821 
G01 Z-0.0100 F10.00 
G01 X-1.5649 Y1.0179 
G01 X-1.5679 Y1.0149 
G01 X-1.6321 Y1.0149 
G01 X-1.6351 Y1.0179 
G01 X-1.6351 Y1.0821 
G01 X-1.6321 Y1.0851 
G01 X-1.5679 Y1.0851 
G01 X-1.5649 Y1.0821 
G00 Z0.0200 
G00 X-1.6329 Y1.1131 
G01 Z-0.0100 F10.00 
G01 X-1.5671 Y1.1131 
G01 X-1.5631 Y1.1171 
G01 X-1.5631 Y1.1829 
G01 X-1.5671 Y1.1869 
G01 X-1.6329 Y1.1869 
G01 X-1.6369 Y1.1829 
G01 X-1.6369 Y1.1171 
G01 X-1.6329 Y1.1131 
G00 Z0.0200 
G00 X-1.5649 Y1.1821 
G01 Z-0.0100 F10.00 
G01 X-1.5649 Y1.1179 
G01 X-1.5679 Y1.1149 
G01 X-1.6321 Y1.1149 
G01 X-1.6351 Y1.1179 
G01 X-1.6351 Y1.1821 
G01 X-1.6321 Y1.1851 
G01 X-1.5679 Y1.1851 
G01 X-1.5649 Y1.1821 
G00 Z0.0200 
G00 X-1.6369 Y0.9829 
G01 Z-0.0100 F10.00 
G01 X-1.6369 Y0.9171 
G01 X-1.6329 Y0.9131 
G01 X-1.5671 Y0.9131 
G01 X-1.5631 Y0.9171 
G01 X-1.5631 Y0.9829 
G01 X-1.5671 Y0.9869 
G01 X-1.6329 Y0.9869 
G01 X-1.6369 Y0.9829 
G00 Z0.0200 
G00 X-1.5649 Y0.9821 
G01 Z-0.0100 F10.00 
G01 X-1.5649 Y0.9179 
G01 X-1.5679 Y0.9149 
G01 X-1.6321 Y0.9149 
G01 X-1.6351 Y0.9179 
G01 X-1.6351 Y0.9821 
G01 X-1.6321 Y0.9851 
G01 X-1.5679 Y0.9851 
G01 X-1.5649 Y0.9821 
G00 Z0.0200 
G00 X-1.6369 Y0.8829 
G01 Z-0.0100 F10.00 
G01 X-1.6369 Y0.8171 
G01 X-1.6329 Y0.8131 
G01 X-1.5671 Y0.8131 
G01 X-1.5631 Y0.8171 
G01 X-1.5631 Y0.8829 
G01 X-1.5671 Y0.8869 
G01 X-1.6329 Y0.8869 
G01 X-1.6369 Y0.8829 
G00 Z0.0200 
G00 X-1.5649 Y0.8821 
G01 Z-0.0100 F10.00 
G01 X-1.5649 Y0.8179 
G01 X-1.5679 Y0.8149 
G01 X-1.6321 Y0.8149 
G01 X-1.6351 Y0.8179 
G01 X-1.6351 Y0.8821 
G01 X-1.6321 Y0.8851 
G01 X-1.5679 Y0.8851 
G01 X-1.5649 Y0.8821 
G00 Z0.0200 
G00 X-1.6329 Y1.2131 
G01 Z-0.0100 F10.00 
G01 X-1.5671 Y1.2131 
G01 X-1.5631 Y1.2171 
G01 X-1.5631 Y1.2829 
G01 X-1.5671 Y1.2869 
G01 X-1.6329 Y1.2869 
G01 X-1.6369 Y1.2829 
G01 X-1.6369 Y1.2171 
G01 X-1.6329 Y1.2131 
G00 Z0.0200 
G00 X-1.5649 Y1.2821 
G01 Z-0.0100 F10.00 
G01 X-1.5649 Y1.2179 
G01 X-1.5679 Y1.2149 
G01 X-1.6321 Y1.2149 
G01 X-1.6351 Y1.2179 
G01 X-1.6351 Y1.2821 
G01 X-1.6321 Y1.2851 
G01 X-1.5679 Y1.2851 
G01 X-1.5649 Y1.2821 
G00 Z0.0200 
G00 X-1.6369 Y0.7829 
G01 Z-0.0100 F10.00 
G01 X-1.6369 Y0.7726 
G01 X-1.6446 Y0.7649 
G01 X-1.6554 Y0.7649 
G01 X-1.9076 Y0.7649 
G01 X-1.9153 Y0.7726 
G01 X-1.9153 Y0.7806 
G01 X-1.9194 Y0.7847 
G01 X-1.9806 Y0.7847 
G01 X-1.9847 Y0.7806 
G01 X-1.9847 Y0.7194 
G01 X-1.9806 Y0.7153 
G01 X-1.9194 Y0.7153 
G01 X-1.9153 Y0.7194 
G01 X-1.9153 Y0.7274 
G01 X-1.9076 Y0.7351 
G01 X-1.8968 Y0.7351 
G01 X-1.6446 Y0.7351 
G01 X-1.6369 Y0.7274 
G01 X-1.6369 Y0.7171 
G01 X-1.6329 Y0.7131 
G01 X-1.5671 Y0.7131 
G01 X-1.5631 Y0.7171 
G01 X-1.5631 Y0.7829 
G01 X-1.5671 Y0.7869 
G01 X-1.6329 Y0.7869 
G01 X-1.6369 Y0.7829 
G00 Z0.0200 
G00 X-1.5649 Y0.7821 
G01 Z-0.0100 F10.00 
G01 X-1.5649 Y0.7179 
G01 X-1.5679 Y0.7149 
G01 X-1.6321 Y0.7149 
G01 X-1.6351 Y0.7179 
G01 X-1.6351 Y0.7369 
G01 X-1.9171 Y0.7369 
G01 X-1.9171 Y0.7201 
G01 X-1.9201 Y0.7171 
G01 X-1.9799 Y0.7171 
G01 X-1.9829 Y0.7201 
G01 X-1.9829 Y0.7799 
G01 X-1.9799 Y0.7829 
G01 X-1.9201 Y0.7829 
G01 X-1.9171 Y0.7799 
G01 X-1.9171 Y0.7631 
G01 X-1.6351 Y0.7631 
G01 X-1.6351 Y0.7821 
G01 X-1.6321 Y0.7851 
G01 X-1.5679 Y0.7851 
G01 X-1.5649 Y0.7821 
G00 Z0.0200 
G00 X-2.3329 Y0.7131 
G01 Z-0.0100 F10.00 
G01 X-2.2671 Y0.7131 
G01 X-2.2631 Y0.7171 
G01 X-2.2631 Y0.7274 
G01 X-2.2554 Y0.7351 
G01 X-2.2446 Y0.7351 
G01 X-2.1924 Y0.7351 
G01 X-2.1847 Y0.7274 
G01 X-2.1847 Y0.7194 
G01 X-2.1806 Y0.7153 
G01 X-2.1194 Y0.7153 
G01 X-2.1153 Y0.7194 
G01 X-2.1153 Y0.7806 
G01 X-2.1194 Y0.7847 
G01 X-2.1806 Y0.7847 
G01 X-2.1847 Y0.7806 
G01 X-2.1847 Y0.7726 
G01 X-2.1924 Y0.7649 
G01 X-2.2032 Y0.7649 
G01 X-2.2554 Y0.7649 
G01 X-2.2631 Y0.7726 
G01 X-2.2631 Y0.7829 
G01 X-2.2671 Y0.7869 
G01 X-2.3329 Y0.7869 
G01 X-2.3369 Y0.7829 
G01 X-2.3369 Y0.7171 
G01 X-2.3329 Y0.7131 
G00 Z0.0200 
G00 X-2.2649 Y0.7821 
G01 Z-0.0100 F10.00 
G01 X-2.2649 Y0.7631 
G01 X-2.1829 Y0.7631 
G01 X-2.1829 Y0.7799 
G01 X-2.1799 Y0.7829 
G01 X-2.1201 Y0.7829 
G01 X-2.1171 Y0.7799 
G01 X-2.1171 Y0.7201 
G01 X-2.1201 Y0.7171 
G01 X-2.1799 Y0.7171 
G01 X-2.1829 Y0.7201 
G01 X-2.1829 Y0.7369 
G01 X-2.2649 Y0.7369 
G01 X-2.2649 Y0.7179 
G01 X-2.2679 Y0.7149 
G01 X-2.3321 Y0.7149 
G01 X-2.3351 Y0.7179 
G01 X-2.3351 Y0.7821 
G01 X-2.3321 Y0.7851 
G01 X-2.2679 Y0.7851 
G01 X-2.2649 Y0.7821 
G00 Z0.0200 
G00 X-2.3329 Y0.9131 
G01 Z-0.0100 F10.00 
G01 X-2.2671 Y0.9131 
G01 X-2.2631 Y0.9171 
G01 X-2.2631 Y0.9274 
G01 X-2.2554 Y0.9351 
G01 X-2.2446 Y0.9351 
G01 X-2.1924 Y0.9351 
G01 X-2.1847 Y0.9274 
G01 X-2.1847 Y0.9194 
G01 X-2.1806 Y0.9153 
G01 X-2.1194 Y0.9153 
G01 X-2.1153 Y0.9194 
G01 X-2.1153 Y0.9806 
G01 X-2.1194 Y0.9847 
G01 X-2.1806 Y0.9847 
G01 X-2.1847 Y0.9806 
G01 X-2.1847 Y0.9726 
G01 X-2.1924 Y0.9649 
G01 X-2.2032 Y0.9649 
G01 X-2.2554 Y0.9649 
G01 X-2.2631 Y0.9726 
G01 X-2.2631 Y0.9829 
G01 X-2.2671 Y0.9869 
G01 X-2.3329 Y0.9869 
G01 X-2.3369 Y0.9829 
G01 X-2.3369 Y0.9171 
G01 X-2.3329 Y0.9131 
G00 Z0.0200 
G00 X-2.2649 Y0.9821 
G01 Z-0.0100 F10.00 
G01 X-2.2649 Y0.9631 
G01 X-2.1829 Y0.9631 
G01 X-2.1829 Y0.9799 
G01 X-2.1799 Y0.9829 
G01 X-2.1201 Y0.9829 
G01 X-2.1171 Y0.9799 
G01 X-2.1171 Y0.9201 
G01 X-2.1201 Y0.9171 
G01 X-2.1799 Y0.9171 
G01 X-2.1829 Y0.9201 
G01 X-2.1829 Y0.9369 
G01 X-2.2649 Y0.9369 
G01 X-2.2649 Y0.9179 
G01 X-2.2679 Y0.9149 
G01 X-2.3321 Y0.9149 
G01 X-2.3351 Y0.9179 
G01 X-2.3351 Y0.9821 
G01 X-2.3321 Y0.9851 
G01 X-2.2679 Y0.9851 
G01 X-2.2649 Y0.9821 
G00 Z0.0200 
G00 X-3.3329 Y1.2131 
G01 Z-0.0100 F10.00 
G01 X-3.2671 Y1.2131 
G01 X-3.2631 Y1.2171 
G01 X-3.2631 Y1.2274 
G01 X-3.2554 Y1.2351 
G01 X-3.2446 Y1.2351 
G01 X-3.1924 Y1.2351 
G01 X-3.1847 Y1.2274 
G01 X-3.1847 Y1.2194 
G01 X-3.1806 Y1.2153 
G01 X-3.1194 Y1.2153 
G01 X-3.1153 Y1.2194 
G01 X-3.1153 Y1.2806 
G01 X-3.1194 Y1.2847 
G01 X-3.1806 Y1.2847 
G01 X-3.1847 Y1.2806 
G01 X-3.1847 Y1.2726 
G01 X-3.1924 Y1.2649 
G01 X-3.2032 Y1.2649 
G01 X-3.2554 Y1.2649 
G01 X-3.2631 Y1.2726 
G01 X-3.2631 Y1.2829 
G01 X-3.2671 Y1.2869 
G01 X-3.3329 Y1.2869 
G01 X-3.3369 Y1.2829 
G01 X-3.3369 Y1.2171 
G01 X-3.3329 Y1.2131 
G00 Z0.0200 
G00 X-3.1829 Y1.2201 
G01 Z-0.0100 F10.00 
G01 X-3.1829 Y1.2369 
G01 X-3.2649 Y1.2369 
G01 X-3.2649 Y1.2179 
G01 X-3.2679 Y1.2149 
G01 X-3.3321 Y1.2149 
G01 X-3.3351 Y1.2179 
G01 X-3.3351 Y1.2821 
G01 X-3.3321 Y1.2851 
G01 X-3.2679 Y1.2851 
G01 X-3.2649 Y1.2821 
G01 X-3.2649 Y1.2631 
G01 X-3.1829 Y1.2631 
G01 X-3.1829 Y1.2799 
G01 X-3.1799 Y1.2829 
G01 X-3.1201 Y1.2829 
G01 X-3.1171 Y1.2799 
G01 X-3.1171 Y1.2201 
G01 X-3.1201 Y1.2171 
G01 X-3.1799 Y1.2171 
G01 X-3.1829 Y1.2201 
G00 Z0.0200 
G00 X-3.6369 Y1.0171 
G01 Z-0.0100 F10.00 
G01 X-3.6329 Y1.0131 
G01 X-3.5671 Y1.0131 
G01 X-3.5631 Y1.0171 
G01 X-3.5631 Y1.0829 
G01 X-3.5671 Y1.0869 
G01 X-3.6329 Y1.0869 
G01 X-3.6369 Y1.0829 
G01 X-3.6369 Y1.0171 
G00 Z0.0200 
G00 X-3.5649 Y1.0821 
G01 Z-0.0100 F10.00 
G01 X-3.5649 Y1.0179 
G01 X-3.5679 Y1.0149 
G01 X-3.6321 Y1.0149 
G01 X-3.6351 Y1.0179 
G01 X-3.6351 Y1.0821 
G01 X-3.6321 Y1.0851 
G01 X-3.5679 Y1.0851 
G01 X-3.5649 Y1.0821 
G00 Z0.0200 
G00 X-3.6329 Y1.1131 
G01 Z-0.0100 F10.00 
G01 X-3.5671 Y1.1131 
G01 X-3.5631 Y1.1171 
G01 X-3.5631 Y1.1829 
G01 X-3.5671 Y1.1869 
G01 X-3.6329 Y1.1869 
G01 X-3.6369 Y1.1829 
G01 X-3.6369 Y1.1171 
G01 X-3.6329 Y1.1131 
G00 Z0.0200 
G00 X-3.5649 Y1.1821 
G01 Z-0.0100 F10.00 
G01 X-3.5649 Y1.1179 
G01 X-3.5679 Y1.1149 
G01 X-3.6321 Y1.1149 
G01 X-3.6351 Y1.1179 
G01 X-3.6351 Y1.1821 
G01 X-3.6321 Y1.1851 
G01 X-3.5679 Y1.1851 
G01 X-3.5649 Y1.1821 
G00 Z0.0200 
G00 X-3.6369 Y0.9829 
G01 Z-0.0100 F10.00 
G01 X-3.6369 Y0.9171 
G01 X-3.6329 Y0.9131 
G01 X-3.5671 Y0.9131 
G01 X-3.5631 Y0.9171 
G01 X-3.5631 Y0.9829 
G01 X-3.5671 Y0.9869 
G01 X-3.6329 Y0.9869 
G01 X-3.6369 Y0.9829 
G00 Z0.0200 
G00 X-3.5649 Y0.9821 
G01 Z-0.0100 F10.00 
G01 X-3.5649 Y0.9179 
G01 X-3.5679 Y0.9149 
G01 X-3.6321 Y0.9149 
G01 X-3.6351 Y0.9179 
G01 X-3.6351 Y0.9821 
G01 X-3.6321 Y0.9851 
G01 X-3.5679 Y0.9851 
G01 X-3.5649 Y0.9821 
G00 Z0.0200 
G00 X-3.6369 Y0.8829 
G01 Z-0.0100 F10.00 
G01 X-3.6369 Y0.8171 
G01 X-3.6329 Y0.8131 
G01 X-3.5671 Y0.8131 
G01 X-3.5631 Y0.8171 
G01 X-3.5631 Y0.8829 
G01 X-3.5671 Y0.8869 
G01 X-3.6329 Y0.8869 
G01 X-3.6369 Y0.8829 
G00 Z0.0200 
G00 X-3.5649 Y0.8821 
G01 Z-0.0100 F10.00 
G01 X-3.5649 Y0.8179 
G01 X-3.5679 Y0.8149 
G01 X-3.6321 Y0.8149 
G01 X-3.6351 Y0.8179 
G01 X-3.6351 Y0.8821 
G01 X-3.6321 Y0.8851 
G01 X-3.5679 Y0.8851 
G01 X-3.5649 Y0.8821 
G00 Z0.0200 
G00 X-3.6329 Y1.2131 
G01 Z-0.0100 F10.00 
G01 X-3.5671 Y1.2131 
G01 X-3.5631 Y1.2171 
G01 X-3.5631 Y1.2829 
G01 X-3.5671 Y1.2869 
G01 X-3.6329 Y1.2869 
G01 X-3.6369 Y1.2829 
G01 X-3.6369 Y1.2171 
G01 X-3.6329 Y1.2131 
G00 Z0.0200 
G00 X-3.5649 Y1.2821 
G01 Z-0.0100 F10.00 
G01 X-3.5649 Y1.2179 
G01 X-3.5679 Y1.2149 
G01 X-3.6321 Y1.2149 
G01 X-3.6351 Y1.2179 
G01 X-3.6351 Y1.2821 
G01 X-3.6321 Y1.2851 
G01 X-3.5679 Y1.2851 
G01 X-3.5649 Y1.2821 
G00 Z0.0200 
G00 X-3.6369 Y0.7829 
G01 Z-0.0100 F10.00 
G01 X-3.6369 Y0.7726 
G01 X-3.6446 Y0.7649 
G01 X-3.6554 Y0.7649 
G01 X-3.9076 Y0.7649 
G01 X-3.9153 Y0.7726 
G01 X-3.9153 Y0.7806 
G01 X-3.9194 Y0.7847 
G01 X-3.9806 Y0.7847 
G01 X-3.9847 Y0.7806 
G01 X-3.9847 Y0.7194 
G01 X-3.9806 Y0.7153 
G01 X-3.9194 Y0.7153 
G01 X-3.9153 Y0.7194 
G01 X-3.9153 Y0.7274 
G01 X-3.9076 Y0.7351 
G01 X-3.8968 Y0.7351 
G01 X-3.6446 Y0.7351 
G01 X-3.6369 Y0.7274 
G01 X-3.6369 Y0.7171 
G01 X-3.6329 Y0.7131 
G01 X-3.5671 Y0.7131 
G01 X-3.5631 Y0.7171 
G01 X-3.5631 Y0.7829 
G01 X-3.5671 Y0.7869 
G01 X-3.6329 Y0.7869 
G01 X-3.6369 Y0.7829 
G00 Z0.0200 
G00 X-3.9829 Y0.7201 
G01 Z-0.0100 F10.00 
G01 X-3.9829 Y0.7799 
G01 X-3.9799 Y0.7829 
G01 X-3.9201 Y0.7829 
G01 X-3.9171 Y0.7799 
G01 X-3.9171 Y0.7631 
G01 X-3.6351 Y0.7631 
G01 X-3.6351 Y0.7821 
G01 X-3.6321 Y0.7851 
G01 X-3.5679 Y0.7851 
G01 X-3.5649 Y0.7821 
G01 X-3.5649 Y0.7179 
G01 X-3.5679 Y0.7149 
G01 X-3.6321 Y0.7149 
G01 X-3.6351 Y0.7179 
G01 X-3.6351 Y0.7369 
G01 X-3.9171 Y0.7369 
G01 X-3.9171 Y0.7201 
G01 X-3.9201 Y0.7171 
G01 X-3.9799 Y0.7171 
G01 X-3.9829 Y0.7201 
G00 Z0.0200 
G00 X-2.1153 Y0.8194 
G01 Z-0.0100 F10.00 
G01 X-2.1153 Y0.8806 
G01 X-2.1194 Y0.8847 
G01 X-2.1806 Y0.8847 
G01 X-2.1847 Y0.8806 
G01 X-2.1847 Y0.8726 
G01 X-2.1924 Y0.8649 
G01 X-2.2032 Y0.8649 
G01 X-2.2554 Y0.8649 
G01 X-2.2631 Y0.8726 
G01 X-2.2631 Y0.8829 
G01 X-2.2671 Y0.8869 
G01 X-2.3329 Y0.8869 
G01 X-2.3369 Y0.8829 
G01 X-2.3369 Y0.8171 
G01 X-2.3329 Y0.8131 
G01 X-2.2671 Y0.8131 
G01 X-2.2631 Y0.8171 
G01 X-2.2631 Y0.8274 
G01 X-2.2554 Y0.8351 
G01 X-2.2446 Y0.8351 
G01 X-2.1924 Y0.8351 
G01 X-2.1847 Y0.8274 
G01 X-2.1847 Y0.8194 
G01 X-2.1806 Y0.8153 
G01 X-2.1194 Y0.8153 
G01 X-2.1153 Y0.8194 
G00 Z0.0200 
G00 X-2.1829 Y0.8201 
G01 Z-0.0100 F10.00 
G01 X-2.1829 Y0.8369 
G01 X-2.2649 Y0.8369 
G01 X-2.2649 Y0.8179 
G01 X-2.2679 Y0.8149 
G01 X-2.3321 Y0.8149 
G01 X-2.3351 Y0.8179 
G01 X-2.3351 Y0.8821 
G01 X-2.3321 Y0.8851 
G01 X-2.2679 Y0.8851 
G01 X-2.2649 Y0.8821 
G01 X-2.2649 Y0.8631 
G01 X-2.1829 Y0.8631 
G01 X-2.1829 Y0.8799 
G01 X-2.1799 Y0.8829 
G01 X-2.1201 Y0.8829 
G01 X-2.1171 Y0.8799 
G01 X-2.1171 Y0.8201 
G01 X-2.1201 Y0.8171 
G01 X-2.1799 Y0.8171 
G01 X-2.1829 Y0.8201 
G00 Z0.0200 
G00 X-1.9153 Y0.6194 
G01 Z-0.0100 F10.00 
G01 X-1.9153 Y0.6274 
G01 X-1.9076 Y0.6351 
G01 X-1.6446 Y0.6351 
G01 X-1.6369 Y0.6274 
G01 X-1.6369 Y0.6171 
G01 X-1.6329 Y0.6131 
G01 X-1.5671 Y0.6131 
G01 X-1.5631 Y0.6171 
G01 X-1.5631 Y0.6829 
G01 X-1.5671 Y0.6869 
G01 X-1.6329 Y0.6869 
G01 X-1.6369 Y0.6829 
G01 X-1.6369 Y0.6726 
G01 X-1.6446 Y0.6649 
G01 X-1.6554 Y0.6649 
G01 X-1.9076 Y0.6649 
G01 X-1.9153 Y0.6726 
G01 X-1.9153 Y0.6806 
G01 X-1.9194 Y0.6847 
G01 X-1.9806 Y0.6847 
G01 X-1.9847 Y0.6806 
G01 X-1.9847 Y0.6194 
G01 X-1.9806 Y0.6153 
G01 X-1.9194 Y0.6153 
G01 X-1.9153 Y0.6194 
G00 Z0.0200 
G00 X-1.9829 Y0.6201 
G01 Z-0.0100 F10.00 
G01 X-1.9829 Y0.6799 
G01 X-1.9799 Y0.6829 
G01 X-1.9201 Y0.6829 
G01 X-1.9171 Y0.6799 
G01 X-1.9171 Y0.6631 
G01 X-1.6351 Y0.6631 
G01 X-1.6351 Y0.6821 
G01 X-1.6321 Y0.6851 
G01 X-1.5679 Y0.6851 
G01 X-1.5649 Y0.6821 
G01 X-1.5649 Y0.6179 
G01 X-1.5679 Y0.6149 
G01 X-1.6321 Y0.6149 
G01 X-1.6351 Y0.6179 
G01 X-1.6351 Y0.6369 
G01 X-1.9171 Y0.6369 
G01 X-1.9171 Y0.6201 
G01 X-1.9201 Y0.6171 
G01 X-1.9799 Y0.6171 
G01 X-1.9829 Y0.6201 
G00 Z0.0200 
G00 X-0.1153 Y0.8194 
G01 Z-0.0100 F10.00 
G01 X-0.1153 Y0.8806 
G01 X-0.1194 Y0.8847 
G01 X-0.1806 Y0.8847 
G01 X-0.1847 Y0.8806 
G01 X-0.1847 Y0.8726 
G01 X-0.1924 Y0.8649 
G01 X-0.2032 Y0.8649 
G01 X-0.2554 Y0.8649 
G01 X-0.2631 Y0.8726 
G01 X-0.2631 Y0.8829 
G01 X-0.2671 Y0.8869 
G01 X-0.3329 Y0.8869 
G01 X-0.3369 Y0.8829 
G01 X-0.3369 Y0.8171 
G01 X-0.3329 Y0.8131 
G01 X-0.2671 Y0.8131 
G01 X-0.2631 Y0.8171 
G01 X-0.2631 Y0.8274 
G01 X-0.2554 Y0.8351 
G01 X-0.2446 Y0.8351 
G01 X-0.1924 Y0.8351 
G01 X-0.1847 Y0.8274 
G01 X-0.1847 Y0.8194 
G01 X-0.1806 Y0.8153 
G01 X-0.1194 Y0.8153 
G01 X-0.1153 Y0.8194 
G00 Z0.0200 
G00 X-0.1829 Y0.8201 
G01 Z-0.0100 F10.00 
G01 X-0.1829 Y0.8369 
G01 X-0.2649 Y0.8369 
G01 X-0.2649 Y0.8179 
G01 X-0.2679 Y0.8149 
G01 X-0.3321 Y0.8149 
G01 X-0.3351 Y0.8179 
G01 X-0.3351 Y0.8821 
G01 X-0.3321 Y0.8851 
G01 X-0.2679 Y0.8851 
G01 X-0.2649 Y0.8821 
G01 X-0.2649 Y0.8631 
G01 X-0.1829 Y0.8631 
G01 X-0.1829 Y0.8799 
G01 X-0.1799 Y0.8829 
G01 X-0.1201 Y0.8829 
G01 X-0.1171 Y0.8799 
G01 X-0.1171 Y0.8201 
G01 X-0.1201 Y0.8171 
G01 X-0.1799 Y0.8171 
G01 X-0.1829 Y0.8201 
G00 Z0.0200 
G00 X-3.3369 Y0.9829 
G01 Z-0.0100 F10.00 
G01 X-3.3369 Y0.9171 
G01 X-3.3329 Y0.9131 
G01 X-3.2671 Y0.9131 
G01 X-3.2631 Y0.9171 
G01 X-3.2631 Y0.9274 
G01 X-3.2554 Y0.9351 
G01 X-3.2446 Y0.9351 
G01 X-3.1924 Y0.9351 
G01 X-3.1847 Y0.9274 
G01 X-3.1847 Y0.9194 
G01 X-3.1806 Y0.9153 
G01 X-3.1194 Y0.9153 
G01 X-3.1153 Y0.9194 
G01 X-3.1153 Y0.9806 
G01 X-3.1194 Y0.9847 
G01 X-3.1806 Y0.9847 
G01 X-3.1847 Y0.9806 
G01 X-3.1847 Y0.9726 
G01 X-3.1924 Y0.9649 
G01 X-3.2032 Y0.9649 
G01 X-3.2554 Y0.9649 
G01 X-3.2631 Y0.9726 
G01 X-3.2631 Y0.9829 
G01 X-3.2671 Y0.9869 
G01 X-3.3329 Y0.9869 
G01 X-3.3369 Y0.9829 
G00 Z0.0200 
G00 X-3.2649 Y0.9821 
G01 Z-0.0100 F10.00 
G01 X-3.2649 Y0.9631 
G01 X-3.1829 Y0.9631 
G01 X-3.1829 Y0.9799 
G01 X-3.1799 Y0.9829 
G01 X-3.1201 Y0.9829 
G01 X-3.1171 Y0.9799 
G01 X-3.1171 Y0.9201 
G01 X-3.1201 Y0.9171 
G01 X-3.1799 Y0.9171 
G01 X-3.1829 Y0.9201 
G01 X-3.1829 Y0.9369 
G01 X-3.2649 Y0.9369 
G01 X-3.2649 Y0.9179 
G01 X-3.2679 Y0.9149 
G01 X-3.3321 Y0.9149 
G01 X-3.3351 Y0.9179 
G01 X-3.3351 Y0.9821 
G01 X-3.3321 Y0.9851 
G01 X-3.2679 Y0.9851 
G01 X-3.2649 Y0.9821 
G00 Z0.0200 
G00 X-3.1194 Y1.0847 
G01 Z-0.0100 F10.00 
G01 X-3.1806 Y1.0847 
G01 X-3.1847 Y1.0806 
G01 X-3.1847 Y1.0194 
G01 X-3.1806 Y1.0153 
G01 X-3.1194 Y1.0153 
G01 X-3.1153 Y1.0194 
G01 X-3.1153 Y1.0806 
G01 X-3.1194 Y1.0847 
G00 Z0.0200 
G00 X-3.1829 Y1.0201 
G01 Z-0.0100 F10.00 
G01 X-3.1829 Y1.0799 
G01 X-3.1799 Y1.0829 
G01 X-3.1201 Y1.0829 
G01 X-3.1171 Y1.0799 
G01 X-3.1171 Y1.0201 
G01 X-3.1201 Y1.0171 
G01 X-3.1799 Y1.0171 
G01 X-3.1829 Y1.0201 
G00 Z0.0200 
G00 X-2.6369 Y1.0829 
G01 Z-0.0100 F10.00 
G01 X-2.6369 Y1.0171 
G01 X-2.6329 Y1.0131 
G01 X-2.5671 Y1.0131 
G01 X-2.5631 Y1.0171 
G01 X-2.5631 Y1.0829 
G01 X-2.5671 Y1.0869 
G01 X-2.6329 Y1.0869 
G01 X-2.6369 Y1.0829 
G00 Z0.0200 
G00 X-2.5649 Y1.0821 
G01 Z-0.0100 F10.00 
G01 X-2.5649 Y1.0179 
G01 X-2.5679 Y1.0149 
G01 X-2.6321 Y1.0149 
G01 X-2.6351 Y1.0179 
G01 X-2.6351 Y1.0821 
G01 X-2.6321 Y1.0851 
G01 X-2.5679 Y1.0851 
G01 X-2.5649 Y1.0821 
G00 Z0.0200 
G00 X-2.6369 Y1.1829 
G01 Z-0.0100 F10.00 
G01 X-2.6369 Y1.1171 
G01 X-2.6329 Y1.1131 
G01 X-2.5671 Y1.1131 
G01 X-2.5631 Y1.1171 
G01 X-2.5631 Y1.1829 
G01 X-2.5671 Y1.1869 
G01 X-2.6329 Y1.1869 
G01 X-2.6369 Y1.1829 
G00 Z0.0200 
G00 X-2.5649 Y1.1821 
G01 Z-0.0100 F10.00 
G01 X-2.5649 Y1.1179 
G01 X-2.5679 Y1.1149 
G01 X-2.6321 Y1.1149 
G01 X-2.6351 Y1.1179 
G01 X-2.6351 Y1.1821 
G01 X-2.6321 Y1.1851 
G01 X-2.5679 Y1.1851 
G01 X-2.5649 Y1.1821 
G00 Z0.0200 
G00 X-2.6329 Y0.9131 
G01 Z-0.0100 F10.00 
G01 X-2.5671 Y0.9131 
G01 X-2.5631 Y0.9171 
G01 X-2.5631 Y0.9829 
G01 X-2.5671 Y0.9869 
G01 X-2.6329 Y0.9869 
G01 X-2.6369 Y0.9829 
G01 X-2.6369 Y0.9171 
G01 X-2.6329 Y0.9131 
G00 Z0.0200 
G00 X-2.5649 Y0.9821 
G01 Z-0.0100 F10.00 
G01 X-2.5649 Y0.9179 
G01 X-2.5679 Y0.9149 
G01 X-2.6321 Y0.9149 
G01 X-2.6351 Y0.9179 
G01 X-2.6351 Y0.9821 
G01 X-2.6321 Y0.9851 
G01 X-2.5679 Y0.9851 
G01 X-2.5649 Y0.9821 
G00 Z0.0200 
G00 X-2.6329 Y0.8131 
G01 Z-0.0100 F10.00 
G01 X-2.5671 Y0.8131 
G01 X-2.5631 Y0.8171 
G01 X-2.5631 Y0.8829 
G01 X-2.5671 Y0.8869 
G01 X-2.6329 Y0.8869 
G01 X-2.6369 Y0.8829 
G01 X-2.6369 Y0.8171 
G01 X-2.6329 Y0.8131 
G00 Z0.0200 
G00 X-2.5649 Y0.8821 
G01 Z-0.0100 F10.00 
G01 X-2.5649 Y0.8179 
G01 X-2.5679 Y0.8149 
G01 X-2.6321 Y0.8149 
G01 X-2.6351 Y0.8179 
G01 X-2.6351 Y0.8821 
G01 X-2.6321 Y0.8851 
G01 X-2.5679 Y0.8851 
G01 X-2.5649 Y0.8821 
G00 Z0.0200 
G00 X-1.3369 Y0.7829 
G01 Z-0.0100 F10.00 
G01 X-1.3369 Y0.7171 
G01 X-1.3329 Y0.7131 
G01 X-1.2671 Y0.7131 
G01 X-1.2631 Y0.7171 
G01 X-1.2631 Y0.7274 
G01 X-1.2554 Y0.7351 
G01 X-1.2446 Y0.7351 
G01 X-1.1924 Y0.7351 
G01 X-1.1847 Y0.7274 
G01 X-1.1847 Y0.7194 
G01 X-1.1806 Y0.7153 
G01 X-1.1194 Y0.7153 
G01 X-1.1153 Y0.7194 
G01 X-1.1153 Y0.7806 
G01 X-1.1194 Y0.7847 
G01 X-1.1806 Y0.7847 
G01 X-1.1847 Y0.7806 
G01 X-1.1847 Y0.7726 
G01 X-1.1924 Y0.7649 
G01 X-1.2032 Y0.7649 
G01 X-1.2554 Y0.7649 
G01 X-1.2631 Y0.7726 
G01 X-1.2631 Y0.7829 
G01 X-1.2671 Y0.7869 
G01 X-1.3329 Y0.7869 
G01 X-1.3369 Y0.7829 
G00 Z0.0200 
G00 X-1.1829 Y0.7201 
G01 Z-0.0100 F10.00 
G01 X-1.1829 Y0.7369 
G01 X-1.2649 Y0.7369 
G01 X-1.2649 Y0.7179 
G01 X-1.2679 Y0.7149 
G01 X-1.3321 Y0.7149 
G01 X-1.3351 Y0.7179 
G01 X-1.3351 Y0.7821 
G01 X-1.3321 Y0.7851 
G01 X-1.2679 Y0.7851 
G01 X-1.2649 Y0.7821 
G01 X-1.2649 Y0.7631 
G01 X-1.1829 Y0.7631 
G01 X-1.1829 Y0.7799 
G01 X-1.1799 Y0.7829 
G01 X-1.1201 Y0.7829 
G01 X-1.1171 Y0.7799 
G01 X-1.1171 Y0.7201 
G01 X-1.1201 Y0.7171 
G01 X-1.1799 Y0.7171 
G01 X-1.1829 Y0.7201 
G00 Z0.0200 
G00 X-0.6369 Y1.0829 
G01 Z-0.0100 F10.00 
G01 X-0.6369 Y1.0171 
G01 X-0.6329 Y1.0131 
G01 X-0.5671 Y1.0131 
G01 X-0.5631 Y1.0171 
G01 X-0.5631 Y1.0829 
G01 X-0.5671 Y1.0869 
G01 X-0.6329 Y1.0869 
G01 X-0.6369 Y1.0829 
G00 Z0.0200 
G00 X-0.5649 Y1.0821 
G01 Z-0.0100 F10.00 
G01 X-0.5649 Y1.0179 
G01 X-0.5679 Y1.0149 
G01 X-0.6321 Y1.0149 
G01 X-0.6351 Y1.0179 
G01 X-0.6351 Y1.0821 
G01 X-0.6321 Y1.0851 
G01 X-0.5679 Y1.0851 
G01 X-0.5649 Y1.0821 
G00 Z0.0200 
G00 X-0.6369 Y1.1829 
G01 Z-0.0100 F10.00 
G01 X-0.6369 Y1.1171 
G01 X-0.6329 Y1.1131 
G01 X-0.5671 Y1.1131 
G01 X-0.5631 Y1.1171 
G01 X-0.5631 Y1.1829 
G01 X-0.5671 Y1.1869 
G01 X-0.6329 Y1.1869 
G01 X-0.6369 Y1.1829 
G00 Z0.0200 
G00 X-0.5649 Y1.1821 
G01 Z-0.0100 F10.00 
G01 X-0.5649 Y1.1179 
G01 X-0.5679 Y1.1149 
G01 X-0.6321 Y1.1149 
G01 X-0.6351 Y1.1179 
G01 X-0.6351 Y1.1821 
G01 X-0.6321 Y1.1851 
G01 X-0.5679 Y1.1851 
G01 X-0.5649 Y1.1821 
G00 Z0.0200 
G00 X-0.6329 Y0.9131 
G01 Z-0.0100 F10.00 
G01 X-0.5671 Y0.9131 
G01 X-0.5631 Y0.9171 
G01 X-0.5631 Y0.9829 
G01 X-0.5671 Y0.9869 
G01 X-0.6329 Y0.9869 
G01 X-0.6369 Y0.9829 
G01 X-0.6369 Y0.9171 
G01 X-0.6329 Y0.9131 
G00 Z0.0200 
G00 X-0.5649 Y0.9821 
G01 Z-0.0100 F10.00 
G01 X-0.5649 Y0.9179 
G01 X-0.5679 Y0.9149 
G01 X-0.6321 Y0.9149 
G01 X-0.6351 Y0.9179 
G01 X-0.6351 Y0.9821 
G01 X-0.6321 Y0.9851 
G01 X-0.5679 Y0.9851 
G01 X-0.5649 Y0.9821 
G00 Z0.0200 
G00 X-0.6329 Y0.8131 
G01 Z-0.0100 F10.00 
G01 X-0.5671 Y0.8131 
G01 X-0.5631 Y0.8171 
G01 X-0.5631 Y0.8829 
G01 X-0.5671 Y0.8869 
G01 X-0.6329 Y0.8869 
G01 X-0.6369 Y0.8829 
G01 X-0.6369 Y0.8171 
G01 X-0.6329 Y0.8131 
G00 Z0.0200 
G00 X-0.5649 Y0.8821 
G01 Z-0.0100 F10.00 
G01 X-0.5649 Y0.8179 
G01 X-0.5679 Y0.8149 
G01 X-0.6321 Y0.8149 
G01 X-0.6351 Y0.8179 
G01 X-0.6351 Y0.8821 
G01 X-0.6321 Y0.8851 
G01 X-0.5679 Y0.8851 
G01 X-0.5649 Y0.8821 
G00 Z0.0200 
G00 X-0.9194 Y0.7847 
G01 Z-0.0100 F10.00 
G01 X-0.9806 Y0.7847 
G01 X-0.9847 Y0.7806 
G01 X-0.9847 Y0.7194 
G01 X-0.9806 Y0.7153 
G01 X-0.9194 Y0.7153 
G01 X-0.9153 Y0.7194 
G01 X-0.9153 Y0.7274 
G01 X-0.9076 Y0.7351 
G01 X-0.8968 Y0.7351 
G01 X-0.6446 Y0.7351 
G01 X-0.6369 Y0.7274 
G01 X-0.6369 Y0.7171 
G01 X-0.6329 Y0.7131 
G01 X-0.5671 Y0.7131 
G01 X-0.5631 Y0.7171 
G01 X-0.5631 Y0.7829 
G01 X-0.5671 Y0.7869 
G01 X-0.6329 Y0.7869 
G01 X-0.6369 Y0.7829 
G01 X-0.6369 Y0.7726 
G01 X-0.6446 Y0.7649 
G01 X-0.6554 Y0.7649 
G01 X-0.9076 Y0.7649 
G01 X-0.9153 Y0.7726 
G01 X-0.9153 Y0.7806 
G01 X-0.9194 Y0.7847 
G00 Z0.0200 
G00 X-0.9829 Y0.7201 
G01 Z-0.0100 F10.00 
G01 X-0.9829 Y0.7799 
G01 X-0.9799 Y0.7829 
G01 X-0.9201 Y0.7829 
G01 X-0.9171 Y0.7799 
G01 X-0.9171 Y0.7631 
G01 X-0.6351 Y0.7631 
G01 X-0.6351 Y0.7821 
G01 X-0.6321 Y0.7851 
G01 X-0.5679 Y0.7851 
G01 X-0.5649 Y0.7821 
G01 X-0.5649 Y0.7179 
G01 X-0.5679 Y0.7149 
G01 X-0.6321 Y0.7149 
G01 X-0.6351 Y0.7179 
G01 X-0.6351 Y0.7369 
G01 X-0.9171 Y0.7369 
G01 X-0.9171 Y0.7201 
G01 X-0.9201 Y0.7171 
G01 X-0.9799 Y0.7171 
G01 X-0.9829 Y0.7201 
G00 Z0.0200 
G00 X-2.6329 Y1.2131 
G01 Z-0.0100 F10.00 
G01 X-2.5671 Y1.2131 
G01 X-2.5631 Y1.2171 
G01 X-2.5631 Y1.2829 
G01 X-2.5671 Y1.2869 
G01 X-2.6329 Y1.2869 
G01 X-2.6369 Y1.2829 
G01 X-2.6369 Y1.2171 
G01 X-2.6329 Y1.2131 
G00 Z0.0200 
G00 X-2.5649 Y1.2821 
G01 Z-0.0100 F10.00 
G01 X-2.5649 Y1.2179 
G01 X-2.5679 Y1.2149 
G01 X-2.6321 Y1.2149 
G01 X-2.6351 Y1.2179 
G01 X-2.6351 Y1.2821 
G01 X-2.6321 Y1.2851 
G01 X-2.5679 Y1.2851 
G01 X-2.5649 Y1.2821 
G00 Z0.0200 
G00 X-1.9153 Y0.8194 
G01 Z-0.0100 F10.00 
G01 X-1.9153 Y0.8806 
G01 X-1.9194 Y0.8847 
G01 X-1.9806 Y0.8847 
G01 X-1.9847 Y0.8806 
G01 X-1.9847 Y0.8194 
G01 X-1.9806 Y0.8153 
G01 X-1.9194 Y0.8153 
G01 X-1.9153 Y0.8194 
G00 Z0.0200 
G00 X-1.9829 Y0.8201 
G01 Z-0.0100 F10.00 
G01 X-1.9829 Y0.8799 
G01 X-1.9799 Y0.8829 
G01 X-1.9201 Y0.8829 
G01 X-1.9171 Y0.8799 
G01 X-1.9171 Y0.8201 
G01 X-1.9201 Y0.8171 
G01 X-1.9799 Y0.8171 
G01 X-1.9829 Y0.8201 
G00 Z0.0200 
G00 X-1.9153 Y1.0806 
G01 Z-0.0100 F10.00 
G01 X-1.9194 Y1.0847 
G01 X-1.9806 Y1.0847 
G01 X-1.9847 Y1.0806 
G01 X-1.9847 Y1.0194 
G01 X-1.9806 Y1.0153 
G01 X-1.9194 Y1.0153 
G01 X-1.9153 Y1.0194 
G01 X-1.9153 Y1.0806 
G00 Z0.0200 
G00 X-1.9829 Y1.0201 
G01 Z-0.0100 F10.00 
G01 X-1.9829 Y1.0799 
G01 X-1.9799 Y1.0829 
G01 X-1.9201 Y1.0829 
G01 X-1.9171 Y1.0799 
G01 X-1.9171 Y1.0201 
G01 X-1.9201 Y1.0171 
G01 X-1.9799 Y1.0171 
G01 X-1.9829 Y1.0201 
G00 Z0.0200 
G00 X-2.1194 Y1.1847 
G01 Z-0.0100 F10.00 
G01 X-2.1806 Y1.1847 
G01 X-2.1847 Y1.1806 
G01 X-2.1847 Y1.1726 
G01 X-2.1924 Y1.1649 
G01 X-2.2032 Y1.1649 
G01 X-2.2554 Y1.1649 
G01 X-2.2631 Y1.1726 
G01 X-2.2631 Y1.1829 
G01 X-2.2671 Y1.1869 
G01 X-2.3329 Y1.1869 
G01 X-2.3369 Y1.1829 
G01 X-2.3369 Y1.1171 
G01 X-2.3329 Y1.1131 
G01 X-2.2671 Y1.1131 
G01 X-2.2631 Y1.1171 
G01 X-2.2631 Y1.1274 
G01 X-2.2554 Y1.1351 
G01 X-2.2446 Y1.1351 
G01 X-2.1924 Y1.1351 
G01 X-2.1847 Y1.1274 
G01 X-2.1847 Y1.1194 
G01 X-2.1806 Y1.1153 
G01 X-2.1194 Y1.1153 
G01 X-2.1153 Y1.1194 
G01 X-2.1153 Y1.1806 
G01 X-2.1194 Y1.1847 
G00 Z0.0200 
G00 X-2.2649 Y1.1821 
G01 Z-0.0100 F10.00 
G01 X-2.2649 Y1.1631 
G01 X-2.1829 Y1.1631 
G01 X-2.1829 Y1.1799 
G01 X-2.1799 Y1.1829 
G01 X-2.1201 Y1.1829 
G01 X-2.1171 Y1.1799 
G01 X-2.1171 Y1.1201 
G01 X-2.1201 Y1.1171 
G01 X-2.1799 Y1.1171 
G01 X-2.1829 Y1.1201 
G01 X-2.1829 Y1.1369 
G01 X-2.2649 Y1.1369 
G01 X-2.2649 Y1.1179 
G01 X-2.2679 Y1.1149 
G01 X-2.3321 Y1.1149 
G01 X-2.3351 Y1.1179 
G01 X-2.3351 Y1.1821 
G01 X-2.3321 Y1.1851 
G01 X-2.2679 Y1.1851 
G01 X-2.2649 Y1.1821 
G00 Z0.0200 
G00 X-0.1194 Y1.1847 
G01 Z-0.0100 F10.00 
G01 X-0.1806 Y1.1847 
G01 X-0.1847 Y1.1806 
G01 X-0.1847 Y1.1726 
G01 X-0.1924 Y1.1649 
G01 X-0.2032 Y1.1649 
G01 X-0.2554 Y1.1649 
G01 X-0.2631 Y1.1726 
G01 X-0.2631 Y1.1829 
G01 X-0.2671 Y1.1869 
G01 X-0.3329 Y1.1869 
G01 X-0.3369 Y1.1829 
G01 X-0.3369 Y1.1171 
G01 X-0.3329 Y1.1131 
G01 X-0.2671 Y1.1131 
G01 X-0.2631 Y1.1171 
G01 X-0.2631 Y1.1274 
G01 X-0.2554 Y1.1351 
G01 X-0.2446 Y1.1351 
G01 X-0.1924 Y1.1351 
G01 X-0.1847 Y1.1274 
G01 X-0.1847 Y1.1194 
G01 X-0.1806 Y1.1153 
G01 X-0.1194 Y1.1153 
G01 X-0.1153 Y1.1194 
G01 X-0.1153 Y1.1806 
G01 X-0.1194 Y1.1847 
G00 Z0.0200 
G00 X-0.2649 Y1.1821 
G01 Z-0.0100 F10.00 
G01 X-0.2649 Y1.1631 
G01 X-0.1829 Y1.1631 
G01 X-0.1829 Y1.1799 
G01 X-0.1799 Y1.1829 
G01 X-0.1201 Y1.1829 
G01 X-0.1171 Y1.1799 
G01 X-0.1171 Y1.1201 
G01 X-0.1201 Y1.1171 
G01 X-0.1799 Y1.1171 
G01 X-0.1829 Y1.1201 
G01 X-0.1829 Y1.1369 
G01 X-0.2649 Y1.1369 
G01 X-0.2649 Y1.1179 
G01 X-0.2679 Y1.1149 
G01 X-0.3321 Y1.1149 
G01 X-0.3351 Y1.1179 
G01 X-0.3351 Y1.1821 
G01 X-0.3321 Y1.1851 
G01 X-0.2679 Y1.1851 
G01 X-0.2649 Y1.1821 
G00 Z0.0200 
G00 X-2.9194 Y0.7847 
G01 Z-0.0100 F10.00 
G01 X-2.9806 Y0.7847 
G01 X-2.9847 Y0.7806 
G01 X-2.9847 Y0.7194 
G01 X-2.9806 Y0.7153 
G01 X-2.9194 Y0.7153 
G01 X-2.9153 Y0.7194 
G01 X-2.9153 Y0.7274 
G01 X-2.9076 Y0.7351 
G01 X-2.8968 Y0.7351 
G01 X-2.6446 Y0.7351 
G01 X-2.6369 Y0.7274 
G01 X-2.6369 Y0.7171 
G01 X-2.6329 Y0.7131 
G01 X-2.5671 Y0.7131 
G01 X-2.5631 Y0.7171 
G01 X-2.5631 Y0.7829 
G01 X-2.5671 Y0.7869 
G01 X-2.6329 Y0.7869 
G01 X-2.6369 Y0.7829 
G01 X-2.6369 Y0.7726 
G01 X-2.6446 Y0.7649 
G01 X-2.6554 Y0.7649 
G01 X-2.9076 Y0.7649 
G01 X-2.9153 Y0.7726 
G01 X-2.9153 Y0.7806 
G01 X-2.9194 Y0.7847 
G00 Z0.0200 
G00 X-2.9829 Y0.7201 
G01 Z-0.0100 F10.00 
G01 X-2.9829 Y0.7799 
G01 X-2.9799 Y0.7829 
G01 X-2.9201 Y0.7829 
G01 X-2.9171 Y0.7799 
G01 X-2.9171 Y0.7631 
G01 X-2.6351 Y0.7631 
G01 X-2.6351 Y0.7821 
G01 X-2.6321 Y0.7851 
G01 X-2.5679 Y0.7851 
G01 X-2.5649 Y0.7821 
G01 X-2.5649 Y0.7179 
G01 X-2.5679 Y0.7149 
G01 X-2.6321 Y0.7149 
G01 X-2.6351 Y0.7179 
G01 X-2.6351 Y0.7369 
G01 X-2.9171 Y0.7369 
G01 X-2.9171 Y0.7201 
G01 X-2.9201 Y0.7171 
G01 X-2.9799 Y0.7171 
G01 X-2.9829 Y0.7201 
G00 Z0.0200 
G00 X-2.3329 Y1.2131 
G01 Z-0.0100 F10.00 
G01 X-2.2671 Y1.2131 
G01 X-2.2631 Y1.2171 
G01 X-2.2631 Y1.2274 
G01 X-2.2554 Y1.2351 
G01 X-2.2446 Y1.2351 
G01 X-2.1924 Y1.2351 
G01 X-2.1847 Y1.2274 
G01 X-2.1847 Y1.2194 
G01 X-2.1806 Y1.2153 
G01 X-2.1194 Y1.2153 
G01 X-2.1153 Y1.2194 
G01 X-2.1153 Y1.2806 
G01 X-2.1194 Y1.2847 
G01 X-2.1806 Y1.2847 
G01 X-2.1847 Y1.2806 
G01 X-2.1847 Y1.2726 
G01 X-2.1924 Y1.2649 
G01 X-2.2032 Y1.2649 
G01 X-2.2554 Y1.2649 
G01 X-2.2631 Y1.2726 
G01 X-2.2631 Y1.2829 
G01 X-2.2671 Y1.2869 
G01 X-2.3329 Y1.2869 
G01 X-2.3369 Y1.2829 
G01 X-2.3369 Y1.2171 
G01 X-2.3329 Y1.2131 
G00 Z0.0200 
G00 X-2.1829 Y1.2201 
G01 Z-0.0100 F10.00 
G01 X-2.1829 Y1.2369 
G01 X-2.2649 Y1.2369 
G01 X-2.2649 Y1.2179 
G01 X-2.2679 Y1.2149 
G01 X-2.3321 Y1.2149 
G01 X-2.3351 Y1.2179 
G01 X-2.3351 Y1.2821 
G01 X-2.3321 Y1.2851 
G01 X-2.2679 Y1.2851 
G01 X-2.2649 Y1.2821 
G01 X-2.2649 Y1.2631 
G01 X-2.1829 Y1.2631 
G01 X-2.1829 Y1.2799 
G01 X-2.1799 Y1.2829 
G01 X-2.1201 Y1.2829 
G01 X-2.1171 Y1.2799 
G01 X-2.1171 Y1.2201 
G01 X-2.1201 Y1.2171 
G01 X-2.1799 Y1.2171 
G01 X-2.1829 Y1.2201 
G00 Z0.0200 
G00 X-0.6369 Y1.2171 
G01 Z-0.0100 F10.00 
G01 X-0.6329 Y1.2131 
G01 X-0.5671 Y1.2131 
G01 X-0.5631 Y1.2171 
G01 X-0.5631 Y1.2829 
G01 X-0.5671 Y1.2869 
G01 X-0.6329 Y1.2869 
G01 X-0.6369 Y1.2829 
G01 X-0.6369 Y1.2171 
G00 Z0.0200 
G00 X-0.5649 Y1.2821 
G01 Z-0.0100 F10.00 
G01 X-0.5649 Y1.2179 
G01 X-0.5679 Y1.2149 
G01 X-0.6321 Y1.2149 
G01 X-0.6351 Y1.2179 
G01 X-0.6351 Y1.2821 
G01 X-0.6321 Y1.2851 
G01 X-0.5679 Y1.2851 
G01 X-0.5649 Y1.2821 
G00 Z0.0200 
G00 X-0.6369 Y1.3829 
G01 Z-0.0100 F10.00 
G01 X-0.6369 Y1.3726 
G01 X-0.6446 Y1.3649 
G01 X-0.6554 Y1.3649 
G01 X-0.6999 Y1.3649 
G01 X-0.7030 Y1.3649 
G01 X-0.7084 Y1.3626 
G01 X-0.7089 Y1.3622 
G01 X-0.7089 Y1.3622 
G01 X-0.7119 Y1.3592 
G01 X-0.7166 Y1.3545 
G01 X-0.7274 Y1.3545 
G01 X-0.7274 Y1.3545 
G01 X-0.7312 Y1.3583 
G01 X-0.7351 Y1.3622 
G01 X-0.7351 Y1.3730 
G01 X-0.7351 Y1.4274 
G01 X-0.7274 Y1.4351 
G01 X-0.7166 Y1.4351 
G01 X-0.3226 Y1.4351 
G01 X-0.3149 Y1.4274 
G01 X-0.3149 Y1.4166 
G01 X-0.3149 Y1.3946 
G01 X-0.3226 Y1.3869 
G01 X-0.3329 Y1.3869 
G01 X-0.3369 Y1.3829 
G01 X-0.3369 Y1.3171 
G01 X-0.3329 Y1.3131 
G01 X-0.2671 Y1.3131 
G01 X-0.2631 Y1.3171 
G01 X-0.2631 Y1.3829 
G01 X-0.2671 Y1.3869 
G01 X-0.2774 Y1.3869 
G01 X-0.2851 Y1.3946 
G01 X-0.2851 Y1.4054 
G01 X-0.2851 Y1.4499 
G01 X-0.2851 Y1.4530 
G01 X-0.2874 Y1.4584 
G01 X-0.2916 Y1.4626 
G01 X-0.2970 Y1.4649 
G01 X-0.7499 Y1.4649 
G01 X-0.7530 Y1.4649 
G01 X-0.7584 Y1.4626 
G01 X-0.7626 Y1.4584 
G01 X-0.7649 Y1.4530 
G01 X-0.7649 Y1.1726 
G01 X-0.7726 Y1.1649 
G01 X-0.7834 Y1.1649 
G01 X-0.9076 Y1.1649 
G01 X-0.9153 Y1.1726 
G01 X-0.9153 Y1.1806 
G01 X-0.9196 Y1.1850 
G01 X-0.9222 Y1.1860 
G01 X-0.9233 Y1.1886 
G01 X-0.9253 Y1.1906 
G01 X-0.9253 Y1.1935 
G01 X-0.9264 Y1.1961 
G01 X-0.9253 Y1.1987 
G01 X-0.9253 Y1.2015 
G01 X-0.9233 Y1.2035 
G01 X-0.9222 Y1.2061 
G01 X-0.9196 Y1.2072 
G01 X-0.9176 Y1.2091 
G01 X-0.9148 Y1.2091 
G01 X-0.9138 Y1.2096 
G01 X-0.9096 Y1.2138 
G01 X-0.9073 Y1.2193 
G01 X-0.9073 Y1.2807 
G01 X-0.9096 Y1.2862 
G01 X-0.9120 Y1.2887 
G01 X-0.9124 Y1.2887 
G01 X-0.9144 Y1.2907 
G01 X-0.9170 Y1.2917 
G01 X-0.9181 Y1.2943 
G01 X-0.9201 Y1.2964 
G01 X-0.9201 Y1.2991 
G01 X-0.9212 Y1.3017 
G01 X-0.9201 Y1.3044 
G01 X-0.9201 Y1.4826 
G01 X-0.9212 Y1.4852 
G01 X-0.9201 Y1.4878 
G01 X-0.9201 Y1.4906 
G01 X-0.9181 Y1.4926 
G01 X-0.9170 Y1.4952 
G01 X-0.9144 Y1.4963 
G01 X-0.9124 Y1.4983 
G01 X-0.9096 Y1.4983 
G01 X-0.9046 Y1.5004 
G01 X-0.9004 Y1.5046 
G01 X-0.8981 Y1.5100 
G01 X-0.8981 Y1.5900 
G01 X-0.9004 Y1.5954 
G01 X-0.9005 Y1.5956 
G01 X-0.9065 Y1.6016 
G01 X-0.9065 Y1.6016 
G01 X-0.9065 Y1.6016 
G01 X-0.9065 Y1.6069 
G01 X-0.9065 Y1.6124 
G01 X-0.8988 Y1.6201 
G01 X-0.8988 Y1.6201 
G01 X-0.8988 Y1.6201 
G01 X-0.8935 Y1.6201 
G01 X-0.8880 Y1.6201 
G01 X-0.8880 Y1.6201 
G01 X-0.7120 Y1.6201 
G01 X-0.7120 Y1.6201 
G01 X-0.7066 Y1.6201 
G01 X-0.7012 Y1.6201 
G01 X-0.7012 Y1.6201 
G01 X-0.7012 Y1.6201 
G01 X-0.6936 Y1.6125 
G01 X-0.6935 Y1.6124 
G01 X-0.6935 Y1.6124 
G01 X-0.6935 Y1.6070 
G01 X-0.6935 Y1.6016 
G01 X-0.6935 Y1.6016 
G01 X-0.6935 Y1.6016 
G01 X-0.6993 Y1.5958 
G01 X-0.6996 Y1.5954 
G01 X-0.7019 Y1.5900 
G01 X-0.7019 Y1.5100 
G01 X-0.6996 Y1.5046 
G01 X-0.6954 Y1.5004 
G01 X-0.6900 Y1.4981 
G01 X-0.6100 Y1.4981 
G01 X-0.6046 Y1.5004 
G01 X-0.6004 Y1.5046 
G01 X-0.5981 Y1.5100 
G01 X-0.5981 Y1.5900 
G01 X-0.6004 Y1.5954 
G01 X-0.6046 Y1.5996 
G01 X-0.6096 Y1.6017 
G01 X-0.6124 Y1.6017 
G01 X-0.6144 Y1.6037 
G01 X-0.6170 Y1.6048 
G01 X-0.6181 Y1.6074 
G01 X-0.6201 Y1.6094 
G01 X-0.6201 Y1.6122 
G01 X-0.6212 Y1.6148 
G01 X-0.6201 Y1.6174 
G01 X-0.6201 Y1.6360 
G01 X-0.6201 Y1.6559 
G01 X-0.6246 Y1.6669 
G01 X-0.6331 Y1.6753 
G01 X-0.6441 Y1.6799 
G01 X-1.6640 Y1.6799 
G01 X-1.9880 Y1.6799 
G01 X-1.9880 Y1.6799 
G01 X-1.9934 Y1.6799 
G01 X-1.9988 Y1.6799 
G01 X-1.9988 Y1.6799 
G01 X-1.9988 Y1.6799 
G01 X-2.0034 Y1.6845 
G01 X-2.0065 Y1.6876 
G01 X-2.0065 Y1.6876 
G01 X-2.0065 Y1.6876 
G01 X-2.0065 Y1.6930 
G01 X-2.0065 Y1.6984 
G01 X-2.0065 Y1.6984 
G01 X-2.0065 Y1.6984 
G01 X-2.0017 Y1.7032 
G01 X-1.9988 Y1.7061 
G01 X-1.9988 Y1.7061 
G01 X-1.9968 Y1.7081 
G01 X-1.9968 Y1.7081 
G01 X-1.9968 Y1.7081 
G01 X-1.9913 Y1.7081 
G01 X-1.9893 Y1.7081 
G01 X-1.9921 Y1.7109 
G01 X-1.9921 Y1.7891 
G01 X-1.9893 Y1.7919 
G01 X-1.9968 Y1.7919 
G01 X-2.0045 Y1.7996 
G01 X-2.0046 Y1.7996 
G01 X-2.0100 Y1.8019 
G01 X-2.0900 Y1.8019 
G01 X-2.0954 Y1.7996 
G01 X-2.1012 Y1.7939 
G01 X-2.1120 Y1.7939 
G01 X-2.1899 Y1.7939 
G01 X-2.1939 Y1.7899 
G01 X-2.1939 Y1.7101 
G01 X-2.1899 Y1.7061 
G01 X-2.1087 Y1.7061 
G01 X-2.1056 Y1.7071 
G01 X-2.1035 Y1.7061 
G01 X-2.1012 Y1.7061 
G01 X-2.1012 Y1.7061 
G01 X-2.1012 Y1.7061 
G01 X-2.0988 Y1.7038 
G01 X-2.0959 Y1.7023 
G01 X-2.0951 Y1.7001 
G01 X-2.0935 Y1.6984 
G01 X-2.0935 Y1.6951 
G01 X-2.0924 Y1.6920 
G01 X-2.0935 Y1.6899 
G01 X-2.0935 Y1.6876 
G01 X-2.0958 Y1.6852 
G01 X-2.0973 Y1.6823 
G01 X-2.0995 Y1.6816 
G01 X-2.1012 Y1.6799 
G01 X-2.1045 Y1.6799 
G01 X-2.1076 Y1.6789 
G01 X-2.1097 Y1.6799 
G01 X-2.6360 Y1.6799 
G01 X-3.6469 Y1.6799 
G01 X-3.6559 Y1.6799 
G01 X-3.6669 Y1.6753 
G01 X-3.6753 Y1.6669 
G01 X-3.6799 Y1.6559 
G01 X-3.6799 Y1.6174 
G01 X-3.6788 Y1.6148 
G01 X-3.6799 Y1.6122 
G01 X-3.6799 Y1.6094 
G01 X-3.6819 Y1.6074 
G01 X-3.6830 Y1.6048 
G01 X-3.6856 Y1.6037 
G01 X-3.6876 Y1.6017 
G01 X-3.6904 Y1.6017 
G01 X-3.6954 Y1.5996 
G01 X-3.6996 Y1.5954 
G01 X-3.7019 Y1.5900 
G01 X-3.7019 Y1.5100 
G01 X-3.6996 Y1.5046 
G01 X-3.6954 Y1.5004 
G01 X-3.6900 Y1.4981 
G01 X-3.6100 Y1.4981 
G01 X-3.6046 Y1.5004 
G01 X-3.6004 Y1.5046 
G01 X-3.5981 Y1.5100 
G01 X-3.5981 Y1.5900 
G01 X-3.6004 Y1.5954 
G01 X-3.6005 Y1.5956 
G01 X-3.6065 Y1.6016 
G01 X-3.6065 Y1.6016 
G01 X-3.6065 Y1.6016 
G01 X-3.6065 Y1.6069 
G01 X-3.6065 Y1.6124 
G01 X-3.5988 Y1.6201 
G01 X-3.5988 Y1.6201 
G01 X-3.5988 Y1.6201 
G01 X-3.5935 Y1.6201 
G01 X-3.5880 Y1.6201 
G01 X-3.5880 Y1.6201 
G01 X-3.0120 Y1.6201 
G01 X-3.0120 Y1.6201 
G01 X-3.0066 Y1.6201 
G01 X-3.0012 Y1.6201 
G01 X-3.0012 Y1.6201 
G01 X-3.0012 Y1.6201 
G01 X-2.9936 Y1.6125 
G01 X-2.9935 Y1.6124 
G01 X-2.9935 Y1.6124 
G01 X-2.9935 Y1.6070 
G01 X-2.9935 Y1.6016 
G01 X-2.9935 Y1.6016 
G01 X-2.9935 Y1.6016 
G01 X-2.9993 Y1.5958 
G01 X-2.9996 Y1.5954 
G01 X-3.0019 Y1.5900 
G01 X-3.0019 Y1.5100 
G01 X-2.9996 Y1.5046 
G01 X-2.9954 Y1.5004 
G01 X-2.9904 Y1.4983 
G01 X-2.9876 Y1.4983 
G01 X-2.9856 Y1.4963 
G01 X-2.9830 Y1.4952 
G01 X-2.9819 Y1.4926 
G01 X-2.9799 Y1.4906 
G01 X-2.9799 Y1.4878 
G01 X-2.9788 Y1.4852 
G01 X-2.9799 Y1.4826 
G01 X-2.9799 Y1.3044 
G01 X-2.9788 Y1.3017 
G01 X-2.9799 Y1.2991 
G01 X-2.9799 Y1.2964 
G01 X-2.9819 Y1.2943 
G01 X-2.9830 Y1.2917 
G01 X-2.9856 Y1.2907 
G01 X-2.9876 Y1.2887 
G01 X-2.9879 Y1.2887 
G01 X-2.9904 Y1.2862 
G01 X-2.9927 Y1.2807 
G01 X-2.9927 Y1.2193 
G01 X-2.9904 Y1.2138 
G01 X-2.9862 Y1.2096 
G01 X-2.9852 Y1.2091 
G01 X-2.9824 Y1.2091 
G01 X-2.9804 Y1.2072 
G01 X-2.9778 Y1.2061 
G01 X-2.9767 Y1.2035 
G01 X-2.9747 Y1.2015 
G01 X-2.9747 Y1.1987 
G01 X-2.9736 Y1.1961 
G01 X-2.9747 Y1.1935 
G01 X-2.9747 Y1.1906 
G01 X-2.9767 Y1.1886 
G01 X-2.9778 Y1.1860 
G01 X-2.9804 Y1.1850 
G01 X-2.9847 Y1.1806 
G01 X-2.9847 Y1.1194 
G01 X-2.9806 Y1.1153 
G01 X-2.9194 Y1.1153 
G01 X-2.9153 Y1.1194 
G01 X-2.9153 Y1.1274 
G01 X-2.9076 Y1.1351 
G01 X-2.8968 Y1.1351 
G01 X-2.7970 Y1.1351 
G01 X-2.7916 Y1.1374 
G01 X-2.7911 Y1.1378 
G01 X-2.7911 Y1.1378 
G01 X-2.7881 Y1.1408 
G01 X-2.7834 Y1.1455 
G01 X-2.7726 Y1.1455 
G01 X-2.7726 Y1.1455 
G01 X-2.7688 Y1.1417 
G01 X-2.7649 Y1.1378 
G01 X-2.7649 Y1.1270 
G01 X-2.7649 Y0.9726 
G01 X-2.7726 Y0.9649 
G01 X-2.7834 Y0.9649 
G01 X-2.9076 Y0.9649 
G01 X-2.9153 Y0.9726 
G01 X-2.9153 Y0.9806 
G01 X-2.9194 Y0.9847 
G01 X-2.9806 Y0.9847 
G01 X-2.9847 Y0.9806 
G01 X-2.9847 Y0.9194 
G01 X-2.9806 Y0.9153 
G01 X-2.9194 Y0.9153 
G01 X-2.9153 Y0.9194 
G01 X-2.9153 Y0.9274 
G01 X-2.9076 Y0.9351 
G01 X-2.8968 Y0.9351 
G01 X-2.7470 Y0.9351 
G01 X-2.7416 Y0.9374 
G01 X-2.7374 Y0.9416 
G01 X-2.7351 Y0.9470 
G01 X-2.7351 Y0.9610 
G01 X-2.7351 Y1.3274 
G01 X-2.7274 Y1.3351 
G01 X-2.7166 Y1.3351 
G01 X-2.6446 Y1.3351 
G01 X-2.6369 Y1.3274 
G01 X-2.6369 Y1.3171 
G01 X-2.6329 Y1.3131 
G01 X-2.5671 Y1.3131 
G01 X-2.5631 Y1.3171 
G01 X-2.5631 Y1.3829 
G01 X-2.5671 Y1.3869 
G01 X-2.6329 Y1.3869 
G01 X-2.6369 Y1.3829 
G01 X-2.6369 Y1.3726 
G01 X-2.6446 Y1.3649 
G01 X-2.6554 Y1.3649 
G01 X-2.7390 Y1.3649 
G01 X-2.7530 Y1.3649 
G01 X-2.7584 Y1.3626 
G01 X-2.7589 Y1.3622 
G01 X-2.7589 Y1.3622 
G01 X-2.7619 Y1.3592 
G01 X-2.7666 Y1.3545 
G01 X-2.7774 Y1.3545 
G01 X-2.7774 Y1.3545 
G01 X-2.7812 Y1.3583 
G01 X-2.7851 Y1.3622 
G01 X-2.7851 Y1.3730 
G01 X-2.7851 Y1.4274 
G01 X-2.7774 Y1.4351 
G01 X-2.7666 Y1.4351 
G01 X-2.3226 Y1.4351 
G01 X-2.3149 Y1.4274 
G01 X-2.3149 Y1.4166 
G01 X-2.3149 Y1.3946 
G01 X-2.3226 Y1.3869 
G01 X-2.3329 Y1.3869 
G01 X-2.3369 Y1.3829 
G01 X-2.3369 Y1.3171 
G01 X-2.3329 Y1.3131 
G01 X-2.2671 Y1.3131 
G01 X-2.2631 Y1.3171 
G01 X-2.2631 Y1.3829 
G01 X-2.2671 Y1.3869 
G01 X-2.2774 Y1.3869 
G01 X-2.2851 Y1.3946 
G01 X-2.2851 Y1.4054 
G01 X-2.2851 Y1.4499 
G01 X-2.2851 Y1.4530 
G01 X-2.2874 Y1.4584 
G01 X-2.2916 Y1.4626 
G01 X-2.2970 Y1.4649 
G01 X-2.7999 Y1.4649 
G01 X-2.8030 Y1.4649 
G01 X-2.8084 Y1.4626 
G01 X-2.8126 Y1.4584 
G01 X-2.8149 Y1.4530 
G01 X-2.8149 Y1.1726 
G01 X-2.8226 Y1.1649 
G01 X-2.8334 Y1.1649 
G01 X-2.9076 Y1.1649 
G01 X-2.9153 Y1.1726 
G01 X-2.9153 Y1.1806 
G01 X-2.9196 Y1.1850 
G01 X-2.9222 Y1.1860 
G01 X-2.9233 Y1.1886 
G01 X-2.9253 Y1.1906 
G01 X-2.9253 Y1.1935 
G01 X-2.9264 Y1.1961 
G01 X-2.9253 Y1.1987 
G01 X-2.9253 Y1.2015 
G01 X-2.9233 Y1.2035 
G01 X-2.9222 Y1.2061 
G01 X-2.9196 Y1.2072 
G01 X-2.9176 Y1.2091 
G01 X-2.9148 Y1.2091 
G01 X-2.9138 Y1.2096 
G01 X-2.9096 Y1.2138 
G01 X-2.9073 Y1.2193 
G01 X-2.9073 Y1.2807 
G01 X-2.9096 Y1.2862 
G01 X-2.9120 Y1.2887 
G01 X-2.9124 Y1.2887 
G01 X-2.9144 Y1.2907 
G01 X-2.9170 Y1.2917 
G01 X-2.9181 Y1.2943 
G01 X-2.9201 Y1.2964 
G01 X-2.9201 Y1.2992 
G01 X-2.9212 Y1.3017 
G01 X-2.9201 Y1.3044 
G01 X-2.9201 Y1.4826 
G01 X-2.9212 Y1.4852 
G01 X-2.9201 Y1.4878 
G01 X-2.9201 Y1.4906 
G01 X-2.9181 Y1.4926 
G01 X-2.9170 Y1.4952 
G01 X-2.9144 Y1.4963 
G01 X-2.9124 Y1.4983 
G01 X-2.9096 Y1.4983 
G01 X-2.9046 Y1.5004 
G01 X-2.9004 Y1.5046 
G01 X-2.8981 Y1.5100 
G01 X-2.8981 Y1.5900 
G01 X-2.9004 Y1.5954 
G01 X-2.9005 Y1.5956 
G01 X-2.9065 Y1.6016 
G01 X-2.9065 Y1.6016 
G01 X-2.9065 Y1.6016 
G01 X-2.9065 Y1.6069 
G01 X-2.9065 Y1.6124 
G01 X-2.8988 Y1.6201 
G01 X-2.8988 Y1.6201 
G01 X-2.8988 Y1.6201 
G01 X-2.8935 Y1.6201 
G01 X-2.8880 Y1.6201 
G01 X-2.8880 Y1.6201 
G01 X-2.7120 Y1.6201 
G01 X-2.7120 Y1.6201 
G01 X-2.7066 Y1.6201 
G01 X-2.7012 Y1.6201 
G01 X-2.7012 Y1.6201 
G01 X-2.7012 Y1.6201 
G01 X-2.6936 Y1.6125 
G01 X-2.6935 Y1.6124 
G01 X-2.6935 Y1.6124 
G01 X-2.6935 Y1.6070 
G01 X-2.6935 Y1.6016 
G01 X-2.6935 Y1.6016 
G01 X-2.6935 Y1.6016 
G01 X-2.6993 Y1.5958 
G01 X-2.6996 Y1.5954 
G01 X-2.7019 Y1.5900 
G01 X-2.7019 Y1.5100 
G01 X-2.6996 Y1.5046 
G01 X-2.6954 Y1.5004 
G01 X-2.6900 Y1.4981 
G01 X-2.6100 Y1.4981 
G01 X-2.6046 Y1.5004 
G01 X-2.6004 Y1.5046 
G01 X-2.5981 Y1.5100 
G01 X-2.5981 Y1.5900 
G01 X-2.6004 Y1.5954 
G01 X-2.6005 Y1.5956 
G01 X-2.6065 Y1.6016 
G01 X-2.6065 Y1.6016 
G01 X-2.6065 Y1.6016 
G01 X-2.6065 Y1.6069 
G01 X-2.6065 Y1.6124 
G01 X-2.5988 Y1.6201 
G01 X-2.5988 Y1.6201 
G01 X-2.5988 Y1.6201 
G01 X-2.5935 Y1.6201 
G01 X-2.5880 Y1.6201 
G01 X-2.5880 Y1.6201 
G01 X-2.0531 Y1.6201 
G01 X-2.0360 Y1.6201 
G01 X-2.0120 Y1.6201 
G01 X-2.0120 Y1.6201 
G01 X-2.0066 Y1.6201 
G01 X-2.0012 Y1.6201 
G01 X-2.0012 Y1.6201 
G01 X-2.0012 Y1.6201 
G01 X-1.9936 Y1.6125 
G01 X-1.9935 Y1.6124 
G01 X-1.9935 Y1.6124 
G01 X-1.9935 Y1.6070 
G01 X-1.9935 Y1.6016 
G01 X-1.9935 Y1.6016 
G01 X-1.9935 Y1.6016 
G01 X-1.9993 Y1.5958 
G01 X-1.9996 Y1.5954 
G01 X-2.0019 Y1.5900 
G01 X-2.0019 Y1.5100 
G01 X-1.9996 Y1.5046 
G01 X-1.9954 Y1.5004 
G01 X-1.9904 Y1.4983 
G01 X-1.9876 Y1.4983 
G01 X-1.9856 Y1.4963 
G01 X-1.9830 Y1.4952 
G01 X-1.9819 Y1.4926 
G01 X-1.9799 Y1.4906 
G01 X-1.9799 Y1.4878 
G01 X-1.9788 Y1.4852 
G01 X-1.9799 Y1.4826 
G01 X-1.9799 Y1.3044 
G01 X-1.9788 Y1.3017 
G01 X-1.9799 Y1.2991 
G01 X-1.9799 Y1.2964 
G01 X-1.9819 Y1.2943 
G01 X-1.9830 Y1.2917 
G01 X-1.9856 Y1.2907 
G01 X-1.9876 Y1.2887 
G01 X-1.9880 Y1.2887 
G01 X-1.9904 Y1.2862 
G01 X-1.9927 Y1.2807 
G01 X-1.9927 Y1.2193 
G01 X-1.9904 Y1.2138 
G01 X-1.9862 Y1.2096 
G01 X-1.9852 Y1.2091 
G01 X-1.9823 Y1.2091 
G01 X-1.9804 Y1.2072 
G01 X-1.9778 Y1.2061 
G01 X-1.9767 Y1.2035 
G01 X-1.9747 Y1.2015 
G01 X-1.9747 Y1.1987 
G01 X-1.9736 Y1.1961 
G01 X-1.9747 Y1.1935 
G01 X-1.9747 Y1.1906 
G01 X-1.9767 Y1.1886 
G01 X-1.9777 Y1.1860 
G01 X-1.9804 Y1.1850 
G01 X-1.9847 Y1.1806 
G01 X-1.9847 Y1.1194 
G01 X-1.9806 Y1.1153 
G01 X-1.9194 Y1.1153 
G01 X-1.9153 Y1.1194 
G01 X-1.9153 Y1.1274 
G01 X-1.9076 Y1.1351 
G01 X-1.8968 Y1.1351 
G01 X-1.7970 Y1.1351 
G01 X-1.7916 Y1.1374 
G01 X-1.7911 Y1.1378 
G01 X-1.7911 Y1.1378 
G01 X-1.7881 Y1.1408 
G01 X-1.7834 Y1.1455 
G01 X-1.7726 Y1.1455 
G01 X-1.7726 Y1.1455 
G01 X-1.7688 Y1.1417 
G01 X-1.7649 Y1.1378 
G01 X-1.7649 Y1.1270 
G01 X-1.7649 Y0.9726 
G01 X-1.7726 Y0.9649 
G01 X-1.7834 Y0.9649 
G01 X-1.9076 Y0.9649 
G01 X-1.9153 Y0.9726 
G01 X-1.9153 Y0.9806 
G01 X-1.9194 Y0.9847 
G01 X-1.9806 Y0.9847 
G01 X-1.9847 Y0.9806 
G01 X-1.9847 Y0.9194 
G01 X-1.9806 Y0.9153 
G01 X-1.9194 Y0.9153 
G01 X-1.9153 Y0.9194 
G01 X-1.9153 Y0.9274 
G01 X-1.9076 Y0.9351 
G01 X-1.8968 Y0.9351 
G01 X-1.7470 Y0.9351 
G01 X-1.7416 Y0.9374 
G01 X-1.7374 Y0.9416 
G01 X-1.7351 Y0.9470 
G01 X-1.7351 Y0.9610 
G01 X-1.7351 Y1.3274 
G01 X-1.7274 Y1.3351 
G01 X-1.7166 Y1.3351 
G01 X-1.6446 Y1.3351 
G01 X-1.6369 Y1.3274 
G01 X-1.6369 Y1.3171 
G01 X-1.6329 Y1.3131 
G01 X-1.5671 Y1.3131 
G01 X-1.5631 Y1.3171 
G01 X-1.5631 Y1.3829 
G01 X-1.5671 Y1.3869 
G01 X-1.6329 Y1.3869 
G01 X-1.6369 Y1.3829 
G01 X-1.6369 Y1.3726 
G01 X-1.6446 Y1.3649 
G01 X-1.6554 Y1.3649 
G01 X-1.7499 Y1.3649 
G01 X-1.7530 Y1.3649 
G01 X-1.7584 Y1.3626 
G01 X-1.7589 Y1.3622 
G01 X-1.7589 Y1.3622 
G01 X-1.7619 Y1.3592 
G01 X-1.7666 Y1.3545 
G01 X-1.7774 Y1.3545 
G01 X-1.7774 Y1.3545 
G01 X-1.7812 Y1.3583 
G01 X-1.7851 Y1.3622 
G01 X-1.7851 Y1.3730 
G01 X-1.7851 Y1.4274 
G01 X-1.7774 Y1.4351 
G01 X-1.7666 Y1.4351 
G01 X-1.3226 Y1.4351 
G01 X-1.3149 Y1.4274 
G01 X-1.3149 Y1.4166 
G01 X-1.3149 Y1.3946 
G01 X-1.3226 Y1.3869 
G01 X-1.3329 Y1.3869 
G01 X-1.3369 Y1.3829 
G01 X-1.3369 Y1.3171 
G01 X-1.3329 Y1.3131 
G01 X-1.2671 Y1.3131 
G01 X-1.2631 Y1.3171 
G01 X-1.2631 Y1.3829 
G01 X-1.2671 Y1.3869 
G01 X-1.2774 Y1.3869 
G01 X-1.2851 Y1.3946 
G01 X-1.2851 Y1.4054 
G01 X-1.2851 Y1.4499 
G01 X-1.2851 Y1.4530 
G01 X-1.2874 Y1.4584 
G01 X-1.2916 Y1.4626 
G01 X-1.2970 Y1.4649 
G01 X-1.7999 Y1.4649 
G01 X-1.8030 Y1.4649 
G01 X-1.8084 Y1.4626 
G01 X-1.8126 Y1.4584 
G01 X-1.8149 Y1.4530 
G01 X-1.8149 Y1.1726 
G01 X-1.8226 Y1.1649 
G01 X-1.8334 Y1.1649 
G01 X-1.9076 Y1.1649 
G01 X-1.9153 Y1.1726 
G01 X-1.9153 Y1.1806 
G01 X-1.9196 Y1.1850 
G01 X-1.9222 Y1.1860 
G01 X-1.9233 Y1.1886 
G01 X-1.9253 Y1.1906 
G01 X-1.9253 Y1.1935 
G01 X-1.9264 Y1.1961 
G01 X-1.9253 Y1.1987 
G01 X-1.9253 Y1.2015 
G01 X-1.9233 Y1.2035 
G01 X-1.9222 Y1.2061 
G01 X-1.9196 Y1.2072 
G01 X-1.9176 Y1.2091 
G01 X-1.9148 Y1.2091 
G01 X-1.9138 Y1.2096 
G01 X-1.9096 Y1.2138 
G01 X-1.9073 Y1.2193 
G01 X-1.9073 Y1.2807 
G01 X-1.9096 Y1.2862 
G01 X-1.9120 Y1.2887 
G01 X-1.9124 Y1.2887 
G01 X-1.9144 Y1.2907 
G01 X-1.9170 Y1.2917 
G01 X-1.9181 Y1.2943 
G01 X-1.9201 Y1.2964 
G01 X-1.9201 Y1.2991 
G01 X-1.9212 Y1.3017 
G01 X-1.9201 Y1.3044 
G01 X-1.9201 Y1.4826 
G01 X-1.9212 Y1.4852 
G01 X-1.9201 Y1.4878 
G01 X-1.9201 Y1.4906 
G01 X-1.9181 Y1.4926 
G01 X-1.9170 Y1.4952 
G01 X-1.9144 Y1.4963 
G01 X-1.9124 Y1.4983 
G01 X-1.9096 Y1.4983 
G01 X-1.9046 Y1.5004 
G01 X-1.9004 Y1.5046 
G01 X-1.8981 Y1.5100 
G01 X-1.8981 Y1.5900 
G01 X-1.9004 Y1.5954 
G01 X-1.9005 Y1.5956 
G01 X-1.9065 Y1.6016 
G01 X-1.9065 Y1.6016 
G01 X-1.9065 Y1.6016 
G01 X-1.9065 Y1.6069 
G01 X-1.9065 Y1.6124 
G01 X-1.8988 Y1.6201 
G01 X-1.8988 Y1.6201 
G01 X-1.8988 Y1.6201 
G01 X-1.8935 Y1.6201 
G01 X-1.8880 Y1.6201 
G01 X-1.8880 Y1.6201 
G01 X-1.7120 Y1.6201 
G01 X-1.7120 Y1.6201 
G01 X-1.7066 Y1.6201 
G01 X-1.7012 Y1.6201 
G01 X-1.7012 Y1.6201 
G01 X-1.7012 Y1.6201 
G01 X-1.6936 Y1.6125 
G01 X-1.6935 Y1.6124 
G01 X-1.6935 Y1.6124 
G01 X-1.6935 Y1.6070 
G01 X-1.6935 Y1.6016 
G01 X-1.6935 Y1.6016 
G01 X-1.6935 Y1.6016 
G01 X-1.6993 Y1.5958 
G01 X-1.6996 Y1.5954 
G01 X-1.7019 Y1.5900 
G01 X-1.7019 Y1.5100 
G01 X-1.6996 Y1.5046 
G01 X-1.6954 Y1.5004 
G01 X-1.6900 Y1.4981 
G01 X-1.6100 Y1.4981 
G01 X-1.6046 Y1.5004 
G01 X-1.6004 Y1.5046 
G01 X-1.5981 Y1.5100 
G01 X-1.5981 Y1.5900 
G01 X-1.6004 Y1.5954 
G01 X-1.6005 Y1.5956 
G01 X-1.6065 Y1.6016 
G01 X-1.6065 Y1.6016 
G01 X-1.6065 Y1.6016 
G01 X-1.6065 Y1.6069 
G01 X-1.6065 Y1.6124 
G01 X-1.5988 Y1.6201 
G01 X-1.5988 Y1.6201 
G01 X-1.5988 Y1.6201 
G01 X-1.5935 Y1.6201 
G01 X-1.5880 Y1.6201 
G01 X-1.5880 Y1.6201 
G01 X-1.0120 Y1.6201 
G01 X-1.0120 Y1.6201 
G01 X-1.0066 Y1.6201 
G01 X-1.0012 Y1.6201 
G01 X-1.0012 Y1.6201 
G01 X-1.0012 Y1.6201 
G01 X-0.9936 Y1.6125 
G01 X-0.9935 Y1.6124 
G01 X-0.9935 Y1.6124 
G01 X-0.9935 Y1.6070 
G01 X-0.9935 Y1.6016 
G01 X-0.9935 Y1.6016 
G01 X-0.9935 Y1.6016 
G01 X-0.9993 Y1.5958 
G01 X-0.9996 Y1.5954 
G01 X-1.0019 Y1.5900 
G01 X-1.0019 Y1.5100 
G01 X-0.9996 Y1.5046 
G01 X-0.9954 Y1.5004 
G01 X-0.9904 Y1.4983 
G01 X-0.9876 Y1.4983 
G01 X-0.9856 Y1.4963 
G01 X-0.9830 Y1.4952 
G01 X-0.9819 Y1.4926 
G01 X-0.9799 Y1.4906 
G01 X-0.9799 Y1.4878 
G01 X-0.9788 Y1.4852 
G01 X-0.9799 Y1.4826 
G01 X-0.9799 Y1.3044 
G01 X-0.9788 Y1.3017 
G01 X-0.9799 Y1.2991 
G01 X-0.9799 Y1.2964 
G01 X-0.9819 Y1.2943 
G01 X-0.9830 Y1.2917 
G01 X-0.9856 Y1.2907 
G01 X-0.9876 Y1.2887 
G01 X-0.9880 Y1.2887 
G01 X-0.9904 Y1.2862 
G01 X-0.9927 Y1.2807 
G01 X-0.9927 Y1.2193 
G01 X-0.9904 Y1.2138 
G01 X-0.9862 Y1.2096 
G01 X-0.9852 Y1.2091 
G01 X-0.9823 Y1.2091 
G01 X-0.9804 Y1.2072 
G01 X-0.9778 Y1.2061 
G01 X-0.9767 Y1.2035 
G01 X-0.9747 Y1.2015 
G01 X-0.9747 Y1.1987 
G01 X-0.9736 Y1.1961 
G01 X-0.9747 Y1.1935 
G01 X-0.9747 Y1.1906 
G01 X-0.9767 Y1.1886 
G01 X-0.9777 Y1.1860 
G01 X-0.9804 Y1.1850 
G01 X-0.9847 Y1.1806 
G01 X-0.9847 Y1.1194 
G01 X-0.9806 Y1.1153 
G01 X-0.9194 Y1.1153 
G01 X-0.9153 Y1.1194 
G01 X-0.9153 Y1.1274 
G01 X-0.9076 Y1.1351 
G01 X-0.8968 Y1.1351 
G01 X-0.7470 Y1.1351 
G01 X-0.7416 Y1.1374 
G01 X-0.7411 Y1.1378 
G01 X-0.7411 Y1.1378 
G01 X-0.7381 Y1.1408 
G01 X-0.7334 Y1.1455 
G01 X-0.7226 Y1.1455 
G01 X-0.7226 Y1.1455 
G01 X-0.7188 Y1.1417 
G01 X-0.7149 Y1.1378 
G01 X-0.7149 Y1.1270 
G01 X-0.7149 Y0.9726 
G01 X-0.7226 Y0.9649 
G01 X-0.7334 Y0.9649 
G01 X-0.9076 Y0.9649 
G01 X-0.9153 Y0.9726 
G01 X-0.9153 Y0.9806 
G01 X-0.9194 Y0.9847 
G01 X-0.9806 Y0.9847 
G01 X-0.9847 Y0.9806 
G01 X-0.9847 Y0.9194 
G01 X-0.9806 Y0.9153 
G01 X-0.9194 Y0.9153 
G01 X-0.9153 Y0.9194 
G01 X-0.9153 Y0.9274 
G01 X-0.9076 Y0.9351 
G01 X-0.8968 Y0.9351 
G01 X-0.6970 Y0.9351 
G01 X-0.6916 Y0.9374 
G01 X-0.6874 Y0.9416 
G01 X-0.6851 Y0.9470 
G01 X-0.6851 Y0.9610 
G01 X-0.6851 Y1.3274 
G01 X-0.6774 Y1.3351 
G01 X-0.6666 Y1.3351 
G01 X-0.6446 Y1.3351 
G01 X-0.6369 Y1.3274 
G01 X-0.6369 Y1.3171 
G01 X-0.6329 Y1.3131 
G01 X-0.5671 Y1.3131 
G01 X-0.5631 Y1.3171 
G01 X-0.5631 Y1.3829 
G01 X-0.5671 Y1.3869 
G01 X-0.6329 Y1.3869 
G01 X-0.6369 Y1.3829 
G00 Z0.0200 
G00 X-2.1891 Y1.7921 
G01 Z-0.0100 F10.00 
G01 X-2.1109 Y1.7921 
G01 X-2.1079 Y1.7891 
G01 X-2.1079 Y1.7109 
G01 X-2.1109 Y1.7079 
G01 X-2.1891 Y1.7079 
G01 X-2.1921 Y1.7109 
G01 X-2.1921 Y1.7891 
G01 X-2.1891 Y1.7921 
G00 Z0.0200 
G00 X-0.9079 Y1.5891 
G01 Z-0.0100 F10.00 
G01 X-0.9079 Y1.5109 
G01 X-0.9109 Y1.5079 
G01 X-0.9299 Y1.5079 
G01 X-0.9299 Y1.2829 
G01 X-0.9201 Y1.2829 
G01 X-0.9171 Y1.2799 
G01 X-0.9171 Y1.2201 
G01 X-0.9201 Y1.2171 
G01 X-0.9799 Y1.2171 
G01 X-0.9829 Y1.2201 
G01 X-0.9829 Y1.2799 
G01 X-0.9799 Y1.2829 
G01 X-0.9701 Y1.2829 
G01 X-0.9701 Y1.5079 
G01 X-0.9891 Y1.5079 
G01 X-0.9921 Y1.5109 
G01 X-0.9921 Y1.5891 
G01 X-0.9891 Y1.5921 
G01 X-0.9109 Y1.5921 
G01 X-0.9079 Y1.5891 
G00 Z0.0200 
G00 X-1.6079 Y1.5891 
G01 Z-0.0100 F10.00 
G01 X-1.6079 Y1.5109 
G01 X-1.6109 Y1.5079 
G01 X-1.6891 Y1.5079 
G01 X-1.6921 Y1.5109 
G01 X-1.6921 Y1.5891 
G01 X-1.6891 Y1.5921 
G01 X-1.6701 Y1.5921 
G01 X-1.6701 Y1.6299 
G01 X-2.0417 Y1.6299 
G01 X-2.0583 Y1.6299 
G01 X-2.6299 Y1.6299 
G01 X-2.6299 Y1.5921 
G01 X-2.6109 Y1.5921 
G01 X-2.6079 Y1.5891 
G01 X-2.6079 Y1.5109 
G01 X-2.6109 Y1.5079 
G01 X-2.6891 Y1.5079 
G01 X-2.6921 Y1.5109 
G01 X-2.6921 Y1.5891 
G01 X-2.6891 Y1.5921 
G01 X-2.6701 Y1.5921 
G01 X-2.6701 Y1.6299 
G01 X-3.6299 Y1.6299 
G01 X-3.6299 Y1.5921 
G01 X-3.6109 Y1.5921 
G01 X-3.6079 Y1.5891 
G01 X-3.6079 Y1.5109 
G01 X-3.6109 Y1.5079 
G01 X-3.6891 Y1.5079 
G01 X-3.6921 Y1.5109 
G01 X-3.6921 Y1.5891 
G01 X-3.6891 Y1.5921 
G01 X-3.6701 Y1.5921 
G01 X-3.6701 Y1.6583 
G01 X-3.6583 Y1.6701 
G01 X-3.6417 Y1.6701 
G01 X-2.6583 Y1.6701 
G01 X-2.6417 Y1.6701 
G01 X-2.0701 Y1.6701 
G01 X-2.0701 Y1.7079 
G01 X-2.0891 Y1.7079 
G01 X-2.0921 Y1.7109 
G01 X-2.0921 Y1.7891 
G01 X-2.0891 Y1.7921 
G01 X-2.0109 Y1.7921 
G01 X-2.0079 Y1.7891 
G01 X-2.0079 Y1.7109 
G01 X-2.0109 Y1.7079 
G01 X-2.0299 Y1.7079 
G01 X-2.0299 Y1.6701 
G01 X-1.6417 Y1.6701 
G01 X-0.6417 Y1.6701 
G01 X-0.6299 Y1.6583 
G01 X-0.6299 Y1.6417 
G01 X-0.6299 Y1.5921 
G01 X-0.6109 Y1.5921 
G01 X-0.6079 Y1.5891 
G01 X-0.6079 Y1.5109 
G01 X-0.6109 Y1.5079 
G01 X-0.6891 Y1.5079 
G01 X-0.6921 Y1.5109 
G01 X-0.6921 Y1.5891 
G01 X-0.6891 Y1.5921 
G01 X-0.6701 Y1.5921 
G01 X-0.6701 Y1.6299 
G01 X-1.6299 Y1.6299 
G01 X-1.6299 Y1.5921 
G01 X-1.6109 Y1.5921 
G01 X-1.6079 Y1.5891 
G00 Z0.0200 
G00 X-1.2649 Y1.3821 
G01 Z-0.0100 F10.00 
G01 X-1.2649 Y1.3179 
G01 X-1.2679 Y1.3149 
G01 X-1.3321 Y1.3149 
G01 X-1.3351 Y1.3179 
G01 X-1.3351 Y1.3821 
G01 X-1.3321 Y1.3851 
G01 X-1.3131 Y1.3851 
G01 X-1.3131 Y1.4369 
G01 X-1.7869 Y1.4369 
G01 X-1.7869 Y1.1554 
G01 X-1.7869 Y1.1446 
G01 X-1.7946 Y1.1369 
G01 X-1.9171 Y1.1369 
G01 X-1.9171 Y1.1201 
G01 X-1.9201 Y1.1171 
G01 X-1.9799 Y1.1171 
G01 X-1.9829 Y1.1201 
G01 X-1.9829 Y1.1799 
G01 X-1.9799 Y1.1829 
G01 X-1.9201 Y1.1829 
G01 X-1.9171 Y1.1799 
G01 X-1.9171 Y1.1631 
G01 X-1.8131 Y1.1631 
G01 X-1.8131 Y1.4554 
G01 X-1.8054 Y1.4631 
G01 X-1.7946 Y1.4631 
G01 X-1.2946 Y1.4631 
G01 X-1.2869 Y1.4554 
G01 X-1.2869 Y1.4446 
G01 X-1.2869 Y1.3851 
G01 X-1.2679 Y1.3851 
G01 X-1.2649 Y1.3821 
G00 Z0.0200 
G00 X-1.5649 Y1.3821 
G01 Z-0.0100 F10.00 
G01 X-1.5649 Y1.3179 
G01 X-1.5679 Y1.3149 
G01 X-1.6321 Y1.3149 
G01 X-1.6351 Y1.3179 
G01 X-1.6351 Y1.3369 
G01 X-1.7369 Y1.3369 
G01 X-1.7369 Y0.9554 
G01 X-1.7369 Y0.9446 
G01 X-1.7446 Y0.9369 
G01 X-1.9171 Y0.9369 
G01 X-1.9171 Y0.9201 
G01 X-1.9201 Y0.9171 
G01 X-1.9799 Y0.9171 
G01 X-1.9829 Y0.9201 
G01 X-1.9829 Y0.9799 
G01 X-1.9799 Y0.9829 
G01 X-1.9201 Y0.9829 
G01 X-1.9171 Y0.9799 
G01 X-1.9171 Y0.9631 
G01 X-1.7631 Y0.9631 
G01 X-1.7631 Y1.3554 
G01 X-1.7554 Y1.3631 
G01 X-1.7446 Y1.3631 
G01 X-1.6351 Y1.3631 
G01 X-1.6351 Y1.3821 
G01 X-1.6321 Y1.3851 
G01 X-1.5679 Y1.3851 
G01 X-1.5649 Y1.3821 
G00 Z0.0200 
G00 X-2.2649 Y1.3821 
G01 Z-0.0100 F10.00 
G01 X-2.2649 Y1.3179 
G01 X-2.2679 Y1.3149 
G01 X-2.3321 Y1.3149 
G01 X-2.3351 Y1.3179 
G01 X-2.3351 Y1.3821 
G01 X-2.3321 Y1.3851 
G01 X-2.3131 Y1.3851 
G01 X-2.3131 Y1.4369 
G01 X-2.7869 Y1.4369 
G01 X-2.7869 Y1.1554 
G01 X-2.7869 Y1.1446 
G01 X-2.7946 Y1.1369 
G01 X-2.9171 Y1.1369 
G01 X-2.9171 Y1.1201 
G01 X-2.9201 Y1.1171 
G01 X-2.9799 Y1.1171 
G01 X-2.9829 Y1.1201 
G01 X-2.9829 Y1.1799 
G01 X-2.9799 Y1.1829 
G01 X-2.9201 Y1.1829 
G01 X-2.9171 Y1.1799 
G01 X-2.9171 Y1.1631 
G01 X-2.8131 Y1.1631 
G01 X-2.8131 Y1.4554 
G01 X-2.8054 Y1.4631 
G01 X-2.7946 Y1.4631 
G01 X-2.2946 Y1.4631 
G01 X-2.2869 Y1.4554 
G01 X-2.2869 Y1.4446 
G01 X-2.2869 Y1.3851 
G01 X-2.2679 Y1.3851 
G01 X-2.2649 Y1.3821 
G00 Z0.0200 
G00 X-0.9829 Y0.9201 
G01 Z-0.0100 F10.00 
G01 X-0.9829 Y0.9799 
G01 X-0.9799 Y0.9829 
G01 X-0.9201 Y0.9829 
G01 X-0.9171 Y0.9799 
G01 X-0.9171 Y0.9631 
G01 X-0.7131 Y0.9631 
G01 X-0.7131 Y1.3554 
G01 X-0.7054 Y1.3631 
G01 X-0.6946 Y1.3631 
G01 X-0.6351 Y1.3631 
G01 X-0.6351 Y1.3821 
G01 X-0.6321 Y1.3851 
G01 X-0.5679 Y1.3851 
G01 X-0.5649 Y1.3821 
G01 X-0.5649 Y1.3179 
G01 X-0.5679 Y1.3149 
G01 X-0.6321 Y1.3149 
G01 X-0.6351 Y1.3179 
G01 X-0.6351 Y1.3369 
G01 X-0.6869 Y1.3369 
G01 X-0.6869 Y0.9554 
G01 X-0.6869 Y0.9446 
G01 X-0.6946 Y0.9369 
G01 X-0.9171 Y0.9369 
G01 X-0.9171 Y0.9201 
G01 X-0.9201 Y0.9171 
G01 X-0.9799 Y0.9171 
G01 X-0.9829 Y0.9201 
G00 Z0.0200 
G00 X-0.9829 Y1.1201 
G01 Z-0.0100 F10.00 
G01 X-0.9829 Y1.1799 
G01 X-0.9799 Y1.1829 
G01 X-0.9201 Y1.1829 
G01 X-0.9171 Y1.1799 
G01 X-0.9171 Y1.1631 
G01 X-0.7631 Y1.1631 
G01 X-0.7631 Y1.4554 
G01 X-0.7554 Y1.4631 
G01 X-0.7446 Y1.4631 
G01 X-0.2946 Y1.4631 
G01 X-0.2869 Y1.4554 
G01 X-0.2869 Y1.4446 
G01 X-0.2869 Y1.3851 
G01 X-0.2679 Y1.3851 
G01 X-0.2649 Y1.3821 
G01 X-0.2649 Y1.3179 
G01 X-0.2679 Y1.3149 
G01 X-0.3321 Y1.3149 
G01 X-0.3351 Y1.3179 
G01 X-0.3351 Y1.3821 
G01 X-0.3321 Y1.3851 
G01 X-0.3131 Y1.3851 
G01 X-0.3131 Y1.4369 
G01 X-0.7369 Y1.4369 
G01 X-0.7369 Y1.1554 
G01 X-0.7369 Y1.1446 
G01 X-0.7446 Y1.1369 
G01 X-0.9171 Y1.1369 
G01 X-0.9171 Y1.1201 
G01 X-0.9201 Y1.1171 
G01 X-0.9799 Y1.1171 
G01 X-0.9829 Y1.1201 
G00 Z0.0200 
G00 X-1.9829 Y1.2201 
G01 Z-0.0100 F10.00 
G01 X-1.9829 Y1.2799 
G01 X-1.9799 Y1.2829 
G01 X-1.9701 Y1.2829 
G01 X-1.9701 Y1.5079 
G01 X-1.9891 Y1.5079 
G01 X-1.9921 Y1.5109 
G01 X-1.9921 Y1.5891 
G01 X-1.9891 Y1.5921 
G01 X-1.9109 Y1.5921 
G01 X-1.9079 Y1.5891 
G01 X-1.9079 Y1.5109 
G01 X-1.9109 Y1.5079 
G01 X-1.9299 Y1.5079 
G01 X-1.9299 Y1.2829 
G01 X-1.9201 Y1.2829 
G01 X-1.9171 Y1.2799 
G01 X-1.9171 Y1.2201 
G01 X-1.9201 Y1.2171 
G01 X-1.9799 Y1.2171 
G01 X-1.9829 Y1.2201 
G00 Z0.0200 
G00 X-2.9829 Y0.9201 
G01 Z-0.0100 F10.00 
G01 X-2.9829 Y0.9799 
G01 X-2.9799 Y0.9829 
G01 X-2.9201 Y0.9829 
G01 X-2.9171 Y0.9799 
G01 X-2.9171 Y0.9631 
G01 X-2.7631 Y0.9631 
G01 X-2.7631 Y1.3554 
G01 X-2.7554 Y1.3631 
G01 X-2.7446 Y1.3631 
G01 X-2.6351 Y1.3631 
G01 X-2.6351 Y1.3821 
G01 X-2.6321 Y1.3851 
G01 X-2.5679 Y1.3851 
G01 X-2.5649 Y1.3821 
G01 X-2.5649 Y1.3179 
G01 X-2.5679 Y1.3149 
G01 X-2.6321 Y1.3149 
G01 X-2.6351 Y1.3179 
G01 X-2.6351 Y1.3369 
G01 X-2.7369 Y1.3369 
G01 X-2.7369 Y0.9554 
G01 X-2.7369 Y0.9446 
G01 X-2.7446 Y0.9369 
G01 X-2.9171 Y0.9369 
G01 X-2.9171 Y0.9201 
G01 X-2.9201 Y0.9171 
G01 X-2.9799 Y0.9171 
G01 X-2.9829 Y0.9201 
G00 Z0.0200 
G00 X-2.9829 Y1.2201 
G01 Z-0.0100 F10.00 
G01 X-2.9829 Y1.2799 
G01 X-2.9799 Y1.2829 
G01 X-2.9701 Y1.2829 
G01 X-2.9701 Y1.5079 
G01 X-2.9891 Y1.5079 
G01 X-2.9921 Y1.5109 
G01 X-2.9921 Y1.5891 
G01 X-2.9891 Y1.5921 
G01 X-2.9109 Y1.5921 
G01 X-2.9079 Y1.5891 
G01 X-2.9079 Y1.5109 
G01 X-2.9109 Y1.5079 
G01 X-2.9299 Y1.5079 
G01 X-2.9299 Y1.2829 
G01 X-2.9201 Y1.2829 
G01 X-2.9171 Y1.2799 
G01 X-2.9171 Y1.2201 
G01 X-2.9201 Y1.2171 
G01 X-2.9799 Y1.2171 
G01 X-2.9829 Y1.2201 
G00 Z0.0200 
G00 X-3.0671 Y0.4369 
G01 Z-0.0100 F10.00 
G01 X-3.1329 Y0.4369 
G01 X-3.1369 Y0.4329 
G01 X-3.1369 Y0.3671 
G01 X-3.1329 Y0.3631 
G01 X-3.0671 Y0.3631 
G01 X-3.0631 Y0.3671 
G01 X-3.0631 Y0.4329 
G01 X-3.0671 Y0.4369 
G00 Z0.0200 
G00 X-3.0679 Y0.3649 
G01 Z-0.0100 F10.00 
G01 X-3.1321 Y0.3649 
G01 X-3.1351 Y0.3679 
G01 X-3.1351 Y0.4321 
G01 X-3.1321 Y0.4351 
G01 X-3.0679 Y0.4351 
G01 X-3.0649 Y0.4321 
G01 X-3.0649 Y0.3679 
G01 X-3.0679 Y0.3649 
G00 Z0.0200 
G00 X-3.2369 Y0.4329 
G01 Z-0.0100 F10.00 
G01 X-3.2369 Y0.3671 
G01 X-3.2329 Y0.3631 
G01 X-3.1671 Y0.3631 
G01 X-3.1631 Y0.3671 
G01 X-3.1631 Y0.4329 
G01 X-3.1671 Y0.4369 
G01 X-3.2329 Y0.4369 
G01 X-3.2369 Y0.4329 
G00 Z0.0200 
G00 X-3.1679 Y0.3649 
G01 Z-0.0100 F10.00 
G01 X-3.2321 Y0.3649 
G01 X-3.2351 Y0.3679 
G01 X-3.2351 Y0.4321 
G01 X-3.2321 Y0.4351 
G01 X-3.1679 Y0.4351 
G01 X-3.1649 Y0.4321 
G01 X-3.1649 Y0.3679 
G01 X-3.1679 Y0.3649 
G00 Z0.0200 
G00 X-2.8369 Y0.4329 
G01 Z-0.0100 F10.00 
G01 X-2.8369 Y0.3671 
G01 X-2.8329 Y0.3631 
G01 X-2.7671 Y0.3631 
G01 X-2.7631 Y0.3671 
G01 X-2.7631 Y0.4329 
G01 X-2.7671 Y0.4369 
G01 X-2.8329 Y0.4369 
G01 X-2.8369 Y0.4329 
G00 Z0.0200 
G00 X-2.7679 Y0.3649 
G01 Z-0.0100 F10.00 
G01 X-2.8321 Y0.3649 
G01 X-2.8351 Y0.3679 
G01 X-2.8351 Y0.4321 
G01 X-2.8321 Y0.4351 
G01 X-2.7679 Y0.4351 
G01 X-2.7649 Y0.4321 
G01 X-2.7649 Y0.3679 
G01 X-2.7679 Y0.3649 
G00 Z0.0200 
G00 X-2.8671 Y0.4369 
G01 Z-0.0100 F10.00 
G01 X-2.9329 Y0.4369 
G01 X-2.9369 Y0.4329 
G01 X-2.9369 Y0.3671 
G01 X-2.9329 Y0.3631 
G01 X-2.8671 Y0.3631 
G01 X-2.8631 Y0.3671 
G01 X-2.8631 Y0.4329 
G01 X-2.8671 Y0.4369 
G00 Z0.0200 
G00 X-2.8679 Y0.3649 
G01 Z-0.0100 F10.00 
G01 X-2.9321 Y0.3649 
G01 X-2.9351 Y0.3679 
G01 X-2.9351 Y0.4321 
G01 X-2.9321 Y0.4351 
G01 X-2.8679 Y0.4351 
G01 X-2.8649 Y0.4321 
G01 X-2.8649 Y0.3679 
G01 X-2.8679 Y0.3649 
G00 Z0.0200 
G00 X-2.9671 Y0.4369 
G01 Z-0.0100 F10.00 
G01 X-3.0329 Y0.4369 
G01 X-3.0369 Y0.4329 
G01 X-3.0369 Y0.3671 
G01 X-3.0329 Y0.3631 
G01 X-2.9671 Y0.3631 
G01 X-2.9631 Y0.3671 
G01 X-2.9631 Y0.4329 
G01 X-2.9671 Y0.4369 
G00 Z0.0200 
G00 X-2.9679 Y0.3649 
G01 Z-0.0100 F10.00 
G01 X-3.0321 Y0.3649 
G01 X-3.0351 Y0.3679 
G01 X-3.0351 Y0.4321 
G01 X-3.0321 Y0.4351 
G01 X-2.9679 Y0.4351 
G01 X-2.9649 Y0.4321 
G01 X-2.9649 Y0.3679 
G01 X-2.9679 Y0.3649 
G00 Z0.0200 
G00 X-1.0671 Y0.4369 
G01 Z-0.0100 F10.00 
G01 X-1.1329 Y0.4369 
G01 X-1.1369 Y0.4329 
G01 X-1.1369 Y0.3671 
G01 X-1.1329 Y0.3631 
G01 X-1.0671 Y0.3631 
G01 X-1.0631 Y0.3671 
G01 X-1.0631 Y0.4329 
G01 X-1.0671 Y0.4369 
G00 Z0.0200 
G00 X-1.0679 Y0.3649 
G01 Z-0.0100 F10.00 
G01 X-1.1321 Y0.3649 
G01 X-1.1351 Y0.3679 
G01 X-1.1351 Y0.4321 
G01 X-1.1321 Y0.4351 
G01 X-1.0679 Y0.4351 
G01 X-1.0649 Y0.4321 
G01 X-1.0649 Y0.3679 
G01 X-1.0679 Y0.3649 
G00 Z0.0200 
G00 X-1.2369 Y0.4329 
G01 Z-0.0100 F10.00 
G01 X-1.2369 Y0.3671 
G01 X-1.2329 Y0.3631 
G01 X-1.1671 Y0.3631 
G01 X-1.1631 Y0.3671 
G01 X-1.1631 Y0.4329 
G01 X-1.1671 Y0.4369 
G01 X-1.2329 Y0.4369 
G01 X-1.2369 Y0.4329 
G00 Z0.0200 
G00 X-1.1679 Y0.3649 
G01 Z-0.0100 F10.00 
G01 X-1.2321 Y0.3649 
G01 X-1.2351 Y0.3679 
G01 X-1.2351 Y0.4321 
G01 X-1.2321 Y0.4351 
G01 X-1.1679 Y0.4351 
G01 X-1.1649 Y0.4321 
G01 X-1.1649 Y0.3679 
G01 X-1.1679 Y0.3649 
G00 Z0.0200 
G00 X-0.8369 Y0.4329 
G01 Z-0.0100 F10.00 
G01 X-0.8369 Y0.3671 
G01 X-0.8329 Y0.3631 
G01 X-0.7671 Y0.3631 
G01 X-0.7631 Y0.3671 
G01 X-0.7631 Y0.4329 
G01 X-0.7671 Y0.4369 
G01 X-0.8329 Y0.4369 
G01 X-0.8369 Y0.4329 
G00 Z0.0200 
G00 X-0.7679 Y0.3649 
G01 Z-0.0100 F10.00 
G01 X-0.8321 Y0.3649 
G01 X-0.8351 Y0.3679 
G01 X-0.8351 Y0.4321 
G01 X-0.8321 Y0.4351 
G01 X-0.7679 Y0.4351 
G01 X-0.7649 Y0.4321 
G01 X-0.7649 Y0.3679 
G01 X-0.7679 Y0.3649 
G00 Z0.0200 
G00 X-0.8671 Y0.4369 
G01 Z-0.0100 F10.00 
G01 X-0.9329 Y0.4369 
G01 X-0.9369 Y0.4329 
G01 X-0.9369 Y0.3671 
G01 X-0.9329 Y0.3631 
G01 X-0.8671 Y0.3631 
G01 X-0.8631 Y0.3671 
G01 X-0.8631 Y0.4329 
G01 X-0.8671 Y0.4369 
G00 Z0.0200 
G00 X-0.8679 Y0.3649 
G01 Z-0.0100 F10.00 
G01 X-0.9321 Y0.3649 
G01 X-0.9351 Y0.3679 
G01 X-0.9351 Y0.4321 
G01 X-0.9321 Y0.4351 
G01 X-0.8679 Y0.4351 
G01 X-0.8649 Y0.4321 
G01 X-0.8649 Y0.3679 
G01 X-0.8679 Y0.3649 
G00 Z0.0200 
G00 X-0.9671 Y0.4369 
G01 Z-0.0100 F10.00 
G01 X-1.0329 Y0.4369 
G01 X-1.0369 Y0.4329 
G01 X-1.0369 Y0.3671 
G01 X-1.0329 Y0.3631 
G01 X-0.9671 Y0.3631 
G01 X-0.9631 Y0.3671 
G01 X-0.9631 Y0.4329 
G01 X-0.9671 Y0.4369 
G00 Z0.0200 
G00 X-0.9679 Y0.3649 
G01 Z-0.0100 F10.00 
G01 X-1.0321 Y0.3649 
G01 X-1.0351 Y0.3679 
G01 X-1.0351 Y0.4321 
G01 X-1.0321 Y0.4351 
G01 X-0.9679 Y0.4351 
G01 X-0.9649 Y0.4321 
G01 X-0.9649 Y0.3679 
G01 X-0.9679 Y0.3649 
G00 Z0.0200 
G00 X-2.5671 Y0.4369 
G01 Z-0.0100 F10.00 
G01 X-2.6329 Y0.4369 
G01 X-2.6369 Y0.4329 
G01 X-2.6369 Y0.3671 
G01 X-2.6329 Y0.3631 
G01 X-2.5671 Y0.3631 
G01 X-2.5631 Y0.3671 
G01 X-2.5631 Y0.4329 
G01 X-2.5671 Y0.4369 
G00 Z0.0200 
G00 X-2.5679 Y0.3649 
G01 Z-0.0100 F10.00 
G01 X-2.6321 Y0.3649 
G01 X-2.6351 Y0.3679 
G01 X-2.6351 Y0.4321 
G01 X-2.6321 Y0.4351 
G01 X-2.5679 Y0.4351 
G01 X-2.5649 Y0.4321 
G01 X-2.5649 Y0.3679 
G01 X-2.5679 Y0.3649 
G00 Z0.0200 
G00 X-2.7369 Y0.4329 
G01 Z-0.0100 F10.00 
G01 X-2.7369 Y0.3671 
G01 X-2.7329 Y0.3631 
G01 X-2.6671 Y0.3631 
G01 X-2.6631 Y0.3671 
G01 X-2.6631 Y0.4329 
G01 X-2.6671 Y0.4369 
G01 X-2.7329 Y0.4369 
G01 X-2.7369 Y0.4329 
G00 Z0.0200 
G00 X-2.6679 Y0.3649 
G01 Z-0.0100 F10.00 
G01 X-2.7321 Y0.3649 
G01 X-2.7351 Y0.3679 
G01 X-2.7351 Y0.4321 
G01 X-2.7321 Y0.4351 
G01 X-2.6679 Y0.4351 
G01 X-2.6649 Y0.4321 
G01 X-2.6649 Y0.3679 
G01 X-2.6679 Y0.3649 
G00 Z0.0200 
G00 X-0.5671 Y0.4369 
G01 Z-0.0100 F10.00 
G01 X-0.6329 Y0.4369 
G01 X-0.6369 Y0.4329 
G01 X-0.6369 Y0.3671 
G01 X-0.6329 Y0.3631 
G01 X-0.5671 Y0.3631 
G01 X-0.5631 Y0.3671 
G01 X-0.5631 Y0.4329 
G01 X-0.5671 Y0.4369 
G00 Z0.0200 
G00 X-0.5679 Y0.3649 
G01 Z-0.0100 F10.00 
G01 X-0.6321 Y0.3649 
G01 X-0.6351 Y0.3679 
G01 X-0.6351 Y0.4321 
G01 X-0.6321 Y0.4351 
G01 X-0.5679 Y0.4351 
G01 X-0.5649 Y0.4321 
G01 X-0.5649 Y0.3679 
G01 X-0.5679 Y0.3649 
G00 Z0.0200 
G00 X-0.7369 Y0.4329 
G01 Z-0.0100 F10.00 
G01 X-0.7369 Y0.3671 
G01 X-0.7329 Y0.3631 
G01 X-0.6671 Y0.3631 
G01 X-0.6631 Y0.3671 
G01 X-0.6631 Y0.4329 
G01 X-0.6671 Y0.4369 
G01 X-0.7329 Y0.4369 
G01 X-0.7369 Y0.4329 
G00 Z0.0200 
G00 X-0.6679 Y0.3649 
G01 Z-0.0100 F10.00 
G01 X-0.7321 Y0.3649 
G01 X-0.7351 Y0.3679 
G01 X-0.7351 Y0.4321 
G01 X-0.7321 Y0.4351 
G01 X-0.6679 Y0.4351 
G01 X-0.6649 Y0.4321 
G01 X-0.6649 Y0.3679 
G01 X-0.6679 Y0.3649 
G00 Z0.0200 
G00 X-0.7226 Y0.2851 
G01 Z-0.0100 F10.00 
G01 X-0.7149 Y0.2774 
G01 X-0.7149 Y0.2666 
G01 X-0.7149 Y0.1446 
G01 X-0.7226 Y0.1369 
G01 X-0.7329 Y0.1369 
G01 X-0.7369 Y0.1329 
G01 X-0.7369 Y0.0671 
G01 X-0.7329 Y0.0631 
G01 X-0.6671 Y0.0631 
G01 X-0.6631 Y0.0671 
G01 X-0.6631 Y0.1329 
G01 X-0.6671 Y0.1369 
G01 X-0.6774 Y0.1369 
G01 X-0.6851 Y0.1446 
G01 X-0.6851 Y0.1554 
G01 X-0.6851 Y0.2999 
G01 X-0.6851 Y0.3030 
G01 X-0.6874 Y0.3084 
G01 X-0.6916 Y0.3126 
G01 X-0.6970 Y0.3149 
G01 X-2.6999 Y0.3149 
G01 X-2.7030 Y0.3149 
G01 X-2.7084 Y0.3126 
G01 X-2.7126 Y0.3084 
G01 X-2.7149 Y0.3030 
G01 X-2.7149 Y0.1446 
G01 X-2.7226 Y0.1369 
G01 X-2.7329 Y0.1369 
G01 X-2.7369 Y0.1329 
G01 X-2.7369 Y0.0671 
G01 X-2.7329 Y0.0631 
G01 X-2.6671 Y0.0631 
G01 X-2.6631 Y0.0671 
G01 X-2.6631 Y0.1329 
G01 X-2.6671 Y0.1369 
G01 X-2.6774 Y0.1369 
G01 X-2.6851 Y0.1446 
G01 X-2.6851 Y0.1554 
G01 X-2.6851 Y0.2774 
G01 X-2.6774 Y0.2851 
G01 X-2.6666 Y0.2851 
G01 X-0.7226 Y0.2851 
G00 Z0.0200 
G00 X-0.6679 Y0.0649 
G01 Z-0.0100 F10.00 
G01 X-0.7321 Y0.0649 
G01 X-0.7351 Y0.0679 
G01 X-0.7351 Y0.1321 
G01 X-0.7321 Y0.1351 
G01 X-0.7131 Y0.1351 
G01 X-0.7131 Y0.2869 
G01 X-2.6869 Y0.2869 
G01 X-2.6869 Y0.1351 
G01 X-2.6679 Y0.1351 
G01 X-2.6649 Y0.1321 
G01 X-2.6649 Y0.0679 
G01 X-2.6679 Y0.0649 
G01 X-2.7321 Y0.0649 
G01 X-2.7351 Y0.0679 
G01 X-2.7351 Y0.1321 
G01 X-2.7321 Y0.1351 
G01 X-2.7131 Y0.1351 
G01 X-2.7131 Y0.3054 
G01 X-2.7054 Y0.3131 
G01 X-2.6946 Y0.3131 
G01 X-0.6946 Y0.3131 
G01 X-0.6869 Y0.3054 
G01 X-0.6869 Y0.2946 
G01 X-0.6869 Y0.1351 
G01 X-0.6679 Y0.1351 
G01 X-0.6649 Y0.1321 
G01 X-0.6649 Y0.0679 
G01 X-0.6679 Y0.0649 
G00 Z0.0200 
G00 X-2.6369 Y0.1329 
G01 Z-0.0100 F10.00 
G01 X-2.6369 Y0.0671 
G01 X-2.6329 Y0.0631 
G01 X-2.5671 Y0.0631 
G01 X-2.5631 Y0.0671 
G01 X-2.5631 Y0.1329 
G01 X-2.5671 Y0.1369 
G01 X-2.6329 Y0.1369 
G01 X-2.6369 Y0.1329 
G00 Z0.0200 
G00 X-2.5679 Y0.0649 
G01 Z-0.0100 F10.00 
G01 X-2.6321 Y0.0649 
G01 X-2.6351 Y0.0679 
G01 X-2.6351 Y0.1321 
G01 X-2.6321 Y0.1351 
G01 X-2.5679 Y0.1351 
G01 X-2.5649 Y0.1321 
G01 X-2.5649 Y0.0679 
G01 X-2.5679 Y0.0649 
G00 Z0.0200 
G00 X-1.0149 Y0.1446 
G01 Z-0.0100 F10.00 
G01 X-1.0226 Y0.1369 
G01 X-1.0329 Y0.1369 
G01 X-1.0369 Y0.1329 
G01 X-1.0369 Y0.0671 
G01 X-1.0329 Y0.0631 
G01 X-0.9671 Y0.0631 
G01 X-0.9631 Y0.0671 
G01 X-0.9631 Y0.1329 
G01 X-0.9671 Y0.1369 
G01 X-0.9774 Y0.1369 
G01 X-0.9851 Y0.1446 
G01 X-0.9851 Y0.1554 
G01 X-0.9851 Y0.1999 
G01 X-0.9851 Y0.2030 
G01 X-0.9874 Y0.2084 
G01 X-0.9916 Y0.2126 
G01 X-0.9970 Y0.2149 
G01 X-2.4999 Y0.2149 
G01 X-2.5030 Y0.2149 
G01 X-2.5084 Y0.2126 
G01 X-2.5126 Y0.2084 
G01 X-2.5149 Y0.2030 
G01 X-2.5149 Y0.1446 
G01 X-2.5226 Y0.1369 
G01 X-2.5329 Y0.1369 
G01 X-2.5369 Y0.1329 
G01 X-2.5369 Y0.0671 
G01 X-2.5329 Y0.0631 
G01 X-2.4671 Y0.0631 
G01 X-2.4631 Y0.0671 
G01 X-2.4631 Y0.1329 
G01 X-2.4671 Y0.1369 
G01 X-2.4774 Y0.1369 
G01 X-2.4851 Y0.1446 
G01 X-2.4851 Y0.1554 
G01 X-2.4851 Y0.1774 
G01 X-2.4774 Y0.1851 
G01 X-2.4666 Y0.1851 
G01 X-1.0226 Y0.1851 
G01 X-1.0149 Y0.1774 
G01 X-1.0149 Y0.1666 
G01 X-1.0149 Y0.1446 
G00 Z0.0200 
G00 X-0.9679 Y0.0649 
G01 Z-0.0100 F10.00 
G01 X-1.0321 Y0.0649 
G01 X-1.0351 Y0.0679 
G01 X-1.0351 Y0.1321 
G01 X-1.0321 Y0.1351 
G01 X-1.0131 Y0.1351 
G01 X-1.0131 Y0.1869 
G01 X-2.4869 Y0.1869 
G01 X-2.4869 Y0.1351 
G01 X-2.4679 Y0.1351 
G01 X-2.4649 Y0.1321 
G01 X-2.4649 Y0.0679 
G01 X-2.4679 Y0.0649 
G01 X-2.5321 Y0.0649 
G01 X-2.5351 Y0.0679 
G01 X-2.5351 Y0.1321 
G01 X-2.5321 Y0.1351 
G01 X-2.5131 Y0.1351 
G01 X-2.5131 Y0.2054 
G01 X-2.5054 Y0.2131 
G01 X-2.4946 Y0.2131 
G01 X-0.9946 Y0.2131 
G01 X-0.9869 Y0.2054 
G01 X-0.9869 Y0.1946 
G01 X-0.9869 Y0.1351 
G01 X-0.9679 Y0.1351 
G01 X-0.9649 Y0.1321 
G01 X-0.9649 Y0.0679 
G01 X-0.9679 Y0.0649 
G00 Z0.0200 
G00 X-1.0671 Y0.1369 
G01 Z-0.0100 F10.00 
G01 X-1.1329 Y0.1369 
G01 X-1.1369 Y0.1329 
G01 X-1.1369 Y0.0671 
G01 X-1.1329 Y0.0631 
G01 X-1.0671 Y0.0631 
G01 X-1.0631 Y0.0671 
G01 X-1.0631 Y0.1329 
G01 X-1.0671 Y0.1369 
G00 Z0.0200 
G00 X-1.0679 Y0.0649 
G01 Z-0.0100 F10.00 
G01 X-1.1321 Y0.0649 
G01 X-1.1351 Y0.0679 
G01 X-1.1351 Y0.1321 
G01 X-1.1321 Y0.1351 
G01 X-1.0679 Y0.1351 
G01 X-1.0649 Y0.1321 
G01 X-1.0649 Y0.0679 
G01 X-1.0679 Y0.0649 
G00 Z0.0200 
G00 X-1.1671 Y0.1369 
G01 Z-0.0100 F10.00 
G01 X-1.2329 Y0.1369 
G01 X-1.2369 Y0.1329 
G01 X-1.2369 Y0.0671 
G01 X-1.2329 Y0.0631 
G01 X-1.1671 Y0.0631 
G01 X-1.1631 Y0.0671 
G01 X-1.1631 Y0.1329 
G01 X-1.1671 Y0.1369 
G00 Z0.0200 
G00 X-1.1679 Y0.0649 
G01 Z-0.0100 F10.00 
G01 X-1.2321 Y0.0649 
G01 X-1.2351 Y0.0679 
G01 X-1.2351 Y0.1321 
G01 X-1.2321 Y0.1351 
G01 X-1.1679 Y0.1351 
G01 X-1.1649 Y0.1321 
G01 X-1.1649 Y0.0679 
G01 X-1.1679 Y0.0649 
G00 Z0.0200 
G00 X-2.9671 Y0.1369 
G01 Z-0.0100 F10.00 
G01 X-3.0329 Y0.1369 
G01 X-3.0369 Y0.1329 
G01 X-3.0369 Y0.0671 
G01 X-3.0329 Y0.0631 
G01 X-2.9671 Y0.0631 
G01 X-2.9631 Y0.0671 
G01 X-2.9631 Y0.1329 
G01 X-2.9671 Y0.1369 
G00 Z0.0200 
G00 X-2.9679 Y0.0649 
G01 Z-0.0100 F10.00 
G01 X-3.0321 Y0.0649 
G01 X-3.0351 Y0.0679 
G01 X-3.0351 Y0.1321 
G01 X-3.0321 Y0.1351 
G01 X-2.9679 Y0.1351 
G01 X-2.9649 Y0.1321 
G01 X-2.9649 Y0.0679 
G01 X-2.9679 Y0.0649 
G00 Z0.0200 
G00 X-3.0671 Y0.1369 
G01 Z-0.0100 F10.00 
G01 X-3.1329 Y0.1369 
G01 X-3.1369 Y0.1329 
G01 X-3.1369 Y0.0671 
G01 X-3.1329 Y0.0631 
G01 X-3.0671 Y0.0631 
G01 X-3.0631 Y0.0671 
G01 X-3.0631 Y0.1329 
G01 X-3.0671 Y0.1369 
G00 Z0.0200 
G00 X-3.0679 Y0.0649 
G01 Z-0.0100 F10.00 
G01 X-3.1321 Y0.0649 
G01 X-3.1351 Y0.0679 
G01 X-3.1351 Y0.1321 
G01 X-3.1321 Y0.1351 
G01 X-3.0679 Y0.1351 
G01 X-3.0649 Y0.1321 
G01 X-3.0649 Y0.0679 
G01 X-3.0679 Y0.0649 
G00 Z0.0200 
G00 X-3.1671 Y0.1369 
G01 Z-0.0100 F10.00 
G01 X-3.2329 Y0.1369 
G01 X-3.2369 Y0.1329 
G01 X-3.2369 Y0.0671 
G01 X-3.2329 Y0.0631 
G01 X-3.1671 Y0.0631 
G01 X-3.1631 Y0.0671 
G01 X-3.1631 Y0.1329 
G01 X-3.1671 Y0.1369 
G00 Z0.0200 
G00 X-3.1679 Y0.0649 
G01 Z-0.0100 F10.00 
G01 X-3.2321 Y0.0649 
G01 X-3.2351 Y0.0679 
G01 X-3.2351 Y0.1321 
G01 X-3.2321 Y0.1351 
G01 X-3.1679 Y0.1351 
G01 X-3.1649 Y0.1321 
G01 X-3.1649 Y0.0679 
G01 X-3.1679 Y0.0649 
G00 Z0.0200 
G00 X-0.3369 Y1.2829 
G01 Z-0.0100 F10.00 
G01 X-0.3369 Y1.2171 
G01 X-0.3329 Y1.2131 
G01 X-0.2671 Y1.2131 
G01 X-0.2631 Y1.2171 
G01 X-0.2631 Y1.2274 
G01 X-0.2554 Y1.2351 
G01 X-0.2446 Y1.2351 
G01 X-0.1924 Y1.2351 
G01 X-0.1847 Y1.2274 
G01 X-0.1847 Y1.2194 
G01 X-0.1806 Y1.2153 
G01 X-0.1194 Y1.2153 
G01 X-0.1153 Y1.2194 
G01 X-0.1153 Y1.2806 
G01 X-0.1194 Y1.2847 
G01 X-0.1806 Y1.2847 
G01 X-0.1847 Y1.2806 
G01 X-0.1847 Y1.2726 
G01 X-0.1924 Y1.2649 
G01 X-0.2032 Y1.2649 
G01 X-0.2554 Y1.2649 
G01 X-0.2631 Y1.2726 
G01 X-0.2631 Y1.2829 
G01 X-0.2671 Y1.2869 
G01 X-0.3329 Y1.2869 
G01 X-0.3369 Y1.2829 
G00 Z0.0200 
G00 X-0.1829 Y1.2201 
G01 Z-0.0100 F10.00 
G01 X-0.1829 Y1.2369 
G01 X-0.2649 Y1.2369 
G01 X-0.2649 Y1.2179 
G01 X-0.2679 Y1.2149 
G01 X-0.3321 Y1.2149 
G01 X-0.3351 Y1.2179 
G01 X-0.3351 Y1.2821 
G01 X-0.3321 Y1.2851 
G01 X-0.2679 Y1.2851 
G01 X-0.2649 Y1.2821 
G01 X-0.2649 Y1.2631 
G01 X-0.1829 Y1.2631 
G01 X-0.1829 Y1.2799 
G01 X-0.1799 Y1.2829 
G01 X-0.1201 Y1.2829 
G01 X-0.1171 Y1.2799 
G01 X-0.1171 Y1.2201 
G01 X-0.1201 Y1.2171 
G01 X-0.1799 Y1.2171 
G01 X-0.1829 Y1.2201 
G00 Z0.0200 
G00 X-1.1194 Y1.0847 
G01 Z-0.0100 F10.00 
G01 X-1.1806 Y1.0847 
G01 X-1.1847 Y1.0806 
G01 X-1.1847 Y1.0194 
G01 X-1.1806 Y1.0153 
G01 X-1.1194 Y1.0153 
G01 X-1.1153 Y1.0194 
G01 X-1.1153 Y1.0806 
G01 X-1.1194 Y1.0847 
G00 Z0.0200 
G00 X-1.1829 Y1.0201 
G01 Z-0.0100 F10.00 
G01 X-1.1829 Y1.0799 
G01 X-1.1799 Y1.0829 
G01 X-1.1201 Y1.0829 
G01 X-1.1171 Y1.0799 
G01 X-1.1171 Y1.0201 
G01 X-1.1201 Y1.0171 
G01 X-1.1799 Y1.0171 
G01 X-1.1829 Y1.0201 
G00 Z0.0200 
G00 X-1.1194 Y0.8847 
G01 Z-0.0100 F10.00 
G01 X-1.1806 Y0.8847 
G01 X-1.1847 Y0.8806 
G01 X-1.1847 Y0.8726 
G01 X-1.1924 Y0.8649 
G01 X-1.2032 Y0.8649 
G01 X-1.2554 Y0.8649 
G01 X-1.2631 Y0.8726 
G01 X-1.2631 Y0.8829 
G01 X-1.2671 Y0.8869 
G01 X-1.3329 Y0.8869 
G01 X-1.3369 Y0.8829 
G01 X-1.3369 Y0.8171 
G01 X-1.3329 Y0.8131 
G01 X-1.2671 Y0.8131 
G01 X-1.2631 Y0.8171 
G01 X-1.2631 Y0.8274 
G01 X-1.2554 Y0.8351 
G01 X-1.2446 Y0.8351 
G01 X-1.1924 Y0.8351 
G01 X-1.1847 Y0.8274 
G01 X-1.1847 Y0.8194 
G01 X-1.1806 Y0.8153 
G01 X-1.1194 Y0.8153 
G01 X-1.1153 Y0.8194 
G01 X-1.1153 Y0.8806 
G01 X-1.1194 Y0.8847 
G00 Z0.0200 
G00 X-1.2649 Y0.8821 
G01 Z-0.0100 F10.00 
G01 X-1.2649 Y0.8631 
G01 X-1.1829 Y0.8631 
G01 X-1.1829 Y0.8799 
G01 X-1.1799 Y0.8829 
G01 X-1.1201 Y0.8829 
G01 X-1.1171 Y0.8799 
G01 X-1.1171 Y0.8201 
G01 X-1.1201 Y0.8171 
G01 X-1.1799 Y0.8171 
G01 X-1.1829 Y0.8201 
G01 X-1.1829 Y0.8369 
G01 X-1.2649 Y0.8369 
G01 X-1.2649 Y0.8179 
G01 X-1.2679 Y0.8149 
G01 X-1.3321 Y0.8149 
G01 X-1.3351 Y0.8179 
G01 X-1.3351 Y0.8821 
G01 X-1.3321 Y0.8851 
G01 X-1.2679 Y0.8851 
G01 X-1.2649 Y0.8821 
G00 Z0.0200 
G00 X-1.1153 Y0.6194 
G01 Z-0.0100 F10.00 
G01 X-1.1153 Y0.6806 
G01 X-1.1194 Y0.6847 
G01 X-1.1806 Y0.6847 
G01 X-1.1847 Y0.6806 
G01 X-1.1847 Y0.6726 
G01 X-1.1924 Y0.6649 
G01 X-1.2032 Y0.6649 
G01 X-1.2554 Y0.6649 
G01 X-1.2631 Y0.6726 
G01 X-1.2631 Y0.6829 
G01 X-1.2671 Y0.6869 
G01 X-1.3329 Y0.6869 
G01 X-1.3369 Y0.6829 
G01 X-1.3369 Y0.6171 
G01 X-1.3329 Y0.6131 
G01 X-1.2671 Y0.6131 
G01 X-1.2631 Y0.6171 
G01 X-1.2631 Y0.6274 
G01 X-1.2554 Y0.6351 
G01 X-1.2446 Y0.6351 
G01 X-1.1924 Y0.6351 
G01 X-1.1847 Y0.6274 
G01 X-1.1847 Y0.6194 
G01 X-1.1806 Y0.6153 
G01 X-1.1194 Y0.6153 
G01 X-1.1153 Y0.6194 
G00 Z0.0200 
G00 X-1.2649 Y0.6821 
G01 Z-0.0100 F10.00 
G01 X-1.2649 Y0.6631 
G01 X-1.1829 Y0.6631 
G01 X-1.1829 Y0.6799 
G01 X-1.1799 Y0.6829 
G01 X-1.1201 Y0.6829 
G01 X-1.1171 Y0.6799 
G01 X-1.1171 Y0.6201 
G01 X-1.1201 Y0.6171 
G01 X-1.1799 Y0.6171 
G01 X-1.1829 Y0.6201 
G01 X-1.1829 Y0.6369 
G01 X-1.2649 Y0.6369 
G01 X-1.2649 Y0.6179 
G01 X-1.2679 Y0.6149 
G01 X-1.3321 Y0.6149 
G01 X-1.3351 Y0.6179 
G01 X-1.3351 Y0.6821 
G01 X-1.3321 Y0.6851 
G01 X-1.2679 Y0.6851 
G01 X-1.2649 Y0.6821 
G00 Z0.0200 
G00 X-1.3369 Y0.9829 
G01 Z-0.0100 F10.00 
G01 X-1.3369 Y0.9171 
G01 X-1.3329 Y0.9131 
G01 X-1.2671 Y0.9131 
G01 X-1.2631 Y0.9171 
G01 X-1.2631 Y0.9274 
G01 X-1.2554 Y0.9351 
G01 X-1.2446 Y0.9351 
G01 X-1.1924 Y0.9351 
G01 X-1.1847 Y0.9274 
G01 X-1.1847 Y0.9194 
G01 X-1.1806 Y0.9153 
G01 X-1.1194 Y0.9153 
G01 X-1.1153 Y0.9194 
G01 X-1.1153 Y0.9806 
G01 X-1.1194 Y0.9847 
G01 X-1.1806 Y0.9847 
G01 X-1.1847 Y0.9806 
G01 X-1.1847 Y0.9726 
G01 X-1.1924 Y0.9649 
G01 X-1.2032 Y0.9649 
G01 X-1.2554 Y0.9649 
G01 X-1.2631 Y0.9726 
G01 X-1.2631 Y0.9829 
G01 X-1.2671 Y0.9869 
G01 X-1.3329 Y0.9869 
G01 X-1.3369 Y0.9829 
G00 Z0.0200 
G00 X-1.1829 Y0.9201 
G01 Z-0.0100 F10.00 
G01 X-1.1829 Y0.9369 
G01 X-1.2649 Y0.9369 
G01 X-1.2649 Y0.9179 
G01 X-1.2679 Y0.9149 
G01 X-1.3321 Y0.9149 
G01 X-1.3351 Y0.9179 
G01 X-1.3351 Y0.9821 
G01 X-1.3321 Y0.9851 
G01 X-1.2679 Y0.9851 
G01 X-1.2649 Y0.9821 
G01 X-1.2649 Y0.9631 
G01 X-1.1829 Y0.9631 
G01 X-1.1829 Y0.9799 
G01 X-1.1799 Y0.9829 
G01 X-1.1201 Y0.9829 
G01 X-1.1171 Y0.9799 
G01 X-1.1171 Y0.9201 
G01 X-1.1201 Y0.9171 
G01 X-1.1799 Y0.9171 
G01 X-1.1829 Y0.9201 
G00 Z0.0200 
G00 X-3.1153 Y0.6194 
G01 Z-0.0100 F10.00 
G01 X-3.1153 Y0.6806 
G01 X-3.1194 Y0.6847 
G01 X-3.1806 Y0.6847 
G01 X-3.1847 Y0.6806 
G01 X-3.1847 Y0.6726 
G01 X-3.1924 Y0.6649 
G01 X-3.2032 Y0.6649 
G01 X-3.2554 Y0.6649 
G01 X-3.2631 Y0.6726 
G01 X-3.2631 Y0.6829 
G01 X-3.2671 Y0.6869 
G01 X-3.3329 Y0.6869 
G01 X-3.3369 Y0.6829 
G01 X-3.3369 Y0.6171 
G01 X-3.3329 Y0.6131 
G01 X-3.2671 Y0.6131 
G01 X-3.2631 Y0.6171 
G01 X-3.2631 Y0.6274 
G01 X-3.2554 Y0.6351 
G01 X-3.2446 Y0.6351 
G01 X-3.1924 Y0.6351 
G01 X-3.1847 Y0.6274 
G01 X-3.1847 Y0.6194 
G01 X-3.1806 Y0.6153 
G01 X-3.1194 Y0.6153 
G01 X-3.1153 Y0.6194 
G00 Z0.0200 
G00 X-3.2649 Y0.6821 
G01 Z-0.0100 F10.00 
G01 X-3.2649 Y0.6631 
G01 X-3.1829 Y0.6631 
G01 X-3.1829 Y0.6799 
G01 X-3.1799 Y0.6829 
G01 X-3.1201 Y0.6829 
G01 X-3.1171 Y0.6799 
G01 X-3.1171 Y0.6201 
G01 X-3.1201 Y0.6171 
G01 X-3.1799 Y0.6171 
G01 X-3.1829 Y0.6201 
G01 X-3.1829 Y0.6369 
G01 X-3.2649 Y0.6369 
G01 X-3.2649 Y0.6179 
G01 X-3.2679 Y0.6149 
G01 X-3.3321 Y0.6149 
G01 X-3.3351 Y0.6179 
G01 X-3.3351 Y0.6821 
G01 X-3.3321 Y0.6851 
G01 X-3.2679 Y0.6851 
G01 X-3.2649 Y0.6821 
G00 Z0.0200 
G00 X-3.1153 Y0.8194 
G01 Z-0.0100 F10.00 
G01 X-3.1153 Y0.8806 
G01 X-3.1194 Y0.8847 
G01 X-3.1806 Y0.8847 
G01 X-3.1847 Y0.8806 
G01 X-3.1847 Y0.8726 
G01 X-3.1924 Y0.8649 
G01 X-3.2032 Y0.8649 
G01 X-3.2554 Y0.8649 
G01 X-3.2631 Y0.8726 
G01 X-3.2631 Y0.8829 
G01 X-3.2671 Y0.8869 
G01 X-3.3329 Y0.8869 
G01 X-3.3369 Y0.8829 
G01 X-3.3369 Y0.8171 
G01 X-3.3329 Y0.8131 
G01 X-3.2671 Y0.8131 
G01 X-3.2631 Y0.8171 
G01 X-3.2631 Y0.8274 
G01 X-3.2554 Y0.8351 
G01 X-3.2446 Y0.8351 
G01 X-3.1924 Y0.8351 
G01 X-3.1847 Y0.8274 
G01 X-3.1847 Y0.8194 
G01 X-3.1806 Y0.8153 
G01 X-3.1194 Y0.8153 
G01 X-3.1153 Y0.8194 
G00 Z0.0200 
G00 X-3.1829 Y0.8201 
G01 Z-0.0100 F10.00 
G01 X-3.1829 Y0.8369 
G01 X-3.2649 Y0.8369 
G01 X-3.2649 Y0.8179 
G01 X-3.2679 Y0.8149 
G01 X-3.3321 Y0.8149 
G01 X-3.3351 Y0.8179 
G01 X-3.3351 Y0.8821 
G01 X-3.3321 Y0.8851 
G01 X-3.2679 Y0.8851 
G01 X-3.2649 Y0.8821 
G01 X-3.2649 Y0.8631 
G01 X-3.1829 Y0.8631 
G01 X-3.1829 Y0.8799 
G01 X-3.1799 Y0.8829 
G01 X-3.1201 Y0.8829 
G01 X-3.1171 Y0.8799 
G01 X-3.1171 Y0.8201 
G01 X-3.1201 Y0.8171 
G01 X-3.1799 Y0.8171 
G01 X-3.1829 Y0.8201 
G00 Z0.0200 
G00 X-3.3369 Y0.7829 
G01 Z-0.0100 F10.00 
G01 X-3.3369 Y0.7171 
G01 X-3.3329 Y0.7131 
G01 X-3.2671 Y0.7131 
G01 X-3.2631 Y0.7171 
G01 X-3.2631 Y0.7274 
G01 X-3.2554 Y0.7351 
G01 X-3.2446 Y0.7351 
G01 X-3.1924 Y0.7351 
G01 X-3.1847 Y0.7274 
G01 X-3.1847 Y0.7194 
G01 X-3.1806 Y0.7153 
G01 X-3.1194 Y0.7153 
G01 X-3.1153 Y0.7194 
G01 X-3.1153 Y0.7806 
G01 X-3.1194 Y0.7847 
G01 X-3.1806 Y0.7847 
G01 X-3.1847 Y0.7806 
G01 X-3.1847 Y0.7726 
G01 X-3.1924 Y0.7649 
G01 X-3.2032 Y0.7649 
G01 X-3.2554 Y0.7649 
G01 X-3.2631 Y0.7726 
G01 X-3.2631 Y0.7829 
G01 X-3.2671 Y0.7869 
G01 X-3.3329 Y0.7869 
G01 X-3.3369 Y0.7829 
G00 Z0.0200 
G00 X-3.1829 Y0.7201 
G01 Z-0.0100 F10.00 
G01 X-3.1829 Y0.7369 
G01 X-3.2649 Y0.7369 
G01 X-3.2649 Y0.7179 
G01 X-3.2679 Y0.7149 
G01 X-3.3321 Y0.7149 
G01 X-3.3351 Y0.7179 
G01 X-3.3351 Y0.7821 
G01 X-3.3321 Y0.7851 
G01 X-3.2679 Y0.7851 
G01 X-3.2649 Y0.7821 
G01 X-3.2649 Y0.7631 
G01 X-3.1829 Y0.7631 
G01 X-3.1829 Y0.7799 
G01 X-3.1799 Y0.7829 
G01 X-3.1201 Y0.7829 
G01 X-3.1171 Y0.7799 
G01 X-3.1171 Y0.7201 
G01 X-3.1201 Y0.7171 
G01 X-3.1799 Y0.7171 
G01 X-3.1829 Y0.7201 
G00 Z0.0200 
G00 X-0.1153 Y0.6194 
G01 Z-0.0100 F10.00 
G01 X-0.1153 Y0.6806 
G01 X-0.1194 Y0.6847 
G01 X-0.1806 Y0.6847 
G01 X-0.1847 Y0.6806 
G01 X-0.1847 Y0.6726 
G01 X-0.1924 Y0.6649 
G01 X-0.2554 Y0.6649 
G01 X-0.2631 Y0.6726 
G01 X-0.2631 Y0.6829 
G01 X-0.2671 Y0.6869 
G01 X-0.3329 Y0.6869 
G01 X-0.3369 Y0.6829 
G01 X-0.3369 Y0.6171 
G01 X-0.3329 Y0.6131 
G01 X-0.2671 Y0.6131 
G01 X-0.2631 Y0.6171 
G01 X-0.2631 Y0.6274 
G01 X-0.2554 Y0.6351 
G01 X-0.2446 Y0.6351 
G01 X-0.1924 Y0.6351 
G01 X-0.1847 Y0.6274 
G01 X-0.1847 Y0.6194 
G01 X-0.1806 Y0.6153 
G01 X-0.1194 Y0.6153 
G01 X-0.1153 Y0.6194 
G00 Z0.0200 
G00 X-0.1829 Y0.6201 
G01 Z-0.0100 F10.00 
G01 X-0.1829 Y0.6369 
G01 X-0.2649 Y0.6369 
G01 X-0.2649 Y0.6179 
G01 X-0.2679 Y0.6149 
G01 X-0.3321 Y0.6149 
G01 X-0.3351 Y0.6179 
G01 X-0.3351 Y0.6821 
G01 X-0.3321 Y0.6851 
G01 X-0.2679 Y0.6851 
G01 X-0.2649 Y0.6821 
G01 X-0.2649 Y0.6631 
G01 X-0.1829 Y0.6631 
G01 X-0.1829 Y0.6799 
G01 X-0.1799 Y0.6829 
G01 X-0.1201 Y0.6829 
G01 X-0.1171 Y0.6799 
G01 X-0.1171 Y0.6201 
G01 X-0.1201 Y0.6171 
G01 X-0.1799 Y0.6171 
G01 X-0.1829 Y0.6201 
G00 Z0.0200 
G00 X-0.1153 Y1.0194 
G01 Z-0.0100 F10.00 
G01 X-0.1153 Y1.0806 
G01 X-0.1194 Y1.0847 
G01 X-0.1806 Y1.0847 
G01 X-0.1847 Y1.0806 
G01 X-0.1847 Y1.0194 
G01 X-0.1806 Y1.0153 
G01 X-0.1194 Y1.0153 
G01 X-0.1153 Y1.0194 
G00 Z0.0200 
G00 X-0.1829 Y1.0201 
G01 Z-0.0100 F10.00 
G01 X-0.1829 Y1.0799 
G01 X-0.1799 Y1.0829 
G01 X-0.1201 Y1.0829 
G01 X-0.1171 Y1.0799 
G01 X-0.1171 Y1.0201 
G01 X-0.1201 Y1.0171 
G01 X-0.1799 Y1.0171 
G01 X-0.1829 Y1.0201 
G00 Z0.0200 
G00 X-2.1153 Y0.6194 
G01 Z-0.0100 F10.00 
G01 X-2.1153 Y0.6806 
G01 X-2.1194 Y0.6847 
G01 X-2.1806 Y0.6847 
G01 X-2.1847 Y0.6806 
G01 X-2.1847 Y0.6726 
G01 X-2.1924 Y0.6649 
G01 X-2.2032 Y0.6649 
G01 X-2.2554 Y0.6649 
G01 X-2.2631 Y0.6726 
G01 X-2.2631 Y0.6829 
G01 X-2.2671 Y0.6869 
G01 X-2.3329 Y0.6869 
G01 X-2.3369 Y0.6829 
G01 X-2.3369 Y0.6171 
G01 X-2.3329 Y0.6131 
G01 X-2.2671 Y0.6131 
G01 X-2.2631 Y0.6171 
G01 X-2.2631 Y0.6274 
G01 X-2.2554 Y0.6351 
G01 X-2.2446 Y0.6351 
G01 X-2.1924 Y0.6351 
G01 X-2.1847 Y0.6274 
G01 X-2.1847 Y0.6194 
G01 X-2.1806 Y0.6153 
G01 X-2.1194 Y0.6153 
G01 X-2.1153 Y0.6194 
G00 Z0.0200 
G00 X-2.1829 Y0.6201 
G01 Z-0.0100 F10.00 
G01 X-2.1829 Y0.6369 
G01 X-2.2649 Y0.6369 
G01 X-2.2649 Y0.6179 
G01 X-2.2679 Y0.6149 
G01 X-2.3321 Y0.6149 
G01 X-2.3351 Y0.6179 
G01 X-2.3351 Y0.6821 
G01 X-2.3321 Y0.6851 
G01 X-2.2679 Y0.6851 
G01 X-2.2649 Y0.6821 
G01 X-2.2649 Y0.6631 
G01 X-2.1829 Y0.6631 
G01 X-2.1829 Y0.6799 
G01 X-2.1799 Y0.6829 
G01 X-2.1201 Y0.6829 
G01 X-2.1171 Y0.6799 
G01 X-2.1171 Y0.6201 
G01 X-2.1201 Y0.6171 
G01 X-2.1799 Y0.6171 
G01 X-2.1829 Y0.6201 
G00 Z0.0200 
G00 X-2.1153 Y1.0194 
G01 Z-0.0100 F10.00 
G01 X-2.1153 Y1.0806 
G01 X-2.1194 Y1.0847 
G01 X-2.1806 Y1.0847 
G01 X-2.1847 Y1.0806 
G01 X-2.1847 Y1.0194 
G01 X-2.1806 Y1.0153 
G01 X-2.1194 Y1.0153 
G01 X-2.1153 Y1.0194 
G00 Z0.0200 
G00 X-2.1829 Y1.0201 
G01 Z-0.0100 F10.00 
G01 X-2.1829 Y1.0799 
G01 X-2.1799 Y1.0829 
G01 X-2.1201 Y1.0829 
G01 X-2.1171 Y1.0799 
G01 X-2.1171 Y1.0201 
G01 X-2.1201 Y1.0171 
G01 X-2.1799 Y1.0171 
G01 X-2.1829 Y1.0201 
G00 Z0.0200 
G00 X-3.7416 Y0.9374 
G01 Z-0.0100 F10.00 
G01 X-3.7374 Y0.9416 
G01 X-3.7351 Y0.9470 
G01 X-3.7351 Y0.9610 
G01 X-3.7351 Y1.3274 
G01 X-3.7274 Y1.3351 
G01 X-3.7166 Y1.3351 
G01 X-3.6446 Y1.3351 
G01 X-3.6369 Y1.3274 
G01 X-3.6369 Y1.3171 
G01 X-3.6329 Y1.3131 
G01 X-3.5671 Y1.3131 
G01 X-3.5631 Y1.3171 
G01 X-3.5631 Y1.3829 
G01 X-3.5671 Y1.3869 
G01 X-3.6329 Y1.3869 
G01 X-3.6369 Y1.3829 
G01 X-3.6369 Y1.3726 
G01 X-3.6446 Y1.3649 
G01 X-3.6554 Y1.3649 
G01 X-3.7530 Y1.3649 
G01 X-3.7584 Y1.3626 
G01 X-3.7589 Y1.3622 
G01 X-3.7589 Y1.3622 
G01 X-3.7619 Y1.3592 
G01 X-3.7666 Y1.3545 
G01 X-3.7774 Y1.3545 
G01 X-3.7774 Y1.3545 
G01 X-3.7812 Y1.3583 
G01 X-3.7851 Y1.3622 
G01 X-3.7851 Y1.3730 
G01 X-3.7851 Y1.4274 
G01 X-3.7774 Y1.4351 
G01 X-3.7666 Y1.4351 
G01 X-3.3226 Y1.4351 
G01 X-3.3149 Y1.4274 
G01 X-3.3149 Y1.4166 
G01 X-3.3149 Y1.3946 
G01 X-3.3226 Y1.3869 
G01 X-3.3329 Y1.3869 
G01 X-3.3369 Y1.3829 
G01 X-3.3369 Y1.3171 
G01 X-3.3329 Y1.3131 
G01 X-3.2671 Y1.3131 
G01 X-3.2631 Y1.3171 
G01 X-3.2631 Y1.3829 
G01 X-3.2671 Y1.3869 
G01 X-3.2774 Y1.3869 
G01 X-3.2851 Y1.3946 
G01 X-3.2851 Y1.4054 
G01 X-3.2851 Y1.4530 
G01 X-3.2874 Y1.4584 
G01 X-3.2916 Y1.4626 
G01 X-3.2970 Y1.4649 
G01 X-3.3110 Y1.4649 
G01 X-3.8030 Y1.4649 
G01 X-3.8084 Y1.4626 
G01 X-3.8126 Y1.4584 
G01 X-3.8149 Y1.4530 
G01 X-3.8149 Y1.4390 
G01 X-3.8149 Y1.1726 
G01 X-3.8226 Y1.1649 
G01 X-3.8334 Y1.1649 
G01 X-3.9076 Y1.1649 
G01 X-3.9153 Y1.1726 
G01 X-3.9153 Y1.1806 
G01 X-3.9196 Y1.1850 
G01 X-3.9222 Y1.1860 
G01 X-3.9233 Y1.1886 
G01 X-3.9253 Y1.1906 
G01 X-3.9253 Y1.1935 
G01 X-3.9264 Y1.1961 
G01 X-3.9253 Y1.1987 
G01 X-3.9253 Y1.2015 
G01 X-3.9233 Y1.2035 
G01 X-3.9222 Y1.2061 
G01 X-3.9196 Y1.2072 
G01 X-3.9176 Y1.2091 
G01 X-3.9148 Y1.2091 
G01 X-3.9138 Y1.2096 
G01 X-3.9096 Y1.2138 
G01 X-3.9073 Y1.2193 
G01 X-3.9073 Y1.2807 
G01 X-3.9096 Y1.2862 
G01 X-3.9120 Y1.2887 
G01 X-3.9124 Y1.2887 
G01 X-3.9144 Y1.2907 
G01 X-3.9170 Y1.2917 
G01 X-3.9181 Y1.2943 
G01 X-3.9201 Y1.2964 
G01 X-3.9201 Y1.2991 
G01 X-3.9212 Y1.3017 
G01 X-3.9201 Y1.3044 
G01 X-3.9201 Y1.4826 
G01 X-3.9212 Y1.4852 
G01 X-3.9201 Y1.4878 
G01 X-3.9201 Y1.4906 
G01 X-3.9181 Y1.4926 
G01 X-3.9170 Y1.4952 
G01 X-3.9144 Y1.4963 
G01 X-3.9124 Y1.4983 
G01 X-3.9096 Y1.4983 
G01 X-3.9046 Y1.5004 
G01 X-3.9004 Y1.5046 
G01 X-3.8981 Y1.5100 
G01 X-3.8981 Y1.5900 
G01 X-3.9004 Y1.5954 
G01 X-3.9046 Y1.5996 
G01 X-3.9100 Y1.6019 
G01 X-3.9900 Y1.6019 
G01 X-3.9954 Y1.5996 
G01 X-3.9996 Y1.5954 
G01 X-4.0019 Y1.5900 
G01 X-4.0019 Y1.5100 
G01 X-3.9996 Y1.5046 
G01 X-3.9954 Y1.5004 
G01 X-3.9904 Y1.4983 
G01 X-3.9876 Y1.4983 
G01 X-3.9856 Y1.4963 
G01 X-3.9830 Y1.4952 
G01 X-3.9819 Y1.4926 
G01 X-3.9799 Y1.4906 
G01 X-3.9799 Y1.4878 
G01 X-3.9788 Y1.4852 
G01 X-3.9799 Y1.4826 
G01 X-3.9799 Y1.3044 
G01 X-3.9788 Y1.3017 
G01 X-3.9799 Y1.2991 
G01 X-3.9799 Y1.2964 
G01 X-3.9819 Y1.2943 
G01 X-3.9830 Y1.2917 
G01 X-3.9856 Y1.2907 
G01 X-3.9876 Y1.2887 
G01 X-3.9879 Y1.2887 
G01 X-3.9904 Y1.2862 
G01 X-3.9927 Y1.2807 
G01 X-3.9927 Y1.2193 
G01 X-3.9904 Y1.2138 
G01 X-3.9862 Y1.2096 
G01 X-3.9852 Y1.2091 
G01 X-3.9823 Y1.2091 
G01 X-3.9804 Y1.2072 
G01 X-3.9778 Y1.2061 
G01 X-3.9767 Y1.2035 
G01 X-3.9747 Y1.2015 
G01 X-3.9747 Y1.1987 
G01 X-3.9736 Y1.1961 
G01 X-3.9747 Y1.1935 
G01 X-3.9747 Y1.1906 
G01 X-3.9767 Y1.1886 
G01 X-3.9777 Y1.1860 
G01 X-3.9804 Y1.1850 
G01 X-3.9847 Y1.1806 
G01 X-3.9847 Y1.1194 
G01 X-3.9806 Y1.1153 
G01 X-3.9194 Y1.1153 
G01 X-3.9153 Y1.1194 
G01 X-3.9153 Y1.1274 
G01 X-3.9076 Y1.1351 
G01 X-3.8968 Y1.1351 
G01 X-3.7970 Y1.1351 
G01 X-3.7916 Y1.1374 
G01 X-3.7911 Y1.1378 
G01 X-3.7911 Y1.1378 
G01 X-3.7881 Y1.1408 
G01 X-3.7834 Y1.1455 
G01 X-3.7726 Y1.1455 
G01 X-3.7726 Y1.1455 
G01 X-3.7688 Y1.1417 
G01 X-3.7649 Y1.1378 
G01 X-3.7649 Y1.1270 
G01 X-3.7649 Y0.9726 
G01 X-3.7726 Y0.9649 
G01 X-3.7834 Y0.9649 
G01 X-3.9076 Y0.9649 
G01 X-3.9153 Y0.9726 
G01 X-3.9153 Y0.9806 
G01 X-3.9194 Y0.9847 
G01 X-3.9806 Y0.9847 
G01 X-3.9847 Y0.9806 
G01 X-3.9847 Y0.9194 
G01 X-3.9806 Y0.9153 
G01 X-3.9194 Y0.9153 
G01 X-3.9153 Y0.9194 
G01 X-3.9153 Y0.9274 
G01 X-3.9076 Y0.9351 
G01 X-3.8968 Y0.9351 
G01 X-3.7470 Y0.9351 
G01 X-3.7416 Y0.9374 
G00 Z0.0200 
G00 X-3.9079 Y1.5891 
G01 Z-0.0100 F10.00 
G01 X-3.9079 Y1.5109 
G01 X-3.9109 Y1.5079 
G01 X-3.9299 Y1.5079 
G01 X-3.9299 Y1.2829 
G01 X-3.9201 Y1.2829 
G01 X-3.9171 Y1.2799 
G01 X-3.9171 Y1.2201 
G01 X-3.9201 Y1.2171 
G01 X-3.9799 Y1.2171 
G01 X-3.9829 Y1.2201 
G01 X-3.9829 Y1.2799 
G01 X-3.9799 Y1.2829 
G01 X-3.9701 Y1.2829 
G01 X-3.9701 Y1.5079 
G01 X-3.9891 Y1.5079 
G01 X-3.9921 Y1.5109 
G01 X-3.9921 Y1.5891 
G01 X-3.9891 Y1.5921 
G01 X-3.9109 Y1.5921 
G01 X-3.9079 Y1.5891 
G00 Z0.0200 
G00 X-3.9829 Y0.9201 
G01 Z-0.0100 F10.00 
G01 X-3.9829 Y0.9799 
G01 X-3.9799 Y0.9829 
G01 X-3.9201 Y0.9829 
G01 X-3.9171 Y0.9799 
G01 X-3.9171 Y0.9631 
G01 X-3.7631 Y0.9631 
G01 X-3.7631 Y1.3446 
G01 X-3.7631 Y1.3554 
G01 X-3.7554 Y1.3631 
G01 X-3.6351 Y1.3631 
G01 X-3.6351 Y1.3821 
G01 X-3.6321 Y1.3851 
G01 X-3.5679 Y1.3851 
G01 X-3.5649 Y1.3821 
G01 X-3.5649 Y1.3179 
G01 X-3.5679 Y1.3149 
G01 X-3.6321 Y1.3149 
G01 X-3.6351 Y1.3179 
G01 X-3.6351 Y1.3369 
G01 X-3.7369 Y1.3369 
G01 X-3.7369 Y0.9554 
G01 X-3.7369 Y0.9446 
G01 X-3.7446 Y0.9369 
G01 X-3.9171 Y0.9369 
G01 X-3.9171 Y0.9201 
G01 X-3.9201 Y0.9171 
G01 X-3.9799 Y0.9171 
G01 X-3.9829 Y0.9201 
G00 Z0.0200 
G00 X-3.8131 Y1.4554 
G01 Z-0.0100 F10.00 
G01 X-3.8054 Y1.4631 
G01 X-3.7946 Y1.4631 
G01 X-3.3054 Y1.4631 
G01 X-3.2946 Y1.4631 
G01 X-3.2869 Y1.4554 
G01 X-3.2869 Y1.3851 
G01 X-3.2679 Y1.3851 
G01 X-3.2649 Y1.3821 
G01 X-3.2649 Y1.3179 
G01 X-3.2679 Y1.3149 
G01 X-3.3321 Y1.3149 
G01 X-3.3351 Y1.3179 
G01 X-3.3351 Y1.3821 
G01 X-3.3321 Y1.3851 
G01 X-3.3131 Y1.3851 
G01 X-3.3131 Y1.4369 
G01 X-3.7869 Y1.4369 
G01 X-3.7869 Y1.1554 
G01 X-3.7869 Y1.1446 
G01 X-3.7946 Y1.1369 
G01 X-3.9171 Y1.1369 
G01 X-3.9171 Y1.1201 
G01 X-3.9201 Y1.1171 
G01 X-3.9799 Y1.1171 
G01 X-3.9829 Y1.1201 
G01 X-3.9829 Y1.1799 
G01 X-3.9799 Y1.1829 
G01 X-3.9201 Y1.1829 
G01 X-3.9171 Y1.1799 
G01 X-3.9171 Y1.1631 
G01 X-3.8131 Y1.1631 
G01 X-3.8131 Y1.4554 
G00 Z0.0200 
G00 X-0.9153 Y0.6194 
G01 Z-0.0100 F10.00 
G01 X-0.9153 Y0.6274 
G01 X-0.9076 Y0.6351 
G01 X-0.8968 Y0.6351 
G01 X-0.6446 Y0.6351 
G01 X-0.6369 Y0.6274 
G01 X-0.6369 Y0.6171 
G01 X-0.6329 Y0.6131 
G01 X-0.5671 Y0.6131 
G01 X-0.5631 Y0.6171 
G01 X-0.5631 Y0.6829 
G01 X-0.5671 Y0.6869 
G01 X-0.6329 Y0.6869 
G01 X-0.6369 Y0.6829 
G01 X-0.6369 Y0.6726 
G01 X-0.6446 Y0.6649 
G01 X-0.6554 Y0.6649 
G01 X-0.9076 Y0.6649 
G01 X-0.9153 Y0.6726 
G01 X-0.9153 Y0.6806 
G01 X-0.9194 Y0.6847 
G01 X-0.9806 Y0.6847 
G01 X-0.9847 Y0.6806 
G01 X-0.9847 Y0.6194 
G01 X-0.9806 Y0.6153 
G01 X-0.9194 Y0.6153 
G01 X-0.9153 Y0.6194 
G00 Z0.0200 
G00 X-0.5649 Y0.6821 
G01 Z-0.0100 F10.00 
G01 X-0.5649 Y0.6179 
G01 X-0.5679 Y0.6149 
G01 X-0.6321 Y0.6149 
G01 X-0.6351 Y0.6179 
G01 X-0.6351 Y0.6369 
G01 X-0.9171 Y0.6369 
G01 X-0.9171 Y0.6201 
G01 X-0.9201 Y0.6171 
G01 X-0.9799 Y0.6171 
G01 X-0.9829 Y0.6201 
G01 X-0.9829 Y0.6799 
G01 X-0.9799 Y0.6829 
G01 X-0.9201 Y0.6829 
G01 X-0.9171 Y0.6799 
G01 X-0.9171 Y0.6631 
G01 X-0.6351 Y0.6631 
G01 X-0.6351 Y0.6821 
G01 X-0.6321 Y0.6851 
G01 X-0.5679 Y0.6851 
G01 X-0.5649 Y0.6821 
G00 Z0.0200 
G00 X-0.9153 Y0.8806 
G01 Z-0.0100 F10.00 
G01 X-0.9194 Y0.8847 
G01 X-0.9806 Y0.8847 
G01 X-0.9847 Y0.8806 
G01 X-0.9847 Y0.8194 
G01 X-0.9806 Y0.8153 
G01 X-0.9194 Y0.8153 
G01 X-0.9153 Y0.8194 
G01 X-0.9153 Y0.8806 
G00 Z0.0200 
G00 X-0.9829 Y0.8201 
G01 Z-0.0100 F10.00 
G01 X-0.9829 Y0.8799 
G01 X-0.9799 Y0.8829 
G01 X-0.9201 Y0.8829 
G01 X-0.9171 Y0.8799 
G01 X-0.9171 Y0.8201 
G01 X-0.9201 Y0.8171 
G01 X-0.9799 Y0.8171 
G01 X-0.9829 Y0.8201 
G00 Z0.0200 
G00 X-0.9153 Y1.0806 
G01 Z-0.0100 F10.00 
G01 X-0.9194 Y1.0847 
G01 X-0.9806 Y1.0847 
G01 X-0.9847 Y1.0806 
G01 X-0.9847 Y1.0194 
G01 X-0.9806 Y1.0153 
G01 X-0.9194 Y1.0153 
G01 X-0.9153 Y1.0194 
G01 X-0.9153 Y1.0806 
G00 Z0.0200 
G00 X-0.9829 Y1.0201 
G01 Z-0.0100 F10.00 
G01 X-0.9829 Y1.0799 
G01 X-0.9799 Y1.0829 
G01 X-0.9201 Y1.0829 
G01 X-0.9171 Y1.0799 
G01 X-0.9171 Y1.0201 
G01 X-0.9201 Y1.0171 
G01 X-0.9799 Y1.0171 
G01 X-0.9829 Y1.0201 
G00 Z0.0200 
G00 X-2.9153 Y0.6194 
G01 Z-0.0100 F10.00 
G01 X-2.9153 Y0.6274 
G01 X-2.9076 Y0.6351 
G01 X-2.8968 Y0.6351 
G01 X-2.6446 Y0.6351 
G01 X-2.6369 Y0.6274 
G01 X-2.6369 Y0.6171 
G01 X-2.6329 Y0.6131 
G01 X-2.5671 Y0.6131 
G01 X-2.5631 Y0.6171 
G01 X-2.5631 Y0.6829 
G01 X-2.5671 Y0.6869 
G01 X-2.6329 Y0.6869 
G01 X-2.6369 Y0.6829 
G01 X-2.6369 Y0.6726 
G01 X-2.6446 Y0.6649 
G01 X-2.6554 Y0.6649 
G01 X-2.9076 Y0.6649 
G01 X-2.9153 Y0.6726 
G01 X-2.9153 Y0.6806 
G01 X-2.9194 Y0.6847 
G01 X-2.9806 Y0.6847 
G01 X-2.9847 Y0.6806 
G01 X-2.9847 Y0.6194 
G01 X-2.9806 Y0.6153 
G01 X-2.9194 Y0.6153 
G01 X-2.9153 Y0.6194 
G00 Z0.0200 
G00 X-2.5649 Y0.6821 
G01 Z-0.0100 F10.00 
G01 X-2.5649 Y0.6179 
G01 X-2.5679 Y0.6149 
G01 X-2.6321 Y0.6149 
G01 X-2.6351 Y0.6179 
G01 X-2.6351 Y0.6369 
G01 X-2.9171 Y0.6369 
G01 X-2.9171 Y0.6201 
G01 X-2.9201 Y0.6171 
G01 X-2.9799 Y0.6171 
G01 X-2.9829 Y0.6201 
G01 X-2.9829 Y0.6799 
G01 X-2.9799 Y0.6829 
G01 X-2.9201 Y0.6829 
G01 X-2.9171 Y0.6799 
G01 X-2.9171 Y0.6631 
G01 X-2.6351 Y0.6631 
G01 X-2.6351 Y0.6821 
G01 X-2.6321 Y0.6851 
G01 X-2.5679 Y0.6851 
G01 X-2.5649 Y0.6821 
G00 Z0.0200 
G00 X-2.9153 Y0.8806 
G01 Z-0.0100 F10.00 
G01 X-2.9194 Y0.8847 
G01 X-2.9806 Y0.8847 
G01 X-2.9847 Y0.8806 
G01 X-2.9847 Y0.8194 
G01 X-2.9806 Y0.8153 
G01 X-2.9194 Y0.8153 
G01 X-2.9153 Y0.8194 
G01 X-2.9153 Y0.8806 
G00 Z0.0200 
G00 X-2.9829 Y0.8201 
G01 Z-0.0100 F10.00 
G01 X-2.9829 Y0.8799 
