( This gcode generated by C:/Program Files (x86)/Eagle/ulp/pcb-gcode.ulp )
( Copyright 2005 by John Johnson. See readme.txt for licensing terms. )

( This file generated from the board R:/projects/svn/eagle/nix2/nix2-driver.brd )
( This file generated 1/10/2011 9:53:10 PM )

G20

G90
G00 Z0.5000 
G00 X0 Y0
M03
G04 P3.000000
G00 Z0.0200 
G00 X0.5073 Y0.0631 
G01 Z-0.0100 F10.00 
G01 X0.4927 Y0.0631 
G01 X0.4791 Y0.0687 
G01 X0.4687 Y0.0791 
G01 X0.4631 Y0.0927 
G01 X0.4631 Y0.1073 
G01 X0.4687 Y0.1209 
G01 X0.4791 Y0.1313 
G01 X0.4927 Y0.1369 
G01 X0.5073 Y0.1369 
G01 X0.5209 Y0.1313 
G01 X0.5313 Y0.1209 
G01 X0.5369 Y0.1073 
G01 X0.5369 Y0.0927 
G01 X0.5313 Y0.0791 
G01 X0.5209 Y0.0687 
G01 X0.5073 Y0.0631 
G00 Z0.0200 
G00 X0.5351 Y0.0930 
G01 Z-0.0100 F10.00 
G01 X0.5351 Y0.1070 
G01 X0.5297 Y0.1199 
G01 X0.5199 Y0.1297 
G01 X0.5070 Y0.1351 
G01 X0.4930 Y0.1351 
G01 X0.4801 Y0.1297 
G01 X0.4702 Y0.1199 
G01 X0.4649 Y0.1070 
G01 X0.4649 Y0.0930 
G01 X0.4702 Y0.0801 
G01 X0.4801 Y0.0702 
G01 X0.4930 Y0.0649 
G01 X0.5070 Y0.0649 
G01 X0.5199 Y0.0702 
G01 X0.5297 Y0.0801 
G01 X0.5351 Y0.0930 
G00 Z0.0200 
G00 X2.5073 Y0.0631 
G01 Z-0.0100 F10.00 
G01 X2.4927 Y0.0631 
G01 X2.4791 Y0.0687 
G01 X2.4687 Y0.0791 
G01 X2.4631 Y0.0927 
G01 X2.4631 Y0.1073 
G01 X2.4687 Y0.1209 
G01 X2.4791 Y0.1313 
G01 X2.4927 Y0.1369 
G01 X2.5073 Y0.1369 
G01 X2.5209 Y0.1313 
G01 X2.5313 Y0.1209 
G01 X2.5369 Y0.1073 
G01 X2.5369 Y0.0927 
G01 X2.5313 Y0.0791 
G01 X2.5209 Y0.0687 
G01 X2.5073 Y0.0631 
G00 Z0.0200 
G00 X2.5351 Y0.0930 
G01 Z-0.0100 F10.00 
G01 X2.5351 Y0.1070 
G01 X2.5297 Y0.1199 
G01 X2.5199 Y0.1297 
G01 X2.5070 Y0.1351 
G01 X2.4930 Y0.1351 
G01 X2.4801 Y0.1297 
G01 X2.4702 Y0.1199 
G01 X2.4649 Y0.1070 
G01 X2.4649 Y0.0930 
G01 X2.4702 Y0.0801 
G01 X2.4801 Y0.0702 
G01 X2.4930 Y0.0649 
G01 X2.5070 Y0.0649 
G01 X2.5199 Y0.0702 
G01 X2.5297 Y0.0801 
G01 X2.5351 Y0.0930 
G00 Z0.0200 
G00 X0.9794 Y1.5060 
G01 Z-0.0100 F10.00 
G01 X0.9603 Y1.4981 
G01 X0.9397 Y1.4981 
G01 X0.9206 Y1.5060 
G01 X0.9060 Y1.5206 
G01 X0.8981 Y1.5397 
G01 X0.8981 Y1.5603 
G01 X0.9060 Y1.5794 
G01 X0.9206 Y1.5940 
G01 X0.9397 Y1.6019 
G01 X0.9603 Y1.6019 
G01 X0.9794 Y1.5940 
G01 X0.9940 Y1.5794 
G01 X1.0019 Y1.5603 
G01 X1.0019 Y1.5397 
G01 X0.9940 Y1.5206 
G01 X0.9794 Y1.5060 
G00 Z0.0200 
G00 X0.9921 Y1.5416 
G01 Z-0.0100 F10.00 
G01 X0.9921 Y1.5584 
G01 X0.9857 Y1.5738 
G01 X0.9738 Y1.5857 
G01 X0.9584 Y1.5921 
G01 X0.9416 Y1.5921 
G01 X0.9262 Y1.5857 
G01 X0.9143 Y1.5738 
G01 X0.9079 Y1.5584 
G01 X0.9079 Y1.5416 
G01 X0.9143 Y1.5262 
G01 X0.9262 Y1.5143 
G01 X0.9416 Y1.5079 
G01 X0.9584 Y1.5079 
G01 X0.9738 Y1.5143 
G01 X0.9857 Y1.5262 
G01 X0.9921 Y1.5416 
G00 Z0.0200 
G00 X1.9794 Y1.5060 
G01 Z-0.0100 F10.00 
G01 X1.9603 Y1.4981 
G01 X1.9397 Y1.4981 
G01 X1.9206 Y1.5060 
G01 X1.9060 Y1.5206 
G01 X1.8981 Y1.5397 
G01 X1.8981 Y1.5603 
G01 X1.9060 Y1.5794 
G01 X1.9206 Y1.5940 
G01 X1.9397 Y1.6019 
G01 X1.9603 Y1.6019 
G01 X1.9794 Y1.5940 
G01 X1.9940 Y1.5794 
G01 X2.0019 Y1.5603 
G01 X2.0019 Y1.5397 
G01 X1.9940 Y1.5206 
G01 X1.9794 Y1.5060 
G00 Z0.0200 
G00 X1.9921 Y1.5416 
G01 Z-0.0100 F10.00 
G01 X1.9921 Y1.5584 
G01 X1.9857 Y1.5738 
G01 X1.9738 Y1.5857 
G01 X1.9584 Y1.5921 
G01 X1.9416 Y1.5921 
G01 X1.9262 Y1.5857 
G01 X1.9143 Y1.5738 
G01 X1.9079 Y1.5584 
G01 X1.9079 Y1.5416 
G01 X1.9143 Y1.5262 
G01 X1.9262 Y1.5143 
G01 X1.9416 Y1.5079 
G01 X1.9584 Y1.5079 
G01 X1.9738 Y1.5143 
G01 X1.9857 Y1.5262 
G01 X1.9921 Y1.5416 
G00 Z0.0200 
G00 X2.9794 Y1.5060 
G01 Z-0.0100 F10.00 
G01 X2.9603 Y1.4981 
G01 X2.9397 Y1.4981 
G01 X2.9206 Y1.5060 
G01 X2.9060 Y1.5206 
G01 X2.8981 Y1.5397 
G01 X2.8981 Y1.5603 
G01 X2.9060 Y1.5794 
G01 X2.9206 Y1.5940 
G01 X2.9397 Y1.6019 
G01 X2.9603 Y1.6019 
G01 X2.9794 Y1.5940 
G01 X2.9940 Y1.5794 
G01 X3.0019 Y1.5603 
G01 X3.0019 Y1.5397 
G01 X2.9940 Y1.5206 
G01 X2.9794 Y1.5060 
G00 Z0.0200 
G00 X2.9921 Y1.5416 
G01 Z-0.0100 F10.00 
G01 X2.9921 Y1.5584 
G01 X2.9857 Y1.5738 
G01 X2.9738 Y1.5857 
G01 X2.9584 Y1.5921 
G01 X2.9416 Y1.5921 
G01 X2.9262 Y1.5857 
G01 X2.9143 Y1.5738 
G01 X2.9079 Y1.5584 
G01 X2.9079 Y1.5416 
G01 X2.9143 Y1.5262 
G01 X2.9262 Y1.5143 
G01 X2.9416 Y1.5079 
G01 X2.9584 Y1.5079 
G01 X2.9738 Y1.5143 
G01 X2.9857 Y1.5262 
G01 X2.9921 Y1.5416 
G00 Z0.0200 
G00 X3.9794 Y1.5060 
G01 Z-0.0100 F10.00 
G01 X3.9603 Y1.4981 
G01 X3.9397 Y1.4981 
G01 X3.9206 Y1.5060 
G01 X3.9060 Y1.5206 
G01 X3.8981 Y1.5397 
G01 X3.8981 Y1.5603 
G01 X3.9060 Y1.5794 
G01 X3.9206 Y1.5940 
G01 X3.9397 Y1.6019 
G01 X3.9603 Y1.6019 
G01 X3.9794 Y1.5940 
G01 X3.9940 Y1.5794 
G01 X4.0019 Y1.5603 
G01 X4.0019 Y1.5397 
G01 X3.9940 Y1.5206 
G01 X3.9794 Y1.5060 
G00 Z0.0200 
G00 X3.9921 Y1.5416 
G01 Z-0.0100 F10.00 
G01 X3.9921 Y1.5584 
G01 X3.9857 Y1.5738 
G01 X3.9738 Y1.5857 
G01 X3.9584 Y1.5921 
G01 X3.9416 Y1.5921 
G01 X3.9262 Y1.5857 
G01 X3.9143 Y1.5738 
G01 X3.9079 Y1.5584 
G01 X3.9079 Y1.5416 
G01 X3.9143 Y1.5262 
G01 X3.9262 Y1.5143 
G01 X3.9416 Y1.5079 
G01 X3.9584 Y1.5079 
G01 X3.9738 Y1.5143 
G01 X3.9857 Y1.5262 
G01 X3.9921 Y1.5416 
G00 Z0.0200 
G00 X0.3073 Y1.3131 
G01 Z-0.0100 F10.00 
G01 X0.2927 Y1.3131 
G01 X0.2791 Y1.3187 
G01 X0.2687 Y1.3291 
G01 X0.2631 Y1.3427 
G01 X0.2631 Y1.3573 
G01 X0.2687 Y1.3709 
G01 X0.2791 Y1.3813 
G01 X0.2927 Y1.3869 
G01 X0.3073 Y1.3869 
G01 X0.3209 Y1.3813 
G01 X0.3313 Y1.3709 
G01 X0.3369 Y1.3573 
G01 X0.3369 Y1.3427 
G01 X0.3313 Y1.3291 
G01 X0.3209 Y1.3187 
G01 X0.3073 Y1.3131 
G00 Z0.0200 
G00 X0.3351 Y1.3430 
G01 Z-0.0100 F10.00 
G01 X0.3351 Y1.3570 
G01 X0.3297 Y1.3699 
G01 X0.3199 Y1.3797 
G01 X0.3070 Y1.3851 
G01 X0.2930 Y1.3851 
G01 X0.2801 Y1.3797 
G01 X0.2702 Y1.3699 
G01 X0.2649 Y1.3570 
G01 X0.2649 Y1.3430 
G01 X0.2702 Y1.3301 
G01 X0.2801 Y1.3202 
G01 X0.2930 Y1.3149 
G01 X0.3070 Y1.3149 
G01 X0.3199 Y1.3202 
G01 X0.3297 Y1.3301 
G01 X0.3351 Y1.3430 
G00 Z0.0200 
G00 X0.3073 Y1.1131 
G01 Z-0.0100 F10.00 
G01 X0.2927 Y1.1131 
G01 X0.2791 Y1.1187 
G01 X0.2687 Y1.1291 
G01 X0.2631 Y1.1427 
G01 X0.2631 Y1.1573 
G01 X0.2687 Y1.1709 
G01 X0.2791 Y1.1813 
G01 X0.2927 Y1.1869 
G01 X0.3073 Y1.1869 
G01 X0.3209 Y1.1813 
G01 X0.3313 Y1.1709 
G01 X0.3369 Y1.1573 
G01 X0.3369 Y1.1427 
G01 X0.3313 Y1.1291 
G01 X0.3209 Y1.1187 
G01 X0.3073 Y1.1131 
G00 Z0.0200 
G00 X0.3351 Y1.1430 
G01 Z-0.0100 F10.00 
G01 X0.3351 Y1.1570 
G01 X0.3297 Y1.1699 
G01 X0.3199 Y1.1797 
G01 X0.3070 Y1.1851 
G01 X0.2930 Y1.1851 
G01 X0.2801 Y1.1797 
G01 X0.2702 Y1.1699 
G01 X0.2649 Y1.1570 
G01 X0.2649 Y1.1430 
G01 X0.2702 Y1.1301 
G01 X0.2801 Y1.1202 
G01 X0.2930 Y1.1149 
G01 X0.3070 Y1.1149 
G01 X0.3199 Y1.1202 
G01 X0.3297 Y1.1301 
G01 X0.3351 Y1.1430 
G00 Z0.0200 
G00 X0.3073 Y0.9131 
G01 Z-0.0100 F10.00 
G01 X0.2927 Y0.9131 
G01 X0.2791 Y0.9187 
G01 X0.2687 Y0.9291 
G01 X0.2631 Y0.9427 
G01 X0.2631 Y0.9573 
G01 X0.2687 Y0.9709 
G01 X0.2791 Y0.9813 
G01 X0.2927 Y0.9869 
G01 X0.3073 Y0.9869 
G01 X0.3209 Y0.9813 
G01 X0.3313 Y0.9709 
G01 X0.3369 Y0.9573 
G01 X0.3369 Y0.9427 
G01 X0.3313 Y0.9291 
G01 X0.3209 Y0.9187 
G01 X0.3073 Y0.9131 
G00 Z0.0200 
G00 X0.3351 Y0.9430 
G01 Z-0.0100 F10.00 
G01 X0.3351 Y0.9570 
G01 X0.3297 Y0.9699 
G01 X0.3199 Y0.9797 
G01 X0.3070 Y0.9851 
G01 X0.2930 Y0.9851 
G01 X0.2801 Y0.9797 
G01 X0.2702 Y0.9699 
G01 X0.2649 Y0.9570 
G01 X0.2649 Y0.9430 
G01 X0.2702 Y0.9301 
G01 X0.2801 Y0.9202 
G01 X0.2930 Y0.9149 
G01 X0.3070 Y0.9149 
G01 X0.3199 Y0.9202 
G01 X0.3297 Y0.9301 
G01 X0.3351 Y0.9430 
G00 Z0.0200 
G00 X0.3073 Y0.7131 
G01 Z-0.0100 F10.00 
G01 X0.2927 Y0.7131 
G01 X0.2791 Y0.7187 
G01 X0.2687 Y0.7291 
G01 X0.2631 Y0.7427 
G01 X0.2631 Y0.7573 
G01 X0.2687 Y0.7709 
G01 X0.2791 Y0.7813 
G01 X0.2927 Y0.7869 
G01 X0.3073 Y0.7869 
G01 X0.3209 Y0.7813 
G01 X0.3313 Y0.7709 
G01 X0.3369 Y0.7573 
G01 X0.3369 Y0.7427 
G01 X0.3313 Y0.7291 
G01 X0.3209 Y0.7187 
G01 X0.3073 Y0.7131 
G00 Z0.0200 
G00 X0.3351 Y0.7430 
G01 Z-0.0100 F10.00 
G01 X0.3351 Y0.7570 
G01 X0.3297 Y0.7699 
G01 X0.3199 Y0.7797 
G01 X0.3070 Y0.7851 
G01 X0.2930 Y0.7851 
G01 X0.2801 Y0.7797 
G01 X0.2702 Y0.7699 
G01 X0.2649 Y0.7570 
G01 X0.2649 Y0.7430 
G01 X0.2702 Y0.7301 
G01 X0.2801 Y0.7202 
G01 X0.2930 Y0.7149 
G01 X0.3070 Y0.7149 
G01 X0.3199 Y0.7202 
G01 X0.3297 Y0.7301 
G01 X0.3351 Y0.7430 
G00 Z0.0200 
G00 X0.3073 Y0.6131 
G01 Z-0.0100 F10.00 
G01 X0.2927 Y0.6131 
G01 X0.2791 Y0.6187 
G01 X0.2687 Y0.6291 
G01 X0.2631 Y0.6427 
G01 X0.2631 Y0.6573 
G01 X0.2687 Y0.6709 
G01 X0.2791 Y0.6813 
G01 X0.2927 Y0.6869 
G01 X0.3073 Y0.6869 
G01 X0.3209 Y0.6813 
G01 X0.3313 Y0.6709 
G01 X0.3369 Y0.6573 
G01 X0.3369 Y0.6427 
G01 X0.3313 Y0.6291 
G01 X0.3209 Y0.6187 
G01 X0.3073 Y0.6131 
G00 Z0.0200 
G00 X0.3351 Y0.6430 
G01 Z-0.0100 F10.00 
G01 X0.3351 Y0.6570 
G01 X0.3297 Y0.6699 
G01 X0.3199 Y0.6797 
G01 X0.3070 Y0.6851 
G01 X0.2930 Y0.6851 
G01 X0.2801 Y0.6797 
G01 X0.2702 Y0.6699 
G01 X0.2649 Y0.6570 
G01 X0.2649 Y0.6430 
G01 X0.2702 Y0.6301 
G01 X0.2801 Y0.6202 
G01 X0.2930 Y0.6149 
G01 X0.3070 Y0.6149 
G01 X0.3199 Y0.6202 
G01 X0.3297 Y0.6301 
G01 X0.3351 Y0.6430 
G00 Z0.0200 
G00 X0.3073 Y0.8131 
G01 Z-0.0100 F10.00 
G01 X0.2927 Y0.8131 
G01 X0.2791 Y0.8187 
G01 X0.2687 Y0.8291 
G01 X0.2631 Y0.8427 
G01 X0.2631 Y0.8573 
G01 X0.2687 Y0.8709 
G01 X0.2791 Y0.8813 
G01 X0.2927 Y0.8869 
G01 X0.3073 Y0.8869 
G01 X0.3209 Y0.8813 
G01 X0.3313 Y0.8709 
G01 X0.3369 Y0.8573 
G01 X0.3369 Y0.8427 
G01 X0.3313 Y0.8291 
G01 X0.3209 Y0.8187 
G01 X0.3073 Y0.8131 
G00 Z0.0200 
G00 X0.3351 Y0.8430 
G01 Z-0.0100 F10.00 
G01 X0.3351 Y0.8570 
G01 X0.3297 Y0.8699 
G01 X0.3199 Y0.8797 
G01 X0.3070 Y0.8851 
G01 X0.2930 Y0.8851 
G01 X0.2801 Y0.8797 
G01 X0.2702 Y0.8699 
G01 X0.2649 Y0.8570 
G01 X0.2649 Y0.8430 
G01 X0.2702 Y0.8301 
G01 X0.2801 Y0.8202 
G01 X0.2930 Y0.8149 
G01 X0.3070 Y0.8149 
G01 X0.3199 Y0.8202 
G01 X0.3297 Y0.8301 
G01 X0.3351 Y0.8430 
G00 Z0.0200 
G00 X0.3073 Y1.0131 
G01 Z-0.0100 F10.00 
G01 X0.2927 Y1.0131 
G01 X0.2791 Y1.0187 
G01 X0.2687 Y1.0291 
G01 X0.2631 Y1.0427 
G01 X0.2631 Y1.0573 
G01 X0.2687 Y1.0709 
G01 X0.2791 Y1.0813 
G01 X0.2927 Y1.0869 
G01 X0.3073 Y1.0869 
G01 X0.3209 Y1.0813 
G01 X0.3313 Y1.0709 
G01 X0.3369 Y1.0573 
G01 X0.3369 Y1.0427 
G01 X0.3313 Y1.0291 
G01 X0.3209 Y1.0187 
G01 X0.3073 Y1.0131 
G00 Z0.0200 
G00 X0.3351 Y1.0430 
G01 Z-0.0100 F10.00 
G01 X0.3351 Y1.0570 
G01 X0.3297 Y1.0699 
G01 X0.3199 Y1.0797 
G01 X0.3070 Y1.0851 
G01 X0.2930 Y1.0851 
G01 X0.2801 Y1.0797 
G01 X0.2702 Y1.0699 
G01 X0.2649 Y1.0570 
G01 X0.2649 Y1.0430 
G01 X0.2702 Y1.0301 
G01 X0.2801 Y1.0202 
G01 X0.2930 Y1.0149 
G01 X0.3070 Y1.0149 
G01 X0.3199 Y1.0202 
G01 X0.3297 Y1.0301 
G01 X0.3351 Y1.0430 
G00 Z0.0200 
G00 X0.3073 Y1.2131 
G01 Z-0.0100 F10.00 
G01 X0.2927 Y1.2131 
G01 X0.2791 Y1.2187 
G01 X0.2687 Y1.2291 
G01 X0.2631 Y1.2427 
G01 X0.2631 Y1.2573 
G01 X0.2687 Y1.2709 
G01 X0.2791 Y1.2813 
G01 X0.2927 Y1.2869 
G01 X0.3073 Y1.2869 
G01 X0.3209 Y1.2813 
G01 X0.3313 Y1.2709 
G01 X0.3369 Y1.2573 
G01 X0.3369 Y1.2427 
G01 X0.3313 Y1.2291 
G01 X0.3209 Y1.2187 
G01 X0.3073 Y1.2131 
G00 Z0.0200 
G00 X0.3351 Y1.2430 
G01 Z-0.0100 F10.00 
G01 X0.3351 Y1.2570 
G01 X0.3297 Y1.2699 
G01 X0.3199 Y1.2797 
G01 X0.3070 Y1.2851 
G01 X0.2930 Y1.2851 
G01 X0.2801 Y1.2797 
G01 X0.2702 Y1.2699 
G01 X0.2649 Y1.2570 
G01 X0.2649 Y1.2430 
G01 X0.2702 Y1.2301 
G01 X0.2801 Y1.2202 
G01 X0.2930 Y1.2149 
G01 X0.3070 Y1.2149 
G01 X0.3199 Y1.2202 
G01 X0.3297 Y1.2301 
G01 X0.3351 Y1.2430 
G00 Z0.0200 
G00 X1.1569 Y1.2153 
G01 Z-0.0100 F10.00 
G01 X1.1431 Y1.2153 
G01 X1.1303 Y1.2206 
G01 X1.1206 Y1.2303 
G01 X1.1153 Y1.2431 
G01 X1.1153 Y1.2569 
G01 X1.1206 Y1.2696 
G01 X1.1303 Y1.2794 
G01 X1.1431 Y1.2847 
G01 X1.1569 Y1.2847 
G01 X1.1696 Y1.2794 
G01 X1.1794 Y1.2696 
G01 X1.1847 Y1.2569 
G01 X1.1847 Y1.2431 
G01 X1.1794 Y1.2303 
G01 X1.1696 Y1.2206 
G01 X1.1569 Y1.2153 
G00 Z0.0200 
G00 X1.1829 Y1.2435 
G01 Z-0.0100 F10.00 
G01 X1.1829 Y1.2565 
G01 X1.1779 Y1.2686 
G01 X1.1686 Y1.2779 
G01 X1.1565 Y1.2829 
G01 X1.1435 Y1.2829 
G01 X1.1314 Y1.2779 
G01 X1.1221 Y1.2686 
G01 X1.1171 Y1.2565 
G01 X1.1171 Y1.2435 
G01 X1.1221 Y1.2314 
G01 X1.1314 Y1.2221 
G01 X1.1435 Y1.2171 
G01 X1.1565 Y1.2171 
G01 X1.1686 Y1.2221 
G01 X1.1779 Y1.2314 
G01 X1.1829 Y1.2435 
G00 Z0.0200 
G00 X1.1569 Y1.1153 
G01 Z-0.0100 F10.00 
G01 X1.1431 Y1.1153 
G01 X1.1303 Y1.1206 
G01 X1.1206 Y1.1303 
G01 X1.1153 Y1.1431 
G01 X1.1153 Y1.1569 
G01 X1.1206 Y1.1696 
G01 X1.1303 Y1.1794 
G01 X1.1431 Y1.1847 
G01 X1.1569 Y1.1847 
G01 X1.1696 Y1.1794 
G01 X1.1794 Y1.1696 
G01 X1.1847 Y1.1569 
G01 X1.1847 Y1.1431 
G01 X1.1794 Y1.1303 
G01 X1.1696 Y1.1206 
G01 X1.1569 Y1.1153 
G00 Z0.0200 
G00 X1.1829 Y1.1435 
G01 Z-0.0100 F10.00 
G01 X1.1829 Y1.1565 
G01 X1.1779 Y1.1686 
G01 X1.1686 Y1.1779 
G01 X1.1565 Y1.1829 
G01 X1.1435 Y1.1829 
G01 X1.1314 Y1.1779 
G01 X1.1221 Y1.1686 
G01 X1.1171 Y1.1565 
G01 X1.1171 Y1.1435 
G01 X1.1221 Y1.1314 
G01 X1.1314 Y1.1221 
G01 X1.1435 Y1.1171 
G01 X1.1565 Y1.1171 
G01 X1.1686 Y1.1221 
G01 X1.1779 Y1.1314 
G01 X1.1829 Y1.1435 
G00 Z0.0200 
G00 X1.1569 Y0.9153 
G01 Z-0.0100 F10.00 
G01 X1.1431 Y0.9153 
G01 X1.1303 Y0.9206 
G01 X1.1206 Y0.9303 
G01 X1.1153 Y0.9431 
G01 X1.1153 Y0.9569 
G01 X1.1206 Y0.9696 
G01 X1.1303 Y0.9794 
G01 X1.1431 Y0.9847 
G01 X1.1569 Y0.9847 
G01 X1.1696 Y0.9794 
G01 X1.1794 Y0.9696 
G01 X1.1847 Y0.9569 
G01 X1.1847 Y0.9431 
G01 X1.1794 Y0.9303 
G01 X1.1696 Y0.9206 
G01 X1.1569 Y0.9153 
G00 Z0.0200 
G00 X1.1829 Y0.9435 
G01 Z-0.0100 F10.00 
G01 X1.1829 Y0.9565 
G01 X1.1779 Y0.9686 
G01 X1.1686 Y0.9779 
G01 X1.1565 Y0.9829 
G01 X1.1435 Y0.9829 
G01 X1.1314 Y0.9779 
G01 X1.1221 Y0.9686 
G01 X1.1171 Y0.9565 
G01 X1.1171 Y0.9435 
G01 X1.1221 Y0.9314 
G01 X1.1314 Y0.9221 
G01 X1.1435 Y0.9171 
G01 X1.1565 Y0.9171 
G01 X1.1686 Y0.9221 
G01 X1.1779 Y0.9314 
G01 X1.1829 Y0.9435 
G00 Z0.0200 
G00 X1.1569 Y0.7153 
G01 Z-0.0100 F10.00 
G01 X1.1431 Y0.7153 
G01 X1.1303 Y0.7206 
G01 X1.1206 Y0.7303 
G01 X1.1153 Y0.7431 
G01 X1.1153 Y0.7569 
G01 X1.1206 Y0.7696 
G01 X1.1303 Y0.7794 
G01 X1.1431 Y0.7847 
G01 X1.1569 Y0.7847 
G01 X1.1696 Y0.7794 
G01 X1.1794 Y0.7696 
G01 X1.1847 Y0.7569 
G01 X1.1847 Y0.7431 
G01 X1.1794 Y0.7303 
G01 X1.1696 Y0.7206 
G01 X1.1569 Y0.7153 
G00 Z0.0200 
G00 X1.1829 Y0.7435 
G01 Z-0.0100 F10.00 
G01 X1.1829 Y0.7565 
G01 X1.1779 Y0.7686 
G01 X1.1686 Y0.7779 
G01 X1.1565 Y0.7829 
G01 X1.1435 Y0.7829 
G01 X1.1314 Y0.7779 
G01 X1.1221 Y0.7686 
G01 X1.1171 Y0.7565 
G01 X1.1171 Y0.7435 
G01 X1.1221 Y0.7314 
G01 X1.1314 Y0.7221 
G01 X1.1435 Y0.7171 
G01 X1.1565 Y0.7171 
G01 X1.1686 Y0.7221 
G01 X1.1779 Y0.7314 
G01 X1.1829 Y0.7435 
G00 Z0.0200 
G00 X1.1569 Y0.6153 
G01 Z-0.0100 F10.00 
G01 X1.1431 Y0.6153 
G01 X1.1303 Y0.6206 
G01 X1.1206 Y0.6303 
G01 X1.1153 Y0.6431 
G01 X1.1153 Y0.6569 
G01 X1.1206 Y0.6696 
G01 X1.1303 Y0.6794 
G01 X1.1431 Y0.6847 
G01 X1.1569 Y0.6847 
G01 X1.1696 Y0.6794 
G01 X1.1794 Y0.6696 
G01 X1.1847 Y0.6569 
G01 X1.1847 Y0.6431 
G01 X1.1794 Y0.6303 
G01 X1.1696 Y0.6206 
G01 X1.1569 Y0.6153 
G00 Z0.0200 
G00 X1.1829 Y0.6435 
G01 Z-0.0100 F10.00 
G01 X1.1829 Y0.6565 
G01 X1.1779 Y0.6686 
G01 X1.1686 Y0.6779 
G01 X1.1565 Y0.6829 
G01 X1.1435 Y0.6829 
G01 X1.1314 Y0.6779 
G01 X1.1221 Y0.6686 
G01 X1.1171 Y0.6565 
G01 X1.1171 Y0.6435 
G01 X1.1221 Y0.6314 
G01 X1.1314 Y0.6221 
G01 X1.1435 Y0.6171 
G01 X1.1565 Y0.6171 
G01 X1.1686 Y0.6221 
G01 X1.1779 Y0.6314 
G01 X1.1829 Y0.6435 
G00 Z0.0200 
G00 X1.1569 Y0.8153 
G01 Z-0.0100 F10.00 
G01 X1.1431 Y0.8153 
G01 X1.1303 Y0.8206 
G01 X1.1206 Y0.8303 
G01 X1.1153 Y0.8431 
G01 X1.1153 Y0.8569 
G01 X1.1206 Y0.8696 
G01 X1.1303 Y0.8794 
G01 X1.1431 Y0.8847 
G01 X1.1569 Y0.8847 
G01 X1.1696 Y0.8794 
G01 X1.1794 Y0.8696 
G01 X1.1847 Y0.8569 
G01 X1.1847 Y0.8431 
G01 X1.1794 Y0.8303 
G01 X1.1696 Y0.8206 
G01 X1.1569 Y0.8153 
G00 Z0.0200 
G00 X1.1829 Y0.8435 
G01 Z-0.0100 F10.00 
G01 X1.1829 Y0.8565 
G01 X1.1779 Y0.8686 
G01 X1.1686 Y0.8779 
G01 X1.1565 Y0.8829 
G01 X1.1435 Y0.8829 
G01 X1.1314 Y0.8779 
G01 X1.1221 Y0.8686 
G01 X1.1171 Y0.8565 
G01 X1.1171 Y0.8435 
G01 X1.1221 Y0.8314 
G01 X1.1314 Y0.8221 
G01 X1.1435 Y0.8171 
G01 X1.1565 Y0.8171 
G01 X1.1686 Y0.8221 
G01 X1.1779 Y0.8314 
G01 X1.1829 Y0.8435 
G00 Z0.0200 
G00 X1.1569 Y1.0153 
G01 Z-0.0100 F10.00 
G01 X1.1431 Y1.0153 
G01 X1.1303 Y1.0206 
G01 X1.1206 Y1.0303 
G01 X1.1153 Y1.0431 
G01 X1.1153 Y1.0569 
G01 X1.1206 Y1.0696 
G01 X1.1303 Y1.0794 
G01 X1.1431 Y1.0847 
G01 X1.1569 Y1.0847 
G01 X1.1696 Y1.0794 
G01 X1.1794 Y1.0696 
G01 X1.1847 Y1.0569 
G01 X1.1847 Y1.0431 
G01 X1.1794 Y1.0303 
G01 X1.1696 Y1.0206 
G01 X1.1569 Y1.0153 
G00 Z0.0200 
G00 X1.1829 Y1.0435 
G01 Z-0.0100 F10.00 
G01 X1.1829 Y1.0565 
G01 X1.1779 Y1.0686 
G01 X1.1686 Y1.0779 
G01 X1.1565 Y1.0829 
G01 X1.1435 Y1.0829 
G01 X1.1314 Y1.0779 
G01 X1.1221 Y1.0686 
G01 X1.1171 Y1.0565 
G01 X1.1171 Y1.0435 
G01 X1.1221 Y1.0314 
G01 X1.1314 Y1.0221 
G01 X1.1435 Y1.0171 
G01 X1.1565 Y1.0171 
G01 X1.1686 Y1.0221 
G01 X1.1779 Y1.0314 
G01 X1.1829 Y1.0435 
G00 Z0.0200 
G00 X3.1569 Y0.6153 
G01 Z-0.0100 F10.00 
G01 X3.1431 Y0.6153 
G01 X3.1303 Y0.6206 
G01 X3.1206 Y0.6303 
G01 X3.1153 Y0.6431 
G01 X3.1153 Y0.6569 
G01 X3.1206 Y0.6696 
G01 X3.1303 Y0.6794 
G01 X3.1431 Y0.6847 
G01 X3.1569 Y0.6847 
G01 X3.1696 Y0.6794 
G01 X3.1794 Y0.6696 
G01 X3.1847 Y0.6569 
G01 X3.1847 Y0.6431 
G01 X3.1794 Y0.6303 
G01 X3.1696 Y0.6206 
G01 X3.1569 Y0.6153 
G00 Z0.0200 
G00 X3.1829 Y0.6435 
G01 Z-0.0100 F10.00 
G01 X3.1829 Y0.6565 
G01 X3.1779 Y0.6686 
G01 X3.1686 Y0.6779 
G01 X3.1565 Y0.6829 
G01 X3.1435 Y0.6829 
G01 X3.1314 Y0.6779 
G01 X3.1221 Y0.6686 
G01 X3.1171 Y0.6565 
G01 X3.1171 Y0.6435 
G01 X3.1221 Y0.6314 
G01 X3.1314 Y0.6221 
G01 X3.1435 Y0.6171 
G01 X3.1565 Y0.6171 
G01 X3.1686 Y0.6221 
G01 X3.1779 Y0.6314 
G01 X3.1829 Y0.6435 
G00 Z0.0200 
G00 X3.5631 Y0.7427 
G01 Z-0.0100 F10.00 
G01 X3.5631 Y0.7573 
G01 X3.5687 Y0.7709 
G01 X3.5791 Y0.7813 
G01 X3.5927 Y0.7869 
G01 X3.6073 Y0.7869 
G01 X3.6209 Y0.7813 
G01 X3.6313 Y0.7709 
G01 X3.6369 Y0.7573 
G01 X3.6369 Y0.7427 
G01 X3.6313 Y0.7291 
G01 X3.6209 Y0.7187 
G01 X3.6073 Y0.7131 
G01 X3.5927 Y0.7131 
G01 X3.5791 Y0.7187 
G01 X3.5687 Y0.7291 
G01 X3.5631 Y0.7427 
G00 Z0.0200 
G00 X3.6351 Y0.7430 
G01 Z-0.0100 F10.00 
G01 X3.6351 Y0.7570 
G01 X3.6297 Y0.7699 
G01 X3.6199 Y0.7797 
G01 X3.6070 Y0.7851 
G01 X3.5930 Y0.7851 
G01 X3.5801 Y0.7797 
G01 X3.5702 Y0.7699 
G01 X3.5649 Y0.7570 
G01 X3.5649 Y0.7430 
G01 X3.5702 Y0.7301 
G01 X3.5801 Y0.7202 
G01 X3.5930 Y0.7149 
G01 X3.6070 Y0.7149 
G01 X3.6199 Y0.7202 
G01 X3.6297 Y0.7301 
G01 X3.6351 Y0.7430 
G00 Z0.0200 
G00 X3.6073 Y1.3131 
G01 Z-0.0100 F10.00 
G01 X3.5927 Y1.3131 
G01 X3.5791 Y1.3187 
G01 X3.5687 Y1.3291 
G01 X3.5631 Y1.3427 
G01 X3.5631 Y1.3573 
G01 X3.5687 Y1.3709 
G01 X3.5791 Y1.3813 
G01 X3.5927 Y1.3869 
G01 X3.6073 Y1.3869 
G01 X3.6209 Y1.3813 
G01 X3.6313 Y1.3709 
G01 X3.6369 Y1.3573 
G01 X3.6369 Y1.3427 
G01 X3.6313 Y1.3291 
G01 X3.6209 Y1.3187 
G01 X3.6073 Y1.3131 
G00 Z0.0200 
G00 X3.6351 Y1.3430 
G01 Z-0.0100 F10.00 
G01 X3.6351 Y1.3570 
G01 X3.6297 Y1.3699 
G01 X3.6199 Y1.3797 
G01 X3.6070 Y1.3851 
G01 X3.5930 Y1.3851 
G01 X3.5801 Y1.3797 
G01 X3.5702 Y1.3699 
G01 X3.5649 Y1.3570 
G01 X3.5649 Y1.3430 
G01 X3.5702 Y1.3301 
G01 X3.5801 Y1.3202 
G01 X3.5930 Y1.3149 
G01 X3.6070 Y1.3149 
G01 X3.6199 Y1.3202 
G01 X3.6297 Y1.3301 
G01 X3.6351 Y1.3430 
G00 Z0.0200 
G00 X3.5687 Y0.6291 
G01 Z-0.0100 F10.00 
G01 X3.5631 Y0.6427 
G01 X3.5631 Y0.6573 
G01 X3.5687 Y0.6709 
G01 X3.5791 Y0.6813 
G01 X3.5927 Y0.6869 
G01 X3.6073 Y0.6869 
G01 X3.6209 Y0.6813 
G01 X3.6313 Y0.6709 
G01 X3.6369 Y0.6573 
G01 X3.6369 Y0.6427 
G01 X3.6313 Y0.6291 
G01 X3.6209 Y0.6187 
G01 X3.6073 Y0.6131 
G01 X3.5927 Y0.6131 
G01 X3.5791 Y0.6187 
G01 X3.5687 Y0.6291 
G00 Z0.0200 
G00 X3.6351 Y0.6430 
G01 Z-0.0100 F10.00 
G01 X3.6351 Y0.6570 
G01 X3.6297 Y0.6699 
G01 X3.6199 Y0.6797 
G01 X3.6070 Y0.6851 
G01 X3.5930 Y0.6851 
G01 X3.5801 Y0.6797 
G01 X3.5702 Y0.6699 
G01 X3.5649 Y0.6570 
G01 X3.5649 Y0.6430 
G01 X3.5702 Y0.6301 
G01 X3.5801 Y0.6202 
G01 X3.5930 Y0.6149 
G01 X3.6070 Y0.6149 
G01 X3.6199 Y0.6202 
G01 X3.6297 Y0.6301 
G01 X3.6351 Y0.6430 
G00 Z0.0200 
G00 X3.9742 Y1.2138 
G01 Z-0.0100 F10.00 
G01 X3.9646 Y1.2098 
G01 X3.9646 Y1.2098 
G01 X3.9615 Y1.2086 
G01 X3.9546 Y1.2057 
G01 X3.9504 Y1.1957 
G01 X3.9504 Y1.1957 
G01 X3.9504 Y1.1957 
G01 X3.9516 Y1.1928 
G01 X3.9546 Y1.1856 
G01 X3.9646 Y1.1815 
G01 X3.9646 Y1.1815 
G01 X3.9696 Y1.1794 
G01 X3.9794 Y1.1696 
G01 X3.9847 Y1.1569 
G01 X3.9847 Y1.1431 
G01 X3.9794 Y1.1303 
G01 X3.9696 Y1.1206 
G01 X3.9569 Y1.1153 
G01 X3.9431 Y1.1153 
G01 X3.9303 Y1.1206 
G01 X3.9206 Y1.1303 
G01 X3.9153 Y1.1431 
G01 X3.9153 Y1.1569 
G01 X3.9206 Y1.1696 
G01 X3.9303 Y1.1794 
G01 X3.9354 Y1.1815 
G01 X3.9354 Y1.1815 
G01 X3.9454 Y1.1856 
G01 X3.9483 Y1.1926 
G01 X3.9496 Y1.1957 
G01 X3.9496 Y1.1957 
G01 X3.9496 Y1.1957 
G01 X3.9454 Y1.2057 
G01 X3.9386 Y1.2085 
G01 X3.9354 Y1.2098 
G01 X3.9354 Y1.2098 
G01 X3.9258 Y1.2138 
G01 X3.9138 Y1.2258 
G01 X3.9073 Y1.2415 
G01 X3.9073 Y1.2585 
G01 X3.9138 Y1.2742 
G01 X3.9258 Y1.2862 
G01 X3.9415 Y1.2927 
G01 X3.9585 Y1.2927 
G01 X3.9742 Y1.2862 
G01 X3.9862 Y1.2742 
G01 X3.9927 Y1.2585 
G01 X3.9927 Y1.2415 
G01 X3.9862 Y1.2258 
G01 X3.9742 Y1.2138 
G00 Z0.0200 
G00 X3.9829 Y1.1435 
G01 Z-0.0100 F10.00 
G01 X3.9829 Y1.1565 
G01 X3.9779 Y1.1686 
G01 X3.9686 Y1.1779 
G01 X3.9565 Y1.1829 
G01 X3.9435 Y1.1829 
G01 X3.9314 Y1.1779 
G01 X3.9221 Y1.1686 
G01 X3.9171 Y1.1565 
G01 X3.9171 Y1.1435 
G01 X3.9221 Y1.1314 
G01 X3.9314 Y1.1221 
G01 X3.9435 Y1.1171 
G01 X3.9565 Y1.1171 
G01 X3.9686 Y1.1221 
G01 X3.9779 Y1.1314 
G01 X3.9829 Y1.1435 
G00 Z0.0200 
G00 X3.9829 Y1.2435 
G01 Z-0.0100 F10.00 
G01 X3.9829 Y1.2565 
G01 X3.9779 Y1.2686 
G01 X3.9686 Y1.2779 
G01 X3.9565 Y1.2829 
G01 X3.9435 Y1.2829 
G01 X3.9314 Y1.2779 
G01 X3.9221 Y1.2686 
G01 X3.9171 Y1.2565 
G01 X3.9171 Y1.2435 
G01 X3.9221 Y1.2314 
G01 X3.9314 Y1.2221 
G01 X3.9435 Y1.2171 
G01 X3.9565 Y1.2171 
G01 X3.9686 Y1.2221 
G01 X3.9779 Y1.2314 
G01 X3.9829 Y1.2435 
G00 Z0.0200 
G00 X3.9569 Y1.0153 
G01 Z-0.0100 F10.00 
G01 X3.9431 Y1.0153 
G01 X3.9303 Y1.0206 
G01 X3.9206 Y1.0303 
G01 X3.9153 Y1.0431 
G01 X3.9153 Y1.0569 
G01 X3.9206 Y1.0696 
G01 X3.9303 Y1.0794 
G01 X3.9431 Y1.0847 
G01 X3.9569 Y1.0847 
G01 X3.9696 Y1.0794 
G01 X3.9794 Y1.0696 
G01 X3.9847 Y1.0569 
G01 X3.9847 Y1.0431 
G01 X3.9794 Y1.0303 
G01 X3.9696 Y1.0206 
G01 X3.9569 Y1.0153 
G00 Z0.0200 
G00 X3.9829 Y1.0435 
G01 Z-0.0100 F10.00 
G01 X3.9829 Y1.0565 
G01 X3.9779 Y1.0686 
G01 X3.9686 Y1.0779 
G01 X3.9565 Y1.0829 
G01 X3.9435 Y1.0829 
G01 X3.9314 Y1.0779 
G01 X3.9221 Y1.0686 
G01 X3.9171 Y1.0565 
G01 X3.9171 Y1.0435 
G01 X3.9221 Y1.0314 
G01 X3.9314 Y1.0221 
G01 X3.9435 Y1.0171 
G01 X3.9565 Y1.0171 
G01 X3.9686 Y1.0221 
G01 X3.9779 Y1.0314 
G01 X3.9829 Y1.0435 
G00 Z0.0200 
G00 X3.9569 Y0.8153 
G01 Z-0.0100 F10.00 
G01 X3.9431 Y0.8153 
G01 X3.9303 Y0.8206 
G01 X3.9206 Y0.8303 
G01 X3.9153 Y0.8431 
G01 X3.9153 Y0.8569 
G01 X3.9206 Y0.8696 
G01 X3.9303 Y0.8794 
G01 X3.9431 Y0.8847 
G01 X3.9569 Y0.8847 
G01 X3.9696 Y0.8794 
G01 X3.9794 Y0.8696 
G01 X3.9847 Y0.8569 
G01 X3.9847 Y0.8431 
G01 X3.9794 Y0.8303 
G01 X3.9696 Y0.8206 
G01 X3.9569 Y0.8153 
G00 Z0.0200 
G00 X3.9829 Y0.8435 
G01 Z-0.0100 F10.00 
G01 X3.9829 Y0.8565 
G01 X3.9779 Y0.8686 
G01 X3.9686 Y0.8779 
G01 X3.9565 Y0.8829 
G01 X3.9435 Y0.8829 
G01 X3.9314 Y0.8779 
G01 X3.9221 Y0.8686 
G01 X3.9171 Y0.8565 
G01 X3.9171 Y0.8435 
G01 X3.9221 Y0.8314 
G01 X3.9314 Y0.8221 
G01 X3.9435 Y0.8171 
G01 X3.9565 Y0.8171 
G01 X3.9686 Y0.8221 
G01 X3.9779 Y0.8314 
G01 X3.9829 Y0.8435 
G00 Z0.0200 
G00 X3.9569 Y0.6153 
G01 Z-0.0100 F10.00 
G01 X3.9431 Y0.6153 
G01 X3.9303 Y0.6206 
G01 X3.9206 Y0.6303 
G01 X3.9153 Y0.6431 
G01 X3.9153 Y0.6569 
G01 X3.9206 Y0.6696 
G01 X3.9303 Y0.6794 
G01 X3.9431 Y0.6847 
G01 X3.9569 Y0.6847 
G01 X3.9696 Y0.6794 
G01 X3.9794 Y0.6696 
G01 X3.9847 Y0.6569 
G01 X3.9847 Y0.6431 
G01 X3.9794 Y0.6303 
G01 X3.9696 Y0.6206 
G01 X3.9569 Y0.6153 
G00 Z0.0200 
G00 X3.9829 Y0.6435 
G01 Z-0.0100 F10.00 
G01 X3.9829 Y0.6565 
G01 X3.9779 Y0.6686 
G01 X3.9686 Y0.6779 
G01 X3.9565 Y0.6829 
G01 X3.9435 Y0.6829 
G01 X3.9314 Y0.6779 
G01 X3.9221 Y0.6686 
G01 X3.9171 Y0.6565 
G01 X3.9171 Y0.6435 
G01 X3.9221 Y0.6314 
G01 X3.9314 Y0.6221 
G01 X3.9435 Y0.6171 
G01 X3.9565 Y0.6171 
G01 X3.9686 Y0.6221 
G01 X3.9779 Y0.6314 
G01 X3.9829 Y0.6435 
G00 Z0.0200 
G00 X2.9569 Y0.9153 
G01 Z-0.0100 F10.00 
G01 X2.9431 Y0.9153 
G01 X2.9303 Y0.9206 
G01 X2.9206 Y0.9303 
G01 X2.9153 Y0.9431 
G01 X2.9153 Y0.9569 
G01 X2.9206 Y0.9696 
G01 X2.9303 Y0.9794 
G01 X2.9431 Y0.9847 
G01 X2.9569 Y0.9847 
G01 X2.9696 Y0.9794 
G01 X2.9794 Y0.9696 
G01 X2.9847 Y0.9569 
G01 X2.9847 Y0.9431 
G01 X2.9794 Y0.9303 
G01 X2.9696 Y0.9206 
G01 X2.9569 Y0.9153 
G00 Z0.0200 
G00 X2.9829 Y0.9435 
G01 Z-0.0100 F10.00 
G01 X2.9829 Y0.9565 
G01 X2.9779 Y0.9686 
G01 X2.9686 Y0.9779 
G01 X2.9565 Y0.9829 
G01 X2.9435 Y0.9829 
G01 X2.9314 Y0.9779 
G01 X2.9221 Y0.9686 
G01 X2.9171 Y0.9565 
G01 X2.9171 Y0.9435 
G01 X2.9221 Y0.9314 
G01 X2.9314 Y0.9221 
G01 X2.9435 Y0.9171 
G01 X2.9565 Y0.9171 
G01 X2.9686 Y0.9221 
G01 X2.9779 Y0.9314 
G01 X2.9829 Y0.9435 
G00 Z0.0200 
G00 X2.9569 Y0.7153 
G01 Z-0.0100 F10.00 
G01 X2.9431 Y0.7153 
G01 X2.9303 Y0.7206 
G01 X2.9206 Y0.7303 
G01 X2.9153 Y0.7431 
G01 X2.9153 Y0.7569 
G01 X2.9206 Y0.7696 
G01 X2.9303 Y0.7794 
G01 X2.9431 Y0.7847 
G01 X2.9569 Y0.7847 
G01 X2.9696 Y0.7794 
G01 X2.9794 Y0.7696 
G01 X2.9847 Y0.7569 
G01 X2.9847 Y0.7431 
G01 X2.9794 Y0.7303 
G01 X2.9696 Y0.7206 
G01 X2.9569 Y0.7153 
G00 Z0.0200 
G00 X2.9829 Y0.7435 
G01 Z-0.0100 F10.00 
G01 X2.9829 Y0.7565 
G01 X2.9779 Y0.7686 
G01 X2.9686 Y0.7779 
G01 X2.9565 Y0.7829 
G01 X2.9435 Y0.7829 
G01 X2.9314 Y0.7779 
G01 X2.9221 Y0.7686 
G01 X2.9171 Y0.7565 
G01 X2.9171 Y0.7435 
G01 X2.9221 Y0.7314 
G01 X2.9314 Y0.7221 
G01 X2.9435 Y0.7171 
G01 X2.9565 Y0.7171 
G01 X2.9686 Y0.7221 
G01 X2.9779 Y0.7314 
G01 X2.9829 Y0.7435 
G00 Z0.0200 
G00 X2.9569 Y0.6153 
G01 Z-0.0100 F10.00 
G01 X2.9431 Y0.6153 
G01 X2.9303 Y0.6206 
G01 X2.9206 Y0.6303 
G01 X2.9153 Y0.6431 
G01 X2.9153 Y0.6569 
G01 X2.9206 Y0.6696 
G01 X2.9303 Y0.6794 
G01 X2.9431 Y0.6847 
G01 X2.9569 Y0.6847 
G01 X2.9696 Y0.6794 
G01 X2.9794 Y0.6696 
G01 X2.9847 Y0.6569 
G01 X2.9847 Y0.6431 
G01 X2.9794 Y0.6303 
G01 X2.9696 Y0.6206 
G01 X2.9569 Y0.6153 
G00 Z0.0200 
G00 X2.9829 Y0.6435 
G01 Z-0.0100 F10.00 
G01 X2.9829 Y0.6565 
G01 X2.9779 Y0.6686 
G01 X2.9686 Y0.6779 
G01 X2.9565 Y0.6829 
G01 X2.9435 Y0.6829 
G01 X2.9314 Y0.6779 
G01 X2.9221 Y0.6686 
G01 X2.9171 Y0.6565 
G01 X2.9171 Y0.6435 
G01 X2.9221 Y0.6314 
G01 X2.9314 Y0.6221 
G01 X2.9435 Y0.6171 
G01 X2.9565 Y0.6171 
G01 X2.9686 Y0.6221 
G01 X2.9779 Y0.6314 
G01 X2.9829 Y0.6435 
G00 Z0.0200 
G00 X2.9569 Y0.8153 
G01 Z-0.0100 F10.00 
G01 X2.9431 Y0.8153 
G01 X2.9303 Y0.8206 
G01 X2.9206 Y0.8303 
G01 X2.9153 Y0.8431 
G01 X2.9153 Y0.8569 
G01 X2.9206 Y0.8696 
G01 X2.9303 Y0.8794 
G01 X2.9431 Y0.8847 
G01 X2.9569 Y0.8847 
G01 X2.9696 Y0.8794 
G01 X2.9794 Y0.8696 
G01 X2.9847 Y0.8569 
G01 X2.9847 Y0.8431 
G01 X2.9794 Y0.8303 
G01 X2.9696 Y0.8206 
G01 X2.9569 Y0.8153 
G00 Z0.0200 
G00 X2.9829 Y0.8435 
G01 Z-0.0100 F10.00 
G01 X2.9829 Y0.8565 
G01 X2.9779 Y0.8686 
G01 X2.9686 Y0.8779 
G01 X2.9565 Y0.8829 
G01 X2.9435 Y0.8829 
G01 X2.9314 Y0.8779 
G01 X2.9221 Y0.8686 
G01 X2.9171 Y0.8565 
G01 X2.9171 Y0.8435 
G01 X2.9221 Y0.8314 
G01 X2.9314 Y0.8221 
G01 X2.9435 Y0.8171 
G01 X2.9565 Y0.8171 
G01 X2.9686 Y0.8221 
G01 X2.9779 Y0.8314 
G01 X2.9829 Y0.8435 
G00 Z0.0200 
G00 X2.9569 Y1.0153 
G01 Z-0.0100 F10.00 
G01 X2.9431 Y1.0153 
G01 X2.9303 Y1.0206 
G01 X2.9206 Y1.0303 
G01 X2.9153 Y1.0431 
G01 X2.9153 Y1.0569 
G01 X2.9206 Y1.0696 
G01 X2.9303 Y1.0794 
G01 X2.9431 Y1.0847 
G01 X2.9569 Y1.0847 
G01 X2.9696 Y1.0794 
G01 X2.9794 Y1.0696 
G01 X2.9847 Y1.0569 
G01 X2.9847 Y1.0431 
G01 X2.9794 Y1.0303 
G01 X2.9696 Y1.0206 
G01 X2.9569 Y1.0153 
G00 Z0.0200 
G00 X2.9829 Y1.0435 
G01 Z-0.0100 F10.00 
G01 X2.9829 Y1.0565 
G01 X2.9779 Y1.0686 
G01 X2.9686 Y1.0779 
G01 X2.9565 Y1.0829 
G01 X2.9435 Y1.0829 
G01 X2.9314 Y1.0779 
G01 X2.9221 Y1.0686 
G01 X2.9171 Y1.0565 
G01 X2.9171 Y1.0435 
G01 X2.9221 Y1.0314 
G01 X2.9314 Y1.0221 
G01 X2.9435 Y1.0171 
G01 X2.9565 Y1.0171 
G01 X2.9686 Y1.0221 
G01 X2.9779 Y1.0314 
G01 X2.9829 Y1.0435 
G00 Z0.0200 
G00 X2.9742 Y1.2138 
G01 Z-0.0100 F10.00 
G01 X2.9646 Y1.2098 
G01 X2.9646 Y1.2098 
G01 X2.9615 Y1.2086 
G01 X2.9546 Y1.2057 
G01 X2.9504 Y1.1957 
G01 X2.9504 Y1.1957 
G01 X2.9504 Y1.1957 
G01 X2.9516 Y1.1928 
G01 X2.9546 Y1.1856 
G01 X2.9646 Y1.1815 
G01 X2.9646 Y1.1815 
G01 X2.9696 Y1.1794 
G01 X2.9794 Y1.1696 
G01 X2.9847 Y1.1569 
G01 X2.9847 Y1.1431 
G01 X2.9794 Y1.1303 
G01 X2.9696 Y1.1206 
G01 X2.9569 Y1.1153 
G01 X2.9431 Y1.1153 
G01 X2.9303 Y1.1206 
G01 X2.9206 Y1.1303 
G01 X2.9153 Y1.1431 
G01 X2.9153 Y1.1569 
G01 X2.9206 Y1.1696 
G01 X2.9303 Y1.1794 
G01 X2.9354 Y1.1815 
G01 X2.9354 Y1.1815 
G01 X2.9454 Y1.1856 
G01 X2.9483 Y1.1926 
G01 X2.9496 Y1.1957 
G01 X2.9496 Y1.1957 
G01 X2.9496 Y1.1957 
G01 X2.9454 Y1.2057 
G01 X2.9386 Y1.2085 
G01 X2.9354 Y1.2098 
G01 X2.9354 Y1.2098 
G01 X2.9258 Y1.2138 
G01 X2.9138 Y1.2258 
G01 X2.9073 Y1.2415 
G01 X2.9073 Y1.2585 
G01 X2.9138 Y1.2742 
G01 X2.9258 Y1.2862 
G01 X2.9415 Y1.2927 
G01 X2.9585 Y1.2927 
G01 X2.9742 Y1.2862 
G01 X2.9862 Y1.2742 
G01 X2.9927 Y1.2585 
G01 X2.9927 Y1.2415 
G01 X2.9862 Y1.2258 
G01 X2.9742 Y1.2138 
G00 Z0.0200 
G00 X2.9829 Y1.1435 
G01 Z-0.0100 F10.00 
G01 X2.9829 Y1.1565 
G01 X2.9779 Y1.1686 
G01 X2.9686 Y1.1779 
G01 X2.9565 Y1.1829 
G01 X2.9435 Y1.1829 
G01 X2.9314 Y1.1779 
G01 X2.9221 Y1.1686 
G01 X2.9171 Y1.1565 
G01 X2.9171 Y1.1435 
G01 X2.9221 Y1.1314 
G01 X2.9314 Y1.1221 
G01 X2.9435 Y1.1171 
G01 X2.9565 Y1.1171 
G01 X2.9686 Y1.1221 
G01 X2.9779 Y1.1314 
G01 X2.9829 Y1.1435 
G00 Z0.0200 
G00 X2.9829 Y1.2435 
G01 Z-0.0100 F10.00 
G01 X2.9829 Y1.2565 
G01 X2.9779 Y1.2686 
G01 X2.9686 Y1.2779 
G01 X2.9565 Y1.2829 
G01 X2.9435 Y1.2829 
G01 X2.9314 Y1.2779 
G01 X2.9221 Y1.2686 
G01 X2.9171 Y1.2565 
G01 X2.9171 Y1.2435 
G01 X2.9221 Y1.2314 
G01 X2.9314 Y1.2221 
G01 X2.9435 Y1.2171 
G01 X2.9565 Y1.2171 
G01 X2.9686 Y1.2221 
G01 X2.9779 Y1.2314 
G01 X2.9829 Y1.2435 
G00 Z0.0200 
G00 X2.1569 Y0.6153 
G01 Z-0.0100 F10.00 
G01 X2.1431 Y0.6153 
G01 X2.1303 Y0.6206 
G01 X2.1206 Y0.6303 
G01 X2.1153 Y0.6431 
G01 X2.1153 Y0.6569 
G01 X2.1206 Y0.6696 
G01 X2.1303 Y0.6794 
G01 X2.1431 Y0.6847 
G01 X2.1569 Y0.6847 
G01 X2.1696 Y0.6794 
G01 X2.1794 Y0.6696 
G01 X2.1847 Y0.6569 
G01 X2.1847 Y0.6431 
G01 X2.1794 Y0.6303 
G01 X2.1696 Y0.6206 
G01 X2.1569 Y0.6153 
G00 Z0.0200 
G00 X2.1829 Y0.6435 
G01 Z-0.0100 F10.00 
G01 X2.1829 Y0.6565 
G01 X2.1779 Y0.6686 
G01 X2.1686 Y0.6779 
G01 X2.1565 Y0.6829 
G01 X2.1435 Y0.6829 
G01 X2.1314 Y0.6779 
G01 X2.1221 Y0.6686 
G01 X2.1171 Y0.6565 
G01 X2.1171 Y0.6435 
G01 X2.1221 Y0.6314 
G01 X2.1314 Y0.6221 
G01 X2.1435 Y0.6171 
G01 X2.1565 Y0.6171 
G01 X2.1686 Y0.6221 
G01 X2.1779 Y0.6314 
G01 X2.1829 Y0.6435 
G00 Z0.0200 
G00 X2.1569 Y0.8153 
G01 Z-0.0100 F10.00 
G01 X2.1431 Y0.8153 
G01 X2.1303 Y0.8206 
G01 X2.1206 Y0.8303 
G01 X2.1153 Y0.8431 
G01 X2.1153 Y0.8569 
G01 X2.1206 Y0.8696 
G01 X2.1303 Y0.8794 
G01 X2.1431 Y0.8847 
G01 X2.1569 Y0.8847 
G01 X2.1696 Y0.8794 
G01 X2.1794 Y0.8696 
G01 X2.1847 Y0.8569 
G01 X2.1847 Y0.8431 
G01 X2.1794 Y0.8303 
G01 X2.1696 Y0.8206 
G01 X2.1569 Y0.8153 
G00 Z0.0200 
G00 X2.1829 Y0.8435 
G01 Z-0.0100 F10.00 
G01 X2.1829 Y0.8565 
G01 X2.1779 Y0.8686 
G01 X2.1686 Y0.8779 
G01 X2.1565 Y0.8829 
G01 X2.1435 Y0.8829 
G01 X2.1314 Y0.8779 
G01 X2.1221 Y0.8686 
G01 X2.1171 Y0.8565 
G01 X2.1171 Y0.8435 
G01 X2.1221 Y0.8314 
G01 X2.1314 Y0.8221 
G01 X2.1435 Y0.8171 
G01 X2.1565 Y0.8171 
G01 X2.1686 Y0.8221 
G01 X2.1779 Y0.8314 
G01 X2.1829 Y0.8435 
G00 Z0.0200 
G00 X2.1569 Y1.0153 
G01 Z-0.0100 F10.00 
G01 X2.1431 Y1.0153 
G01 X2.1303 Y1.0206 
G01 X2.1206 Y1.0303 
G01 X2.1153 Y1.0431 
G01 X2.1153 Y1.0569 
G01 X2.1206 Y1.0696 
G01 X2.1303 Y1.0794 
G01 X2.1431 Y1.0847 
G01 X2.1569 Y1.0847 
G01 X2.1696 Y1.0794 
G01 X2.1794 Y1.0696 
G01 X2.1847 Y1.0569 
G01 X2.1847 Y1.0431 
G01 X2.1794 Y1.0303 
G01 X2.1696 Y1.0206 
G01 X2.1569 Y1.0153 
G00 Z0.0200 
G00 X2.1829 Y1.0435 
G01 Z-0.0100 F10.00 
G01 X2.1829 Y1.0565 
G01 X2.1779 Y1.0686 
G01 X2.1686 Y1.0779 
G01 X2.1565 Y1.0829 
G01 X2.1435 Y1.0829 
G01 X2.1314 Y1.0779 
G01 X2.1221 Y1.0686 
G01 X2.1171 Y1.0565 
G01 X2.1171 Y1.0435 
G01 X2.1221 Y1.0314 
G01 X2.1314 Y1.0221 
G01 X2.1435 Y1.0171 
G01 X2.1565 Y1.0171 
G01 X2.1686 Y1.0221 
G01 X2.1779 Y1.0314 
G01 X2.1829 Y1.0435 
G00 Z0.0200 
G00 X2.1569 Y1.2153 
G01 Z-0.0100 F10.00 
G01 X2.1431 Y1.2153 
G01 X2.1303 Y1.2206 
G01 X2.1206 Y1.2303 
G01 X2.1153 Y1.2431 
G01 X2.1153 Y1.2569 
G01 X2.1206 Y1.2696 
G01 X2.1303 Y1.2794 
G01 X2.1431 Y1.2847 
G01 X2.1569 Y1.2847 
G01 X2.1696 Y1.2794 
G01 X2.1794 Y1.2696 
G01 X2.1847 Y1.2569 
G01 X2.1847 Y1.2431 
G01 X2.1794 Y1.2303 
G01 X2.1696 Y1.2206 
G01 X2.1569 Y1.2153 
G00 Z0.0200 
G00 X2.1829 Y1.2435 
G01 Z-0.0100 F10.00 
G01 X2.1829 Y1.2565 
G01 X2.1779 Y1.2686 
G01 X2.1686 Y1.2779 
G01 X2.1565 Y1.2829 
G01 X2.1435 Y1.2829 
G01 X2.1314 Y1.2779 
G01 X2.1221 Y1.2686 
G01 X2.1171 Y1.2565 
G01 X2.1171 Y1.2435 
G01 X2.1221 Y1.2314 
G01 X2.1314 Y1.2221 
G01 X2.1435 Y1.2171 
G01 X2.1565 Y1.2171 
G01 X2.1686 Y1.2221 
G01 X2.1779 Y1.2314 
G01 X2.1829 Y1.2435 
G00 Z0.0200 
G00 X2.1569 Y1.1153 
G01 Z-0.0100 F10.00 
G01 X2.1431 Y1.1153 
G01 X2.1303 Y1.1206 
G01 X2.1206 Y1.1303 
G01 X2.1153 Y1.1431 
G01 X2.1153 Y1.1569 
G01 X2.1206 Y1.1696 
G01 X2.1303 Y1.1794 
G01 X2.1431 Y1.1847 
G01 X2.1569 Y1.1847 
G01 X2.1696 Y1.1794 
G01 X2.1794 Y1.1696 
G01 X2.1847 Y1.1569 
G01 X2.1847 Y1.1431 
G01 X2.1794 Y1.1303 
G01 X2.1696 Y1.1206 
G01 X2.1569 Y1.1153 
G00 Z0.0200 
G00 X2.1829 Y1.1435 
G01 Z-0.0100 F10.00 
G01 X2.1829 Y1.1565 
G01 X2.1779 Y1.1686 
G01 X2.1686 Y1.1779 
G01 X2.1565 Y1.1829 
G01 X2.1435 Y1.1829 
G01 X2.1314 Y1.1779 
G01 X2.1221 Y1.1686 
G01 X2.1171 Y1.1565 
G01 X2.1171 Y1.1435 
G01 X2.1221 Y1.1314 
G01 X2.1314 Y1.1221 
G01 X2.1435 Y1.1171 
G01 X2.1565 Y1.1171 
G01 X2.1686 Y1.1221 
G01 X2.1779 Y1.1314 
G01 X2.1829 Y1.1435 
G00 Z0.0200 
G00 X2.1569 Y0.9153 
G01 Z-0.0100 F10.00 
G01 X2.1431 Y0.9153 
G01 X2.1303 Y0.9206 
G01 X2.1206 Y0.9303 
G01 X2.1153 Y0.9431 
G01 X2.1153 Y0.9569 
G01 X2.1206 Y0.9696 
G01 X2.1303 Y0.9794 
G01 X2.1431 Y0.9847 
G01 X2.1569 Y0.9847 
G01 X2.1696 Y0.9794 
G01 X2.1794 Y0.9696 
G01 X2.1847 Y0.9569 
G01 X2.1847 Y0.9431 
G01 X2.1794 Y0.9303 
G01 X2.1696 Y0.9206 
G01 X2.1569 Y0.9153 
G00 Z0.0200 
G00 X2.1829 Y0.9435 
G01 Z-0.0100 F10.00 
G01 X2.1829 Y0.9565 
G01 X2.1779 Y0.9686 
G01 X2.1686 Y0.9779 
G01 X2.1565 Y0.9829 
G01 X2.1435 Y0.9829 
G01 X2.1314 Y0.9779 
G01 X2.1221 Y0.9686 
G01 X2.1171 Y0.9565 
G01 X2.1171 Y0.9435 
G01 X2.1221 Y0.9314 
G01 X2.1314 Y0.9221 
G01 X2.1435 Y0.9171 
G01 X2.1565 Y0.9171 
G01 X2.1686 Y0.9221 
G01 X2.1779 Y0.9314 
G01 X2.1829 Y0.9435 
G00 Z0.0200 
G00 X2.1569 Y0.7153 
G01 Z-0.0100 F10.00 
G01 X2.1431 Y0.7153 
G01 X2.1303 Y0.7206 
G01 X2.1206 Y0.7303 
G01 X2.1153 Y0.7431 
G01 X2.1153 Y0.7569 
G01 X2.1206 Y0.7696 
G01 X2.1303 Y0.7794 
G01 X2.1431 Y0.7847 
G01 X2.1569 Y0.7847 
G01 X2.1696 Y0.7794 
G01 X2.1794 Y0.7696 
G01 X2.1847 Y0.7569 
G01 X2.1847 Y0.7431 
G01 X2.1794 Y0.7303 
G01 X2.1696 Y0.7206 
G01 X2.1569 Y0.7153 
G00 Z0.0200 
G00 X2.1829 Y0.7435 
G01 Z-0.0100 F10.00 
G01 X2.1829 Y0.7565 
G01 X2.1779 Y0.7686 
G01 X2.1686 Y0.7779 
G01 X2.1565 Y0.7829 
G01 X2.1435 Y0.7829 
G01 X2.1314 Y0.7779 
G01 X2.1221 Y0.7686 
G01 X2.1171 Y0.7565 
G01 X2.1171 Y0.7435 
G01 X2.1221 Y0.7314 
G01 X2.1314 Y0.7221 
G01 X2.1435 Y0.7171 
G01 X2.1565 Y0.7171 
G01 X2.1686 Y0.7221 
G01 X2.1779 Y0.7314 
G01 X2.1829 Y0.7435 
G00 Z0.0200 
G00 X2.6073 Y1.3131 
G01 Z-0.0100 F10.00 
G01 X2.5927 Y1.3131 
G01 X2.5791 Y1.3187 
G01 X2.5687 Y1.3291 
G01 X2.5631 Y1.3427 
G01 X2.5631 Y1.3573 
G01 X2.5687 Y1.3709 
G01 X2.5791 Y1.3813 
G01 X2.5927 Y1.3869 
G01 X2.6073 Y1.3869 
G01 X2.6209 Y1.3813 
G01 X2.6313 Y1.3709 
G01 X2.6369 Y1.3573 
G01 X2.6369 Y1.3427 
G01 X2.6313 Y1.3291 
G01 X2.6209 Y1.3187 
G01 X2.6073 Y1.3131 
G00 Z0.0200 
G00 X2.6351 Y1.3430 
G01 Z-0.0100 F10.00 
G01 X2.6351 Y1.3570 
G01 X2.6297 Y1.3699 
G01 X2.6199 Y1.3797 
G01 X2.6070 Y1.3851 
G01 X2.5930 Y1.3851 
G01 X2.5801 Y1.3797 
G01 X2.5702 Y1.3699 
G01 X2.5649 Y1.3570 
G01 X2.5649 Y1.3430 
G01 X2.5702 Y1.3301 
G01 X2.5801 Y1.3202 
G01 X2.5930 Y1.3149 
G01 X2.6070 Y1.3149 
G01 X2.6199 Y1.3202 
G01 X2.6297 Y1.3301 
G01 X2.6351 Y1.3430 
G00 Z0.0200 
G00 X1.3073 Y0.6131 
G01 Z-0.0100 F10.00 
G01 X1.2927 Y0.6131 
G01 X1.2791 Y0.6187 
G01 X1.2687 Y0.6291 
G01 X1.2631 Y0.6427 
G01 X1.2631 Y0.6573 
G01 X1.2687 Y0.6709 
G01 X1.2791 Y0.6813 
G01 X1.2927 Y0.6869 
G01 X1.3073 Y0.6869 
G01 X1.3209 Y0.6813 
G01 X1.3313 Y0.6709 
G01 X1.3369 Y0.6573 
G01 X1.3369 Y0.6427 
G01 X1.3313 Y0.6291 
G01 X1.3209 Y0.6187 
G01 X1.3073 Y0.6131 
G00 Z0.0200 
G00 X1.3351 Y0.6430 
G01 Z-0.0100 F10.00 
G01 X1.3351 Y0.6570 
G01 X1.3297 Y0.6699 
G01 X1.3199 Y0.6797 
G01 X1.3070 Y0.6851 
G01 X1.2930 Y0.6851 
G01 X1.2801 Y0.6797 
G01 X1.2702 Y0.6699 
G01 X1.2649 Y0.6570 
G01 X1.2649 Y0.6430 
G01 X1.2702 Y0.6301 
G01 X1.2801 Y0.6202 
G01 X1.2930 Y0.6149 
G01 X1.3070 Y0.6149 
G01 X1.3199 Y0.6202 
G01 X1.3297 Y0.6301 
G01 X1.3351 Y0.6430 
G00 Z0.0200 
G00 X1.3073 Y0.8131 
G01 Z-0.0100 F10.00 
G01 X1.2927 Y0.8131 
G01 X1.2791 Y0.8187 
G01 X1.2687 Y0.8291 
G01 X1.2631 Y0.8427 
G01 X1.2631 Y0.8573 
G01 X1.2687 Y0.8709 
G01 X1.2791 Y0.8813 
G01 X1.2927 Y0.8869 
G01 X1.3073 Y0.8869 
G01 X1.3209 Y0.8813 
G01 X1.3313 Y0.8709 
G01 X1.3369 Y0.8573 
G01 X1.3369 Y0.8427 
G01 X1.3313 Y0.8291 
G01 X1.3209 Y0.8187 
G01 X1.3073 Y0.8131 
G00 Z0.0200 
G00 X1.3351 Y0.8430 
G01 Z-0.0100 F10.00 
G01 X1.3351 Y0.8570 
G01 X1.3297 Y0.8699 
G01 X1.3199 Y0.8797 
G01 X1.3070 Y0.8851 
G01 X1.2930 Y0.8851 
G01 X1.2801 Y0.8797 
G01 X1.2702 Y0.8699 
G01 X1.2649 Y0.8570 
G01 X1.2649 Y0.8430 
G01 X1.2702 Y0.8301 
G01 X1.2801 Y0.8202 
G01 X1.2930 Y0.8149 
G01 X1.3070 Y0.8149 
G01 X1.3199 Y0.8202 
G01 X1.3297 Y0.8301 
G01 X1.3351 Y0.8430 
G00 Z0.0200 
G00 X1.3073 Y1.0131 
G01 Z-0.0100 F10.00 
G01 X1.2927 Y1.0131 
G01 X1.2791 Y1.0187 
G01 X1.2687 Y1.0291 
G01 X1.2631 Y1.0427 
G01 X1.2631 Y1.0573 
G01 X1.2687 Y1.0709 
G01 X1.2791 Y1.0813 
G01 X1.2927 Y1.0869 
G01 X1.3073 Y1.0869 
G01 X1.3209 Y1.0813 
G01 X1.3313 Y1.0709 
G01 X1.3369 Y1.0573 
G01 X1.3369 Y1.0427 
G01 X1.3313 Y1.0291 
G01 X1.3209 Y1.0187 
G01 X1.3073 Y1.0131 
G00 Z0.0200 
G00 X1.3351 Y1.0430 
G01 Z-0.0100 F10.00 
G01 X1.3351 Y1.0570 
G01 X1.3297 Y1.0699 
G01 X1.3199 Y1.0797 
G01 X1.3070 Y1.0851 
G01 X1.2930 Y1.0851 
G01 X1.2801 Y1.0797 
G01 X1.2702 Y1.0699 
G01 X1.2649 Y1.0570 
G01 X1.2649 Y1.0430 
G01 X1.2702 Y1.0301 
G01 X1.2801 Y1.0202 
G01 X1.2930 Y1.0149 
G01 X1.3070 Y1.0149 
G01 X1.3199 Y1.0202 
G01 X1.3297 Y1.0301 
G01 X1.3351 Y1.0430 
G00 Z0.0200 
G00 X1.3073 Y1.2131 
G01 Z-0.0100 F10.00 
G01 X1.2927 Y1.2131 
G01 X1.2791 Y1.2187 
G01 X1.2687 Y1.2291 
G01 X1.2631 Y1.2427 
G01 X1.2631 Y1.2573 
G01 X1.2687 Y1.2709 
G01 X1.2791 Y1.2813 
G01 X1.2927 Y1.2869 
G01 X1.3073 Y1.2869 
G01 X1.3209 Y1.2813 
G01 X1.3313 Y1.2709 
G01 X1.3369 Y1.2573 
G01 X1.3369 Y1.2427 
G01 X1.3313 Y1.2291 
G01 X1.3209 Y1.2187 
G01 X1.3073 Y1.2131 
G00 Z0.0200 
G00 X1.3351 Y1.2430 
G01 Z-0.0100 F10.00 
G01 X1.3351 Y1.2570 
G01 X1.3297 Y1.2699 
G01 X1.3199 Y1.2797 
G01 X1.3070 Y1.2851 
G01 X1.2930 Y1.2851 
G01 X1.2801 Y1.2797 
G01 X1.2702 Y1.2699 
G01 X1.2649 Y1.2570 
G01 X1.2649 Y1.2430 
G01 X1.2702 Y1.2301 
G01 X1.2801 Y1.2202 
G01 X1.2930 Y1.2149 
G01 X1.3070 Y1.2149 
G01 X1.3199 Y1.2202 
G01 X1.3297 Y1.2301 
G01 X1.3351 Y1.2430 
G00 Z0.0200 
G00 X1.3073 Y1.3131 
G01 Z-0.0100 F10.00 
G01 X1.2927 Y1.3131 
G01 X1.2791 Y1.3187 
G01 X1.2687 Y1.3291 
G01 X1.2631 Y1.3427 
G01 X1.2631 Y1.3573 
G01 X1.2687 Y1.3709 
G01 X1.2791 Y1.3813 
G01 X1.2927 Y1.3869 
G01 X1.3073 Y1.3869 
G01 X1.3209 Y1.3813 
G01 X1.3313 Y1.3709 
G01 X1.3369 Y1.3573 
G01 X1.3369 Y1.3427 
G01 X1.3313 Y1.3291 
G01 X1.3209 Y1.3187 
G01 X1.3073 Y1.3131 
G00 Z0.0200 
G00 X1.3351 Y1.3430 
G01 Z-0.0100 F10.00 
G01 X1.3351 Y1.3570 
G01 X1.3297 Y1.3699 
G01 X1.3199 Y1.3797 
G01 X1.3070 Y1.3851 
G01 X1.2930 Y1.3851 
G01 X1.2801 Y1.3797 
G01 X1.2702 Y1.3699 
G01 X1.2649 Y1.3570 
G01 X1.2649 Y1.3430 
G01 X1.2702 Y1.3301 
G01 X1.2801 Y1.3202 
G01 X1.2930 Y1.3149 
G01 X1.3070 Y1.3149 
G01 X1.3199 Y1.3202 
G01 X1.3297 Y1.3301 
G01 X1.3351 Y1.3430 
G00 Z0.0200 
G00 X1.3073 Y1.1131 
G01 Z-0.0100 F10.00 
G01 X1.2927 Y1.1131 
G01 X1.2791 Y1.1187 
G01 X1.2687 Y1.1291 
G01 X1.2631 Y1.1427 
G01 X1.2631 Y1.1573 
G01 X1.2687 Y1.1709 
G01 X1.2791 Y1.1813 
G01 X1.2927 Y1.1869 
G01 X1.3073 Y1.1869 
G01 X1.3209 Y1.1813 
G01 X1.3313 Y1.1709 
G01 X1.3369 Y1.1573 
G01 X1.3369 Y1.1427 
G01 X1.3313 Y1.1291 
G01 X1.3209 Y1.1187 
G01 X1.3073 Y1.1131 
G00 Z0.0200 
G00 X1.3351 Y1.1430 
G01 Z-0.0100 F10.00 
G01 X1.3351 Y1.1570 
G01 X1.3297 Y1.1699 
G01 X1.3199 Y1.1797 
G01 X1.3070 Y1.1851 
G01 X1.2930 Y1.1851 
G01 X1.2801 Y1.1797 
G01 X1.2702 Y1.1699 
G01 X1.2649 Y1.1570 
G01 X1.2649 Y1.1430 
G01 X1.2702 Y1.1301 
G01 X1.2801 Y1.1202 
G01 X1.2930 Y1.1149 
G01 X1.3070 Y1.1149 
G01 X1.3199 Y1.1202 
G01 X1.3297 Y1.1301 
G01 X1.3351 Y1.1430 
G00 Z0.0200 
G00 X1.3073 Y0.9131 
G01 Z-0.0100 F10.00 
G01 X1.2927 Y0.9131 
G01 X1.2791 Y0.9187 
G01 X1.2687 Y0.9291 
G01 X1.2631 Y0.9427 
G01 X1.2631 Y0.9573 
G01 X1.2687 Y0.9709 
G01 X1.2791 Y0.9813 
G01 X1.2927 Y0.9869 
G01 X1.3073 Y0.9869 
G01 X1.3209 Y0.9813 
G01 X1.3313 Y0.9709 
G01 X1.3369 Y0.9573 
G01 X1.3369 Y0.9427 
G01 X1.3313 Y0.9291 
G01 X1.3209 Y0.9187 
G01 X1.3073 Y0.9131 
G00 Z0.0200 
G00 X1.3351 Y0.9430 
G01 Z-0.0100 F10.00 
G01 X1.3351 Y0.9570 
G01 X1.3297 Y0.9699 
G01 X1.3199 Y0.9797 
G01 X1.3070 Y0.9851 
G01 X1.2930 Y0.9851 
G01 X1.2801 Y0.9797 
G01 X1.2702 Y0.9699 
G01 X1.2649 Y0.9570 
G01 X1.2649 Y0.9430 
G01 X1.2702 Y0.9301 
G01 X1.2801 Y0.9202 
G01 X1.2930 Y0.9149 
G01 X1.3070 Y0.9149 
G01 X1.3199 Y0.9202 
G01 X1.3297 Y0.9301 
G01 X1.3351 Y0.9430 
G00 Z0.0200 
G00 X1.3073 Y0.7131 
G01 Z-0.0100 F10.00 
G01 X1.2927 Y0.7131 
G01 X1.2791 Y0.7187 
G01 X1.2687 Y0.7291 
G01 X1.2631 Y0.7427 
G01 X1.2631 Y0.7573 
G01 X1.2687 Y0.7709 
G01 X1.2791 Y0.7813 
G01 X1.2927 Y0.7869 
G01 X1.3073 Y0.7869 
G01 X1.3209 Y0.7813 
G01 X1.3313 Y0.7709 
G01 X1.3369 Y0.7573 
G01 X1.3369 Y0.7427 
G01 X1.3313 Y0.7291 
G01 X1.3209 Y0.7187 
G01 X1.3073 Y0.7131 
G00 Z0.0200 
G00 X1.3351 Y0.7430 
G01 Z-0.0100 F10.00 
G01 X1.3351 Y0.7570 
G01 X1.3297 Y0.7699 
G01 X1.3199 Y0.7797 
G01 X1.3070 Y0.7851 
G01 X1.2930 Y0.7851 
G01 X1.2801 Y0.7797 
G01 X1.2702 Y0.7699 
G01 X1.2649 Y0.7570 
G01 X1.2649 Y0.7430 
G01 X1.2702 Y0.7301 
G01 X1.2801 Y0.7202 
G01 X1.2930 Y0.7149 
G01 X1.3070 Y0.7149 
G01 X1.3199 Y0.7202 
G01 X1.3297 Y0.7301 
G01 X1.3351 Y0.7430 
G00 Z0.0200 
G00 X0.6073 Y0.7131 
G01 Z-0.0100 F10.00 
G01 X0.5927 Y0.7131 
G01 X0.5791 Y0.7187 
G01 X0.5687 Y0.7291 
G01 X0.5631 Y0.7427 
G01 X0.5631 Y0.7573 
G01 X0.5687 Y0.7709 
G01 X0.5791 Y0.7813 
G01 X0.5927 Y0.7869 
G01 X0.6073 Y0.7869 
G01 X0.6209 Y0.7813 
G01 X0.6313 Y0.7709 
G01 X0.6369 Y0.7573 
G01 X0.6369 Y0.7427 
G01 X0.6313 Y0.7291 
G01 X0.6209 Y0.7187 
G01 X0.6073 Y0.7131 
G00 Z0.0200 
G00 X0.6351 Y0.7430 
G01 Z-0.0100 F10.00 
G01 X0.6351 Y0.7570 
G01 X0.6297 Y0.7699 
G01 X0.6199 Y0.7797 
G01 X0.6070 Y0.7851 
G01 X0.5930 Y0.7851 
G01 X0.5801 Y0.7797 
G01 X0.5702 Y0.7699 
G01 X0.5649 Y0.7570 
G01 X0.5649 Y0.7430 
G01 X0.5702 Y0.7301 
G01 X0.5801 Y0.7202 
G01 X0.5930 Y0.7149 
G01 X0.6070 Y0.7149 
G01 X0.6199 Y0.7202 
G01 X0.6297 Y0.7301 
G01 X0.6351 Y0.7430 
G00 Z0.0200 
G00 X0.6073 Y0.6131 
G01 Z-0.0100 F10.00 
G01 X0.5927 Y0.6131 
G01 X0.5791 Y0.6187 
G01 X0.5687 Y0.6291 
G01 X0.5631 Y0.6427 
G01 X0.5631 Y0.6573 
G01 X0.5687 Y0.6709 
G01 X0.5791 Y0.6813 
G01 X0.5927 Y0.6869 
G01 X0.6073 Y0.6869 
G01 X0.6209 Y0.6813 
G01 X0.6313 Y0.6709 
G01 X0.6369 Y0.6573 
G01 X0.6369 Y0.6427 
G01 X0.6313 Y0.6291 
G01 X0.6209 Y0.6187 
G01 X0.6073 Y0.6131 
G00 Z0.0200 
G00 X0.6351 Y0.6430 
G01 Z-0.0100 F10.00 
G01 X0.6351 Y0.6570 
G01 X0.6297 Y0.6699 
G01 X0.6199 Y0.6797 
G01 X0.6070 Y0.6851 
G01 X0.5930 Y0.6851 
G01 X0.5801 Y0.6797 
G01 X0.5702 Y0.6699 
G01 X0.5649 Y0.6570 
G01 X0.5649 Y0.6430 
G01 X0.5702 Y0.6301 
G01 X0.5801 Y0.6202 
G01 X0.5930 Y0.6149 
G01 X0.6070 Y0.6149 
G01 X0.6199 Y0.6202 
G01 X0.6297 Y0.6301 
G01 X0.6351 Y0.6430 
G00 Z0.0200 
G00 X2.1079 Y1.7584 
G01 Z-0.0100 F10.00 
G01 X2.1079 Y1.7416 
G01 X2.1140 Y1.7269 
G01 X2.1137 Y1.7271 
G01 X2.1117 Y1.7291 
G01 X2.1089 Y1.7291 
G01 X2.1062 Y1.7301 
G01 X2.1036 Y1.7291 
G01 X2.1008 Y1.7291 
G01 X2.0988 Y1.7271 
G01 X2.0962 Y1.7260 
G01 X2.0952 Y1.7234 
G01 X2.0932 Y1.7214 
G01 X2.0932 Y1.7198 
G01 X2.0794 Y1.7060 
G01 X2.0603 Y1.6981 
G01 X2.0397 Y1.6981 
G01 X2.0206 Y1.7060 
G01 X2.0077 Y1.7189 
G01 X2.0077 Y1.7194 
G01 X2.0057 Y1.7214 
G01 X2.0046 Y1.7239 
G01 X2.0020 Y1.7250 
G01 X2.0000 Y1.7271 
G01 X1.9972 Y1.7271 
G01 X1.9946 Y1.7281 
G01 X1.9920 Y1.7271 
G01 X1.9891 Y1.7271 
G01 X1.9872 Y1.7251 
G01 X1.9846 Y1.7240 
G01 X1.9835 Y1.7214 
G01 X1.9749 Y1.7128 
G01 X1.9587 Y1.7061 
G01 X1.9413 Y1.7061 
G01 X1.9251 Y1.7128 
G01 X1.9128 Y1.7251 
G01 X1.9061 Y1.7413 
G01 X1.9061 Y1.7587 
G01 X1.9128 Y1.7749 
G01 X1.9251 Y1.7872 
G01 X1.9413 Y1.7939 
G01 X1.9587 Y1.7939 
G01 X1.9749 Y1.7872 
G01 X1.9835 Y1.7786 
G01 X1.9846 Y1.7760 
G01 X1.9872 Y1.7749 
G01 X1.9891 Y1.7729 
G01 X1.9920 Y1.7729 
G01 X1.9946 Y1.7719 
G01 X1.9972 Y1.7729 
G01 X2.0000 Y1.7729 
G01 X2.0020 Y1.7749 
G01 X2.0046 Y1.7760 
G01 X2.0057 Y1.7786 
G01 X2.0077 Y1.7806 
G01 X2.0077 Y1.7811 
G01 X2.0206 Y1.7940 
G01 X2.0397 Y1.8019 
G01 X2.0603 Y1.8019 
G01 X2.0794 Y1.7940 
G01 X2.0932 Y1.7802 
G01 X2.0932 Y1.7786 
G01 X2.0952 Y1.7766 
G01 X2.0962 Y1.7740 
G01 X2.0988 Y1.7729 
G01 X2.1008 Y1.7709 
G01 X2.1036 Y1.7709 
G01 X2.1062 Y1.7699 
G01 X2.1089 Y1.7709 
G01 X2.1117 Y1.7709 
G01 X2.1137 Y1.7729 
G01 X2.1140 Y1.7731 
G01 X2.1079 Y1.7584 
G00 Z0.0200 
G00 X2.0921 Y1.7416 
G01 Z-0.0100 F10.00 
G01 X2.0921 Y1.7584 
G01 X2.0857 Y1.7738 
G01 X2.0738 Y1.7857 
G01 X2.0584 Y1.7921 
G01 X2.0416 Y1.7921 
G01 X2.0262 Y1.7857 
G01 X2.0143 Y1.7738 
G01 X2.0079 Y1.7584 
G01 X2.0079 Y1.7416 
G01 X2.0143 Y1.7262 
G01 X2.0262 Y1.7143 
G01 X2.0416 Y1.7079 
G01 X2.0584 Y1.7079 
G01 X2.0738 Y1.7143 
G01 X2.0857 Y1.7262 
G01 X2.0921 Y1.7416 
G00 Z0.0200 
G00 X1.9921 Y1.7416 
G01 Z-0.0100 F10.00 
G01 X1.9921 Y1.7584 
G01 X1.9857 Y1.7738 
G01 X1.9738 Y1.7857 
G01 X1.9584 Y1.7921 
G01 X1.9416 Y1.7921 
G01 X1.9262 Y1.7857 
G01 X1.9143 Y1.7738 
G01 X1.9079 Y1.7584 
G01 X1.9079 Y1.7416 
G01 X1.9143 Y1.7262 
G01 X1.9262 Y1.7143 
G01 X1.9416 Y1.7079 
G01 X1.9584 Y1.7079 
G01 X1.9738 Y1.7143 
G01 X1.9857 Y1.7262 
G01 X1.9921 Y1.7416 
G00 Z0.0200 
G00 X3.0774 Y0.1294 
G01 Z-0.0100 F10.00 
G01 X3.0794 Y0.1314 
G01 X3.0820 Y0.1325 
G01 X3.0831 Y0.1351 
G01 X3.0851 Y0.1371 
G01 X3.0851 Y0.1399 
G01 X3.0862 Y0.1425 
G01 X3.0851 Y0.1451 
G01 X3.0851 Y0.1999 
G01 X3.0851 Y0.2030 
G01 X3.0874 Y0.2084 
G01 X3.0916 Y0.2126 
G01 X3.0970 Y0.2149 
G01 X3.8274 Y0.2149 
G01 X3.8351 Y0.2226 
G01 X3.8351 Y0.2334 
G01 X3.8351 Y0.4378 
G01 X3.8351 Y0.4378 
G01 X3.8313 Y0.4416 
G01 X3.8274 Y0.4455 
G01 X3.8166 Y0.4455 
G01 X3.8166 Y0.4455 
G01 X3.8120 Y0.4410 
G01 X3.8089 Y0.4378 
G01 X3.8089 Y0.4378 
G01 X3.8084 Y0.4374 
G01 X3.8030 Y0.4351 
G01 X3.7890 Y0.4351 
G01 X3.2476 Y0.4351 
G01 X3.2450 Y0.4362 
G01 X3.2424 Y0.4351 
G01 X3.2396 Y0.4351 
G01 X3.2376 Y0.4331 
G01 X3.2350 Y0.4320 
G01 X3.2339 Y0.4294 
G01 X3.2319 Y0.4274 
G01 X3.2319 Y0.4246 
G01 X3.2308 Y0.4220 
G01 X3.2319 Y0.4194 
G01 X3.2319 Y0.4166 
G01 X3.2339 Y0.4146 
G01 X3.2369 Y0.4073 
G01 X3.2369 Y0.3927 
G01 X3.2313 Y0.3791 
G01 X3.2209 Y0.3687 
G01 X3.2073 Y0.3631 
G01 X3.1927 Y0.3631 
G01 X3.1791 Y0.3687 
G01 X3.1687 Y0.3791 
G01 X3.1631 Y0.3927 
G01 X3.1631 Y0.4073 
G01 X3.1687 Y0.4209 
G01 X3.1772 Y0.4294 
G01 X3.1774 Y0.4294 
G01 X3.1794 Y0.4314 
G01 X3.1820 Y0.4325 
G01 X3.1831 Y0.4351 
G01 X3.1851 Y0.4371 
G01 X3.1851 Y0.4399 
G01 X3.1862 Y0.4425 
G01 X3.1851 Y0.4451 
G01 X3.1851 Y0.4499 
G01 X3.1851 Y0.4530 
G01 X3.1874 Y0.4584 
G01 X3.1878 Y0.4589 
G01 X3.1878 Y0.4589 
G01 X3.1908 Y0.4619 
G01 X3.1955 Y0.4666 
G01 X3.1955 Y0.4774 
G01 X3.1955 Y0.4774 
G01 X3.1917 Y0.4812 
G01 X3.1878 Y0.4851 
G01 X3.1770 Y0.4851 
G01 X3.1226 Y0.4851 
G01 X3.1149 Y0.4774 
G01 X3.1149 Y0.4666 
G01 X3.1149 Y0.4451 
G01 X3.1138 Y0.4425 
G01 X3.1149 Y0.4399 
G01 X3.1149 Y0.4371 
G01 X3.1169 Y0.4351 
G01 X3.1180 Y0.4325 
G01 X3.1206 Y0.4314 
G01 X3.1226 Y0.4294 
G01 X3.1228 Y0.4294 
G01 X3.1313 Y0.4209 
G01 X3.1369 Y0.4073 
G01 X3.1369 Y0.3927 
G01 X3.1313 Y0.3791 
G01 X3.1209 Y0.3687 
G01 X3.1073 Y0.3631 
G01 X3.0927 Y0.3631 
G01 X3.0791 Y0.3687 
G01 X3.0687 Y0.3791 
G01 X3.0631 Y0.3927 
G01 X3.0631 Y0.4073 
G01 X3.0687 Y0.4209 
G01 X3.0772 Y0.4294 
G01 X3.0774 Y0.4294 
G01 X3.0794 Y0.4314 
G01 X3.0820 Y0.4325 
G01 X3.0831 Y0.4351 
G01 X3.0851 Y0.4371 
G01 X3.0851 Y0.4399 
G01 X3.0862 Y0.4425 
G01 X3.0851 Y0.4451 
G01 X3.0851 Y0.4999 
G01 X3.0851 Y0.5030 
G01 X3.0874 Y0.5084 
G01 X3.0878 Y0.5089 
G01 X3.0878 Y0.5089 
G01 X3.0908 Y0.5119 
G01 X3.0955 Y0.5166 
G01 X3.0955 Y0.5274 
G01 X3.0955 Y0.5274 
G01 X3.0917 Y0.5312 
G01 X3.0878 Y0.5351 
G01 X3.0770 Y0.5351 
G01 X3.0334 Y0.5351 
G01 X3.0226 Y0.5351 
G01 X3.0149 Y0.5274 
G01 X3.0149 Y0.4451 
G01 X3.0138 Y0.4425 
G01 X3.0149 Y0.4399 
G01 X3.0149 Y0.4371 
G01 X3.0169 Y0.4351 
G01 X3.0180 Y0.4325 
G01 X3.0206 Y0.4314 
G01 X3.0226 Y0.4294 
G01 X3.0228 Y0.4294 
G01 X3.0313 Y0.4209 
G01 X3.0369 Y0.4073 
G01 X3.0369 Y0.3927 
G01 X3.0313 Y0.3791 
G01 X3.0209 Y0.3687 
G01 X3.0073 Y0.3631 
G01 X2.9927 Y0.3631 
G01 X2.9791 Y0.3687 
G01 X2.9687 Y0.3791 
G01 X2.9631 Y0.3927 
G01 X2.9631 Y0.4073 
G01 X2.9687 Y0.4209 
G01 X2.9772 Y0.4294 
G01 X2.9774 Y0.4294 
G01 X2.9794 Y0.4314 
G01 X2.9820 Y0.4325 
G01 X2.9831 Y0.4351 
G01 X2.9851 Y0.4371 
G01 X2.9851 Y0.4399 
G01 X2.9862 Y0.4425 
G01 X2.9851 Y0.4451 
G01 X2.9851 Y0.5499 
G01 X2.9851 Y0.5530 
G01 X2.9874 Y0.5584 
G01 X2.9916 Y0.5626 
G01 X2.9970 Y0.5649 
G01 X3.6774 Y0.5649 
G01 X3.6851 Y0.5726 
G01 X3.6851 Y0.5834 
G01 X3.6851 Y0.8274 
G01 X3.6774 Y0.8351 
G01 X3.6666 Y0.8351 
G01 X3.6451 Y0.8351 
G01 X3.6425 Y0.8362 
G01 X3.6399 Y0.8351 
G01 X3.6371 Y0.8351 
G01 X3.6351 Y0.8331 
G01 X3.6325 Y0.8320 
G01 X3.6314 Y0.8294 
G01 X3.6294 Y0.8274 
G01 X3.6294 Y0.8272 
G01 X3.6209 Y0.8187 
G01 X3.6073 Y0.8131 
G01 X3.5927 Y0.8131 
G01 X3.5791 Y0.8187 
G01 X3.5687 Y0.8291 
G01 X3.5631 Y0.8427 
G01 X3.5631 Y0.8573 
G01 X3.5687 Y0.8709 
G01 X3.5791 Y0.8813 
G01 X3.5927 Y0.8869 
G01 X3.6073 Y0.8869 
G01 X3.6209 Y0.8813 
G01 X3.6294 Y0.8728 
G01 X3.6294 Y0.8726 
G01 X3.6314 Y0.8706 
G01 X3.6325 Y0.8680 
G01 X3.6351 Y0.8669 
G01 X3.6371 Y0.8649 
G01 X3.6399 Y0.8649 
G01 X3.6425 Y0.8638 
G01 X3.6451 Y0.8649 
G01 X3.6999 Y0.8649 
G01 X3.7030 Y0.8649 
G01 X3.7084 Y0.8626 
G01 X3.7089 Y0.8622 
G01 X3.7089 Y0.8622 
G01 X3.7119 Y0.8592 
G01 X3.7166 Y0.8545 
G01 X3.7274 Y0.8545 
G01 X3.7274 Y0.8545 
G01 X3.7312 Y0.8583 
G01 X3.7351 Y0.8622 
G01 X3.7351 Y0.8730 
G01 X3.7351 Y0.9274 
G01 X3.7274 Y0.9351 
G01 X3.7166 Y0.9351 
G01 X3.6451 Y0.9351 
G01 X3.6425 Y0.9362 
G01 X3.6399 Y0.9351 
G01 X3.6371 Y0.9351 
G01 X3.6351 Y0.9331 
G01 X3.6325 Y0.9320 
G01 X3.6314 Y0.9294 
G01 X3.6294 Y0.9274 
G01 X3.6294 Y0.9272 
G01 X3.6209 Y0.9187 
G01 X3.6073 Y0.9131 
G01 X3.5927 Y0.9131 
G01 X3.5791 Y0.9187 
G01 X3.5687 Y0.9291 
G01 X3.5631 Y0.9427 
G01 X3.5631 Y0.9573 
G01 X3.5687 Y0.9709 
G01 X3.5791 Y0.9813 
G01 X3.5927 Y0.9869 
G01 X3.6073 Y0.9869 
G01 X3.6209 Y0.9813 
G01 X3.6294 Y0.9728 
G01 X3.6294 Y0.9726 
G01 X3.6314 Y0.9706 
G01 X3.6325 Y0.9680 
G01 X3.6351 Y0.9669 
G01 X3.6371 Y0.9649 
G01 X3.6399 Y0.9649 
G01 X3.6425 Y0.9638 
G01 X3.6451 Y0.9649 
G01 X3.7530 Y0.9649 
G01 X3.7584 Y0.9626 
G01 X3.7589 Y0.9622 
G01 X3.7589 Y0.9622 
G01 X3.7619 Y0.9592 
G01 X3.7666 Y0.9545 
G01 X3.7774 Y0.9545 
G01 X3.7774 Y0.9545 
G01 X3.7812 Y0.9583 
G01 X3.7851 Y0.9622 
G01 X3.7851 Y0.9730 
G01 X3.7851 Y1.1274 
G01 X3.7774 Y1.1351 
G01 X3.7666 Y1.1351 
G01 X3.6451 Y1.1351 
G01 X3.6425 Y1.1362 
G01 X3.6399 Y1.1351 
G01 X3.6371 Y1.1351 
G01 X3.6351 Y1.1331 
G01 X3.6325 Y1.1320 
G01 X3.6314 Y1.1294 
G01 X3.6294 Y1.1274 
G01 X3.6294 Y1.1272 
G01 X3.6209 Y1.1187 
G01 X3.6073 Y1.1131 
G01 X3.5927 Y1.1131 
G01 X3.5791 Y1.1187 
G01 X3.5687 Y1.1291 
G01 X3.5631 Y1.1426 
G01 X3.5631 Y1.1573 
G01 X3.5687 Y1.1709 
G01 X3.5791 Y1.1813 
G01 X3.5927 Y1.1869 
G01 X3.6073 Y1.1869 
G01 X3.6209 Y1.1813 
G01 X3.6294 Y1.1728 
G01 X3.6294 Y1.1726 
G01 X3.6314 Y1.1706 
G01 X3.6325 Y1.1680 
G01 X3.6351 Y1.1669 
G01 X3.6371 Y1.1649 
G01 X3.6399 Y1.1649 
G01 X3.6425 Y1.1638 
G01 X3.6451 Y1.1649 
G01 X3.7999 Y1.1649 
G01 X3.8030 Y1.1649 
G01 X3.8084 Y1.1626 
G01 X3.8089 Y1.1622 
G01 X3.8089 Y1.1622 
G01 X3.8119 Y1.1592 
G01 X3.8166 Y1.1545 
G01 X3.8274 Y1.1545 
G01 X3.8274 Y1.1545 
G01 X3.8312 Y1.1583 
G01 X3.8351 Y1.1622 
G01 X3.8351 Y1.1730 
G01 X3.8351 Y1.2274 
G01 X3.8274 Y1.2351 
G01 X3.8166 Y1.2351 
G01 X3.6451 Y1.2351 
G01 X3.6425 Y1.2362 
G01 X3.6399 Y1.2351 
G01 X3.6371 Y1.2351 
G01 X3.6351 Y1.2331 
G01 X3.6325 Y1.2320 
G01 X3.6314 Y1.2294 
G01 X3.6294 Y1.2274 
G01 X3.6294 Y1.2272 
G01 X3.6209 Y1.2187 
G01 X3.6073 Y1.2131 
G01 X3.5927 Y1.2131 
G01 X3.5791 Y1.2187 
G01 X3.5687 Y1.2291 
G01 X3.5631 Y1.2427 
G01 X3.5631 Y1.2573 
G01 X3.5687 Y1.2709 
G01 X3.5791 Y1.2813 
G01 X3.5927 Y1.2869 
G01 X3.6073 Y1.2869 
G01 X3.6209 Y1.2813 
G01 X3.6294 Y1.2728 
G01 X3.6294 Y1.2726 
G01 X3.6314 Y1.2706 
G01 X3.6325 Y1.2680 
G01 X3.6351 Y1.2669 
G01 X3.6371 Y1.2649 
G01 X3.6399 Y1.2649 
G01 X3.6425 Y1.2638 
G01 X3.6451 Y1.2649 
G01 X3.8499 Y1.2649 
G01 X3.8530 Y1.2649 
G01 X3.8584 Y1.2626 
G01 X3.8626 Y1.2584 
G01 X3.8649 Y1.2530 
G01 X3.8649 Y0.5501 
G01 X3.8649 Y0.1970 
G01 X3.8626 Y0.1916 
G01 X3.8584 Y0.1874 
G01 X3.8530 Y0.1851 
G01 X3.8390 Y0.1851 
G01 X3.1226 Y0.1851 
G01 X3.1149 Y0.1774 
G01 X3.1149 Y0.1666 
G01 X3.1149 Y0.1451 
G01 X3.1138 Y0.1425 
G01 X3.1149 Y0.1399 
G01 X3.1149 Y0.1371 
G01 X3.1169 Y0.1351 
G01 X3.1180 Y0.1325 
G01 X3.1206 Y0.1314 
G01 X3.1226 Y0.1294 
G01 X3.1228 Y0.1294 
G01 X3.1313 Y0.1209 
G01 X3.1369 Y0.1073 
G01 X3.1369 Y0.0927 
G01 X3.1313 Y0.0791 
G01 X3.1209 Y0.0687 
G01 X3.1073 Y0.0631 
G01 X3.0927 Y0.0631 
G01 X3.0791 Y0.0687 
G01 X3.0687 Y0.0791 
G01 X3.0631 Y0.0927 
G01 X3.0631 Y0.1073 
G01 X3.0687 Y0.1209 
G01 X3.0772 Y0.1294 
G01 X3.0774 Y0.1294 
G00 Z0.0200 
G00 X3.1351 Y0.0930 
G01 Z-0.0100 F10.00 
G01 X3.1351 Y0.1070 
G01 X3.1297 Y0.1199 
G01 X3.1199 Y0.1297 
G01 X3.1131 Y0.1326 
G01 X3.1131 Y0.1869 
G01 X3.8446 Y0.1869 
G01 X3.8554 Y0.1869 
G01 X3.8631 Y0.1946 
G01 X3.8631 Y0.5554 
G01 X3.8631 Y1.2554 
G01 X3.8554 Y1.2631 
G01 X3.8446 Y1.2631 
G01 X3.6326 Y1.2631 
G01 X3.6297 Y1.2699 
G01 X3.6199 Y1.2797 
G01 X3.6070 Y1.2851 
G01 X3.5930 Y1.2851 
G01 X3.5801 Y1.2797 
G01 X3.5702 Y1.2699 
G01 X3.5649 Y1.2570 
G01 X3.5649 Y1.2430 
G01 X3.5702 Y1.2301 
G01 X3.5801 Y1.2202 
G01 X3.5930 Y1.2149 
G01 X3.6070 Y1.2149 
G01 X3.6199 Y1.2202 
G01 X3.6297 Y1.2301 
G01 X3.6326 Y1.2369 
G01 X3.8369 Y1.2369 
G01 X3.8369 Y0.5554 
G01 X3.8369 Y0.2131 
G01 X3.0946 Y0.2131 
G01 X3.0869 Y0.2054 
G01 X3.0869 Y0.1946 
G01 X3.0869 Y0.1326 
G01 X3.0801 Y0.1297 
G01 X3.0702 Y0.1199 
G01 X3.0649 Y0.1070 
G01 X3.0649 Y0.0930 
G01 X3.0702 Y0.0801 
G01 X3.0801 Y0.0702 
G01 X3.0930 Y0.0649 
G01 X3.1070 Y0.0649 
G01 X3.1199 Y0.0702 
G01 X3.1297 Y0.0801 
G01 X3.1351 Y0.0930 
G00 Z0.0200 
G00 X3.1351 Y0.3930 
G01 Z-0.0100 F10.00 
G01 X3.1351 Y0.4070 
G01 X3.1297 Y0.4199 
G01 X3.1199 Y0.4297 
G01 X3.1131 Y0.4326 
G01 X3.1131 Y0.4869 
G01 X3.7446 Y0.4869 
G01 X3.7554 Y0.4869 
G01 X3.7631 Y0.4946 
G01 X3.7631 Y0.9446 
G01 X3.7631 Y0.9554 
G01 X3.7554 Y0.9631 
G01 X3.6326 Y0.9631 
G01 X3.6297 Y0.9699 
G01 X3.6199 Y0.9797 
G01 X3.6070 Y0.9851 
G01 X3.5930 Y0.9851 
G01 X3.5801 Y0.9797 
G01 X3.5702 Y0.9699 
G01 X3.5649 Y0.9570 
G01 X3.5649 Y0.9430 
G01 X3.5702 Y0.9301 
G01 X3.5801 Y0.9202 
G01 X3.5930 Y0.9149 
G01 X3.6070 Y0.9149 
G01 X3.6199 Y0.9202 
G01 X3.6297 Y0.9301 
G01 X3.6326 Y0.9369 
G01 X3.7369 Y0.9369 
G01 X3.7369 Y0.5131 
G01 X3.0946 Y0.5131 
G01 X3.0869 Y0.5054 
G01 X3.0869 Y0.4946 
G01 X3.0869 Y0.4326 
G01 X3.0801 Y0.4297 
G01 X3.0702 Y0.4199 
G01 X3.0649 Y0.4070 
G01 X3.0649 Y0.3930 
G01 X3.0702 Y0.3801 
G01 X3.0801 Y0.3702 
G01 X3.0930 Y0.3649 
G01 X3.1070 Y0.3649 
G01 X3.1199 Y0.3702 
G01 X3.1297 Y0.3801 
G01 X3.1351 Y0.3930 
G00 Z0.0200 
G00 X3.6297 Y1.1699 
G01 Z-0.0100 F10.00 
G01 X3.6199 Y1.1797 
G01 X3.6070 Y1.1851 
G01 X3.5930 Y1.1851 
G01 X3.5801 Y1.1797 
G01 X3.5702 Y1.1699 
G01 X3.5649 Y1.1570 
G01 X3.5649 Y1.1430 
G01 X3.5702 Y1.1301 
G01 X3.5801 Y1.1202 
G01 X3.5930 Y1.1149 
G01 X3.6070 Y1.1149 
G01 X3.6199 Y1.1202 
G01 X3.6297 Y1.1301 
G01 X3.6326 Y1.1369 
G01 X3.7869 Y1.1369 
G01 X3.7869 Y0.4631 
G01 X3.1946 Y0.4631 
G01 X3.1869 Y0.4554 
G01 X3.1869 Y0.4446 
G01 X3.1869 Y0.4326 
G01 X3.1801 Y0.4297 
G01 X3.1702 Y0.4199 
G01 X3.1649 Y0.4070 
G01 X3.1649 Y0.3930 
G01 X3.1702 Y0.3801 
G01 X3.1801 Y0.3702 
G01 X3.1930 Y0.3649 
G01 X3.2070 Y0.3649 
G01 X3.2199 Y0.3702 
G01 X3.2297 Y0.3801 
G01 X3.2351 Y0.3930 
G01 X3.2351 Y0.4070 
G01 X3.2297 Y0.4199 
G01 X3.2199 Y0.4297 
G01 X3.2131 Y0.4326 
G01 X3.2131 Y0.4369 
G01 X3.7946 Y0.4369 
G01 X3.8054 Y0.4369 
G01 X3.8131 Y0.4446 
G01 X3.8131 Y1.1554 
G01 X3.8054 Y1.1631 
G01 X3.7946 Y1.1631 
G01 X3.6326 Y1.1631 
G01 X3.6297 Y1.1699 
G00 Z0.0200 
G00 X3.6297 Y0.8699 
G01 Z-0.0100 F10.00 
G01 X3.6199 Y0.8797 
G01 X3.6070 Y0.8851 
G01 X3.5930 Y0.8851 
G01 X3.5801 Y0.8797 
G01 X3.5702 Y0.8699 
G01 X3.5649 Y0.8570 
G01 X3.5649 Y0.8430 
G01 X3.5702 Y0.8301 
G01 X3.5801 Y0.8202 
G01 X3.5930 Y0.8149 
G01 X3.6070 Y0.8149 
G01 X3.6199 Y0.8202 
G01 X3.6297 Y0.8301 
G01 X3.6326 Y0.8369 
G01 X3.6869 Y0.8369 
G01 X3.6869 Y0.5631 
G01 X3.0054 Y0.5631 
G01 X2.9946 Y0.5631 
G01 X2.9869 Y0.5554 
G01 X2.9869 Y0.4326 
G01 X2.9801 Y0.4297 
G01 X2.9702 Y0.4199 
G01 X2.9649 Y0.4070 
G01 X2.9649 Y0.3930 
G01 X2.9702 Y0.3801 
G01 X2.9801 Y0.3702 
G01 X2.9930 Y0.3649 
G01 X3.0070 Y0.3649 
G01 X3.0199 Y0.3702 
G01 X3.0297 Y0.3801 
G01 X3.0351 Y0.3930 
G01 X3.0351 Y0.4070 
G01 X3.0297 Y0.4199 
G01 X3.0199 Y0.4297 
G01 X3.0131 Y0.4326 
G01 X3.0131 Y0.5369 
G01 X3.7054 Y0.5369 
G01 X3.7131 Y0.5446 
G01 X3.7131 Y0.5554 
G01 X3.7131 Y0.8554 
G01 X3.7054 Y0.8631 
G01 X3.6946 Y0.8631 
G01 X3.6326 Y0.8631 
G01 X3.6297 Y0.8699 
G00 Z0.0200 
G00 X2.7631 Y0.1073 
G01 Z-0.0100 F10.00 
G01 X2.7687 Y0.1209 
G01 X2.7791 Y0.1313 
G01 X2.7927 Y0.1369 
G01 X2.8073 Y0.1369 
G01 X2.8209 Y0.1313 
G01 X2.8313 Y0.1209 
G01 X2.8369 Y0.1073 
G01 X2.8369 Y0.0927 
G01 X2.8313 Y0.0791 
G01 X2.8209 Y0.0687 
G01 X2.8073 Y0.0631 
G01 X2.7927 Y0.0631 
G01 X2.7791 Y0.0687 
G01 X2.7687 Y0.0791 
G01 X2.7631 Y0.0927 
G01 X2.7631 Y0.1073 
G00 Z0.0200 
G00 X2.8351 Y0.0930 
G01 Z-0.0100 F10.00 
G01 X2.8351 Y0.1070 
G01 X2.8297 Y0.1199 
G01 X2.8199 Y0.1297 
G01 X2.8070 Y0.1351 
G01 X2.7930 Y0.1351 
G01 X2.7801 Y0.1297 
G01 X2.7702 Y0.1199 
G01 X2.7649 Y0.1070 
G01 X2.7649 Y0.0930 
G01 X2.7702 Y0.0801 
G01 X2.7801 Y0.0702 
G01 X2.7930 Y0.0649 
G01 X2.8070 Y0.0649 
G01 X2.8199 Y0.0702 
G01 X2.8297 Y0.0801 
G01 X2.8351 Y0.0930 
G00 Z0.0200 
G00 X2.8687 Y0.0791 
G01 Z-0.0100 F10.00 
G01 X2.8631 Y0.0927 
G01 X2.8631 Y0.1073 
G01 X2.8687 Y0.1209 
G01 X2.8791 Y0.1313 
G01 X2.8927 Y0.1369 
G01 X2.9073 Y0.1369 
G01 X2.9209 Y0.1313 
G01 X2.9313 Y0.1209 
G01 X2.9369 Y0.1073 
G01 X2.9369 Y0.0927 
G01 X2.9313 Y0.0791 
G01 X2.9209 Y0.0687 
G01 X2.9073 Y0.0631 
G01 X2.8927 Y0.0631 
G01 X2.8791 Y0.0687 
G01 X2.8687 Y0.0791 
G00 Z0.0200 
G00 X2.9351 Y0.0930 
G01 Z-0.0100 F10.00 
G01 X2.9351 Y0.1070 
G01 X2.9297 Y0.1199 
G01 X2.9199 Y0.1297 
G01 X2.9070 Y0.1351 
G01 X2.8930 Y0.1351 
G01 X2.8801 Y0.1297 
G01 X2.8702 Y0.1199 
G01 X2.8649 Y0.1070 
G01 X2.8649 Y0.0930 
G01 X2.8702 Y0.0801 
G01 X2.8801 Y0.0702 
G01 X2.8930 Y0.0649 
G01 X2.9070 Y0.0649 
G01 X2.9199 Y0.0702 
G01 X2.9297 Y0.0801 
G01 X2.9351 Y0.0930 
G00 Z0.0200 
G00 X0.7073 Y0.0631 
G01 Z-0.0100 F10.00 
G01 X0.6927 Y0.0631 
G01 X0.6791 Y0.0687 
G01 X0.6687 Y0.0791 
G01 X0.6631 Y0.0927 
G01 X0.6631 Y0.1073 
G01 X0.6687 Y0.1209 
G01 X0.6791 Y0.1313 
G01 X0.6927 Y0.1369 
G01 X0.7073 Y0.1369 
G01 X0.7209 Y0.1313 
G01 X0.7313 Y0.1209 
G01 X0.7369 Y0.1073 
G01 X0.7369 Y0.0927 
G01 X0.7313 Y0.0791 
G01 X0.7209 Y0.0687 
G01 X0.7073 Y0.0631 
G00 Z0.0200 
G00 X0.7351 Y0.0930 
G01 Z-0.0100 F10.00 
G01 X0.7351 Y0.1070 
G01 X0.7297 Y0.1199 
G01 X0.7199 Y0.1297 
G01 X0.7070 Y0.1351 
G01 X0.6930 Y0.1351 
G01 X0.6801 Y0.1297 
G01 X0.6702 Y0.1199 
G01 X0.6649 Y0.1070 
G01 X0.6649 Y0.0930 
G01 X0.6702 Y0.0801 
G01 X0.6801 Y0.0702 
G01 X0.6930 Y0.0649 
G01 X0.7070 Y0.0649 
G01 X0.7199 Y0.0702 
G01 X0.7297 Y0.0801 
G01 X0.7351 Y0.0930 
G00 Z0.0200 
G00 X0.8073 Y0.0631 
G01 Z-0.0100 F10.00 
G01 X0.7927 Y0.0631 
G01 X0.7791 Y0.0687 
G01 X0.7687 Y0.0791 
G01 X0.7631 Y0.0927 
G01 X0.7631 Y0.1073 
G01 X0.7687 Y0.1209 
G01 X0.7791 Y0.1313 
G01 X0.7927 Y0.1369 
G01 X0.8073 Y0.1369 
G01 X0.8209 Y0.1313 
G01 X0.8313 Y0.1209 
G01 X0.8369 Y0.1073 
G01 X0.8369 Y0.0927 
G01 X0.8313 Y0.0791 
G01 X0.8209 Y0.0687 
G01 X0.8073 Y0.0631 
G00 Z0.0200 
G00 X0.8351 Y0.0930 
G01 Z-0.0100 F10.00 
G01 X0.8351 Y0.1070 
G01 X0.8297 Y0.1199 
G01 X0.8199 Y0.1297 
G01 X0.8070 Y0.1351 
G01 X0.7930 Y0.1351 
G01 X0.7801 Y0.1297 
G01 X0.7702 Y0.1199 
G01 X0.7649 Y0.1070 
G01 X0.7649 Y0.0930 
G01 X0.7702 Y0.0801 
G01 X0.7801 Y0.0702 
G01 X0.7930 Y0.0649 
G01 X0.8070 Y0.0649 
G01 X0.8199 Y0.0702 
G01 X0.8297 Y0.0801 
G01 X0.8351 Y0.0930 
G00 Z0.0200 
G00 X0.9073 Y0.0631 
G01 Z-0.0100 F10.00 
G01 X0.8927 Y0.0631 
G01 X0.8791 Y0.0687 
G01 X0.8687 Y0.0791 
G01 X0.8631 Y0.0927 
G01 X0.8631 Y0.1073 
G01 X0.8687 Y0.1209 
G01 X0.8791 Y0.1313 
G01 X0.8927 Y0.1369 
G01 X0.9073 Y0.1369 
G01 X0.9209 Y0.1313 
G01 X0.9313 Y0.1209 
G01 X0.9369 Y0.1073 
G01 X0.9369 Y0.0927 
G01 X0.9313 Y0.0791 
G01 X0.9209 Y0.0687 
G01 X0.9073 Y0.0631 
G00 Z0.0200 
G00 X0.9351 Y0.0930 
G01 Z-0.0100 F10.00 
G01 X0.9351 Y0.1070 
G01 X0.9297 Y0.1199 
G01 X0.9199 Y0.1297 
G01 X0.9070 Y0.1351 
G01 X0.8930 Y0.1351 
G01 X0.8801 Y0.1297 
G01 X0.8702 Y0.1199 
G01 X0.8649 Y0.1070 
G01 X0.8649 Y0.0930 
G01 X0.8702 Y0.0801 
G01 X0.8801 Y0.0702 
G01 X0.8930 Y0.0649 
G01 X0.9070 Y0.0649 
G01 X0.9199 Y0.0702 
G01 X0.9297 Y0.0801 
G01 X0.9351 Y0.0930 
G00 Z0.0200 
G00 X1.0073 Y0.0631 
G01 Z-0.0100 F10.00 
G01 X0.9927 Y0.0631 
G01 X0.9791 Y0.0687 
G01 X0.9687 Y0.0791 
G01 X0.9631 Y0.0927 
G01 X0.9631 Y0.1073 
G01 X0.9687 Y0.1209 
G01 X0.9791 Y0.1313 
G01 X0.9927 Y0.1369 
G01 X1.0073 Y0.1369 
G01 X1.0209 Y0.1313 
G01 X1.0313 Y0.1209 
G01 X1.0369 Y0.1073 
G01 X1.0369 Y0.0927 
G01 X1.0313 Y0.0791 
G01 X1.0209 Y0.0687 
G01 X1.0073 Y0.0631 
G00 Z0.0200 
G00 X1.0351 Y0.0930 
G01 Z-0.0100 F10.00 
G01 X1.0351 Y0.1070 
G01 X1.0297 Y0.1199 
G01 X1.0199 Y0.1297 
G01 X1.0070 Y0.1351 
G01 X0.9930 Y0.1351 
G01 X0.9801 Y0.1297 
G01 X0.9702 Y0.1199 
G01 X0.9649 Y0.1070 
G01 X0.9649 Y0.0930 
G01 X0.9702 Y0.0801 
G01 X0.9801 Y0.0702 
G01 X0.9930 Y0.0649 
G01 X1.0070 Y0.0649 
G01 X1.0199 Y0.0702 
G01 X1.0297 Y0.0801 
G01 X1.0351 Y0.0930 
G00 Z0.0200 
G00 X0.7073 Y0.3631 
G01 Z-0.0100 F10.00 
G01 X0.6927 Y0.3631 
G01 X0.6791 Y0.3687 
G01 X0.6687 Y0.3791 
G01 X0.6631 Y0.3927 
G01 X0.6631 Y0.4073 
G01 X0.6687 Y0.4209 
G01 X0.6772 Y0.4294 
G01 X0.6774 Y0.4294 
G01 X0.6794 Y0.4314 
G01 X0.6820 Y0.4325 
G01 X0.6831 Y0.4351 
G01 X0.6851 Y0.4371 
G01 X0.6851 Y0.4399 
G01 X0.6862 Y0.4425 
G01 X0.6851 Y0.4451 
G01 X0.6851 Y0.4530 
G01 X0.6874 Y0.4584 
G01 X0.6972 Y0.4683 
G01 X0.6972 Y0.4683 
G01 X0.7351 Y0.5062 
G01 X0.7351 Y0.5170 
G01 X0.7351 Y0.5270 
G01 X0.7351 Y0.5378 
G01 X0.7274 Y0.5455 
G01 X0.7166 Y0.5455 
G01 X0.6247 Y0.4536 
G01 X0.6247 Y0.4536 
G01 X0.6172 Y0.4461 
G01 X0.6171 Y0.4460 
G01 X0.6171 Y0.4351 
G01 X0.6171 Y0.4351 
G01 X0.6313 Y0.4209 
G01 X0.6369 Y0.4073 
G01 X0.6369 Y0.3927 
G01 X0.6313 Y0.3791 
G01 X0.6209 Y0.3687 
G01 X0.6073 Y0.3631 
G01 X0.5927 Y0.3631 
G01 X0.5791 Y0.3687 
G01 X0.5687 Y0.3791 
G01 X0.5631 Y0.3927 
G01 X0.5631 Y0.4073 
G01 X0.5687 Y0.4209 
G01 X0.5772 Y0.4294 
G01 X0.5774 Y0.4294 
G01 X0.5794 Y0.4314 
G01 X0.5819 Y0.4324 
G01 X0.5830 Y0.4351 
G01 X0.5851 Y0.4371 
G01 X0.5851 Y0.4398 
G01 X0.5862 Y0.4424 
G01 X0.5851 Y0.4451 
G01 X0.5851 Y0.4530 
G01 X0.5874 Y0.4584 
G01 X0.5972 Y0.4683 
G01 X0.6851 Y0.5562 
G01 X0.6851 Y0.5670 
G01 X0.6851 Y0.8274 
G01 X0.6774 Y0.8351 
G01 X0.6666 Y0.8351 
G01 X0.6451 Y0.8351 
G01 X0.6425 Y0.8362 
G01 X0.6399 Y0.8351 
G01 X0.6371 Y0.8351 
G01 X0.6351 Y0.8331 
G01 X0.6325 Y0.8320 
G01 X0.6314 Y0.8294 
G01 X0.6294 Y0.8274 
G01 X0.6294 Y0.8272 
G01 X0.6209 Y0.8187 
G01 X0.6073 Y0.8131 
G01 X0.5927 Y0.8131 
G01 X0.5791 Y0.8187 
G01 X0.5687 Y0.8291 
G01 X0.5631 Y0.8427 
G01 X0.5631 Y0.8573 
G01 X0.5687 Y0.8709 
G01 X0.5791 Y0.8813 
G01 X0.5927 Y0.8869 
G01 X0.6073 Y0.8869 
G01 X0.6209 Y0.8813 
G01 X0.6294 Y0.8728 
G01 X0.6294 Y0.8726 
G01 X0.6314 Y0.8706 
G01 X0.6325 Y0.8680 
G01 X0.6351 Y0.8669 
G01 X0.6371 Y0.8649 
G01 X0.6399 Y0.8649 
G01 X0.6425 Y0.8638 
G01 X0.6451 Y0.8649 
G01 X0.6999 Y0.8649 
G01 X0.7030 Y0.8649 
G01 X0.7084 Y0.8626 
G01 X0.7089 Y0.8622 
G01 X0.7089 Y0.8622 
G01 X0.7119 Y0.8592 
G01 X0.7166 Y0.8545 
G01 X0.7274 Y0.8545 
G01 X0.7274 Y0.8545 
G01 X0.7312 Y0.8583 
G01 X0.7351 Y0.8622 
G01 X0.7351 Y0.8730 
G01 X0.7351 Y0.9274 
G01 X0.7274 Y0.9351 
G01 X0.7166 Y0.9351 
G01 X0.6451 Y0.9351 
G01 X0.6425 Y0.9362 
G01 X0.6399 Y0.9351 
G01 X0.6371 Y0.9351 
G01 X0.6351 Y0.9331 
G01 X0.6325 Y0.9320 
G01 X0.6314 Y0.9294 
G01 X0.6294 Y0.9274 
G01 X0.6294 Y0.9272 
G01 X0.6209 Y0.9187 
G01 X0.6073 Y0.9131 
G01 X0.5927 Y0.9131 
G01 X0.5791 Y0.9187 
G01 X0.5687 Y0.9291 
G01 X0.5631 Y0.9427 
G01 X0.5631 Y0.9573 
G01 X0.5687 Y0.9709 
G01 X0.5791 Y0.9813 
G01 X0.5927 Y0.9869 
G01 X0.6073 Y0.9869 
G01 X0.6209 Y0.9813 
G01 X0.6294 Y0.9728 
G01 X0.6294 Y0.9726 
G01 X0.6314 Y0.9706 
G01 X0.6325 Y0.9680 
G01 X0.6351 Y0.9669 
G01 X0.6371 Y0.9649 
G01 X0.6399 Y0.9649 
G01 X0.6425 Y0.9638 
G01 X0.6451 Y0.9649 
G01 X0.7499 Y0.9649 
G01 X0.7530 Y0.9649 
G01 X0.7584 Y0.9626 
G01 X0.7589 Y0.9622 
G01 X0.7589 Y0.9622 
G01 X0.7619 Y0.9592 
G01 X0.7666 Y0.9545 
G01 X0.7774 Y0.9545 
G01 X0.7774 Y0.9545 
G01 X0.7812 Y0.9583 
G01 X0.7851 Y0.9622 
G01 X0.7851 Y0.9730 
G01 X0.7851 Y1.1274 
G01 X0.7774 Y1.1351 
G01 X0.7666 Y1.1351 
G01 X0.6451 Y1.1351 
G01 X0.6425 Y1.1362 
G01 X0.6399 Y1.1351 
G01 X0.6371 Y1.1351 
G01 X0.6351 Y1.1331 
G01 X0.6325 Y1.1320 
G01 X0.6314 Y1.1294 
G01 X0.6294 Y1.1274 
G01 X0.6294 Y1.1272 
G01 X0.6209 Y1.1187 
G01 X0.6073 Y1.1131 
G01 X0.5927 Y1.1131 
G01 X0.5791 Y1.1187 
G01 X0.5687 Y1.1291 
G01 X0.5631 Y1.1427 
G01 X0.5631 Y1.1573 
G01 X0.5687 Y1.1709 
G01 X0.5791 Y1.1813 
G01 X0.5927 Y1.1869 
G01 X0.6073 Y1.1869 
G01 X0.6209 Y1.1813 
G01 X0.6294 Y1.1728 
G01 X0.6294 Y1.1726 
G01 X0.6314 Y1.1706 
G01 X0.6325 Y1.1680 
G01 X0.6351 Y1.1669 
G01 X0.6371 Y1.1649 
G01 X0.6399 Y1.1649 
G01 X0.6425 Y1.1638 
G01 X0.6451 Y1.1649 
G01 X0.7999 Y1.1649 
G01 X0.8030 Y1.1649 
G01 X0.8084 Y1.1626 
G01 X0.8089 Y1.1622 
G01 X0.8089 Y1.1622 
G01 X0.8119 Y1.1592 
G01 X0.8166 Y1.1545 
G01 X0.8274 Y1.1545 
G01 X0.8274 Y1.1545 
G01 X0.8312 Y1.1583 
G01 X0.8351 Y1.1622 
G01 X0.8351 Y1.1730 
G01 X0.8351 Y1.2274 
G01 X0.8274 Y1.2351 
G01 X0.8166 Y1.2351 
G01 X0.6451 Y1.2351 
G01 X0.6425 Y1.2362 
G01 X0.6399 Y1.2351 
G01 X0.6371 Y1.2351 
G01 X0.6351 Y1.2331 
G01 X0.6325 Y1.2320 
G01 X0.6314 Y1.2294 
G01 X0.6294 Y1.2274 
G01 X0.6294 Y1.2272 
G01 X0.6209 Y1.2187 
G01 X0.6073 Y1.2131 
G01 X0.5927 Y1.2131 
G01 X0.5791 Y1.2187 
G01 X0.5687 Y1.2291 
G01 X0.5631 Y1.2427 
G01 X0.5631 Y1.2573 
G01 X0.5687 Y1.2709 
G01 X0.5791 Y1.2813 
G01 X0.5927 Y1.2869 
G01 X0.6073 Y1.2869 
G01 X0.6209 Y1.2813 
G01 X0.6294 Y1.2728 
G01 X0.6294 Y1.2726 
G01 X0.6314 Y1.2706 
G01 X0.6325 Y1.2680 
G01 X0.6351 Y1.2669 
G01 X0.6371 Y1.2649 
G01 X0.6399 Y1.2649 
G01 X0.6425 Y1.2638 
G01 X0.6451 Y1.2649 
G01 X0.8499 Y1.2649 
G01 X0.8530 Y1.2649 
G01 X0.8584 Y1.2626 
G01 X0.8626 Y1.2584 
G01 X0.8649 Y1.2530 
G01 X0.8649 Y0.5062 
G01 X0.8726 Y0.4985 
G01 X0.9104 Y0.4606 
G01 X0.9104 Y0.4606 
G01 X0.9126 Y0.4584 
G01 X0.9149 Y0.4530 
G01 X0.9149 Y0.4451 
G01 X0.9138 Y0.4425 
G01 X0.9149 Y0.4399 
G01 X0.9149 Y0.4371 
G01 X0.9169 Y0.4351 
G01 X0.9180 Y0.4325 
G01 X0.9206 Y0.4314 
G01 X0.9226 Y0.4294 
G01 X0.9228 Y0.4294 
G01 X0.9313 Y0.4209 
G01 X0.9369 Y0.4073 
G01 X0.9369 Y0.3927 
G01 X0.9313 Y0.3791 
G01 X0.9209 Y0.3687 
G01 X0.9073 Y0.3631 
G01 X0.8927 Y0.3631 
G01 X0.8791 Y0.3687 
G01 X0.8687 Y0.3791 
G01 X0.8631 Y0.3927 
G01 X0.8631 Y0.4073 
G01 X0.8687 Y0.4209 
G01 X0.8829 Y0.4351 
G01 X0.8829 Y0.4460 
G01 X0.8753 Y0.4536 
G01 X0.8753 Y0.4536 
G01 X0.8334 Y0.4955 
G01 X0.8226 Y0.4955 
G01 X0.8149 Y0.4878 
G01 X0.8149 Y0.4770 
G01 X0.8149 Y0.4451 
G01 X0.8138 Y0.4425 
G01 X0.8149 Y0.4399 
G01 X0.8149 Y0.4371 
G01 X0.8169 Y0.4351 
G01 X0.8180 Y0.4325 
G01 X0.8206 Y0.4314 
G01 X0.8226 Y0.4294 
G01 X0.8228 Y0.4294 
G01 X0.8313 Y0.4209 
G01 X0.8369 Y0.4073 
G01 X0.8369 Y0.3927 
G01 X0.8313 Y0.3791 
G01 X0.8209 Y0.3687 
G01 X0.8073 Y0.3631 
G01 X0.7927 Y0.3631 
G01 X0.7791 Y0.3687 
G01 X0.7687 Y0.3791 
G01 X0.7631 Y0.3927 
G01 X0.7631 Y0.4073 
G01 X0.7687 Y0.4209 
G01 X0.7772 Y0.4294 
G01 X0.7774 Y0.4294 
G01 X0.7794 Y0.4314 
G01 X0.7820 Y0.4325 
G01 X0.7831 Y0.4351 
G01 X0.7851 Y0.4371 
G01 X0.7851 Y0.4399 
G01 X0.7862 Y0.4425 
G01 X0.7851 Y0.4451 
G01 X0.7851 Y0.4878 
G01 X0.7774 Y0.4955 
G01 X0.7666 Y0.4955 
G01 X0.7589 Y0.4878 
G01 X0.7247 Y0.4536 
G01 X0.7247 Y0.4536 
G01 X0.7172 Y0.4461 
G01 X0.7171 Y0.4460 
G01 X0.7171 Y0.4351 
G01 X0.7171 Y0.4351 
G01 X0.7313 Y0.4209 
G01 X0.7369 Y0.4073 
G01 X0.7369 Y0.3927 
G01 X0.7313 Y0.3791 
G01 X0.7209 Y0.3687 
G01 X0.7073 Y0.3631 
G00 Z0.0200 
G00 X0.8351 Y0.3930 
G01 Z-0.0100 F10.00 
G01 X0.8351 Y0.4070 
G01 X0.8297 Y0.4199 
G01 X0.8199 Y0.4297 
G01 X0.8131 Y0.4326 
G01 X0.8131 Y1.1554 
G01 X0.8054 Y1.1631 
G01 X0.7946 Y1.1631 
G01 X0.6326 Y1.1631 
G01 X0.6297 Y1.1699 
G01 X0.6199 Y1.1797 
G01 X0.6070 Y1.1851 
G01 X0.5930 Y1.1851 
G01 X0.5801 Y1.1797 
G01 X0.5702 Y1.1699 
G01 X0.5649 Y1.1570 
G01 X0.5649 Y1.1430 
G01 X0.5702 Y1.1301 
G01 X0.5801 Y1.1202 
G01 X0.5930 Y1.1149 
G01 X0.6070 Y1.1149 
G01 X0.6199 Y1.1202 
G01 X0.6297 Y1.1301 
G01 X0.6326 Y1.1369 
G01 X0.7869 Y1.1369 
G01 X0.7869 Y0.4326 
G01 X0.7801 Y0.4297 
G01 X0.7702 Y0.4199 
G01 X0.7649 Y0.4070 
G01 X0.7649 Y0.3930 
G01 X0.7702 Y0.3801 
G01 X0.7801 Y0.3702 
G01 X0.7930 Y0.3649 
G01 X0.8070 Y0.3649 
G01 X0.8199 Y0.3702 
G01 X0.8297 Y0.3801 
G01 X0.8351 Y0.3930 
G00 Z0.0200 
G00 X0.7351 Y0.3930 
G01 Z-0.0100 F10.00 
G01 X0.7351 Y0.4070 
G01 X0.7297 Y0.4199 
G01 X0.7199 Y0.4297 
G01 X0.7131 Y0.4326 
G01 X0.7131 Y0.4446 
G01 X0.7631 Y0.4946 
G01 X0.7631 Y0.5054 
G01 X0.7631 Y0.9554 
G01 X0.7554 Y0.9631 
G01 X0.7446 Y0.9631 
G01 X0.6326 Y0.9631 
G01 X0.6297 Y0.9699 
G01 X0.6199 Y0.9797 
G01 X0.6070 Y0.9851 
G01 X0.5930 Y0.9851 
G01 X0.5801 Y0.9797 
G01 X0.5702 Y0.9699 
G01 X0.5649 Y0.9570 
G01 X0.5649 Y0.9430 
G01 X0.5702 Y0.9301 
G01 X0.5801 Y0.9202 
G01 X0.5930 Y0.9149 
G01 X0.6070 Y0.9149 
G01 X0.6199 Y0.9202 
G01 X0.6297 Y0.9301 
G01 X0.6326 Y0.9369 
G01 X0.7369 Y0.9369 
G01 X0.7369 Y0.5054 
G01 X0.6946 Y0.4631 
G01 X0.6869 Y0.4554 
G01 X0.6869 Y0.4326 
G01 X0.6801 Y0.4297 
G01 X0.6702 Y0.4199 
G01 X0.6649 Y0.4070 
G01 X0.6649 Y0.3930 
G01 X0.6702 Y0.3801 
G01 X0.6801 Y0.3702 
G01 X0.6930 Y0.3649 
G01 X0.7070 Y0.3649 
G01 X0.7199 Y0.3702 
G01 X0.7297 Y0.3801 
G01 X0.7351 Y0.3930 
G00 Z0.0200 
G00 X0.9351 Y0.3930 
G01 Z-0.0100 F10.00 
G01 X0.9351 Y0.4070 
G01 X0.9297 Y0.4199 
G01 X0.9199 Y0.4297 
G01 X0.9131 Y0.4326 
G01 X0.9131 Y0.4554 
G01 X0.9054 Y0.4631 
G01 X0.8631 Y0.5054 
G01 X0.8631 Y1.2554 
G01 X0.8554 Y1.2631 
G01 X0.8446 Y1.2631 
G01 X0.6326 Y1.2631 
G01 X0.6297 Y1.2699 
G01 X0.6199 Y1.2797 
G01 X0.6070 Y1.2851 
G01 X0.5930 Y1.2851 
G01 X0.5801 Y1.2797 
G01 X0.5702 Y1.2699 
G01 X0.5649 Y1.2570 
G01 X0.5649 Y1.2430 
G01 X0.5702 Y1.2301 
G01 X0.5801 Y1.2202 
G01 X0.5930 Y1.2149 
G01 X0.6070 Y1.2149 
G01 X0.6199 Y1.2202 
G01 X0.6297 Y1.2301 
G01 X0.6326 Y1.2369 
G01 X0.8369 Y1.2369 
G01 X0.8369 Y0.5054 
G01 X0.8369 Y0.4946 
G01 X0.8869 Y0.4446 
G01 X0.8869 Y0.4326 
G01 X0.8801 Y0.4297 
G01 X0.8702 Y0.4199 
G01 X0.8649 Y0.4070 
G01 X0.8649 Y0.3930 
G01 X0.8702 Y0.3801 
G01 X0.8801 Y0.3702 
G01 X0.8930 Y0.3649 
G01 X0.9070 Y0.3649 
G01 X0.9199 Y0.3702 
G01 X0.9297 Y0.3801 
G01 X0.9351 Y0.3930 
G00 Z0.0200 
G00 X0.6351 Y0.3930 
G01 Z-0.0100 F10.00 
G01 X0.6351 Y0.4070 
G01 X0.6297 Y0.4199 
G01 X0.6199 Y0.4297 
G01 X0.6131 Y0.4326 
G01 X0.6131 Y0.4446 
G01 X0.7131 Y0.5446 
G01 X0.7131 Y0.5554 
G01 X0.7131 Y0.8554 
G01 X0.7054 Y0.8631 
G01 X0.6946 Y0.8631 
G01 X0.6326 Y0.8631 
G01 X0.6297 Y0.8699 
G01 X0.6199 Y0.8797 
G01 X0.6070 Y0.8851 
G01 X0.5930 Y0.8851 
G01 X0.5801 Y0.8797 
G01 X0.5702 Y0.8699 
G01 X0.5649 Y0.8570 
G01 X0.5649 Y0.8430 
G01 X0.5702 Y0.8301 
G01 X0.5801 Y0.8202 
G01 X0.5930 Y0.8149 
G01 X0.6070 Y0.8149 
G01 X0.6199 Y0.8202 
G01 X0.6297 Y0.8301 
G01 X0.6326 Y0.8369 
G01 X0.6869 Y0.8369 
G01 X0.6869 Y0.5554 
G01 X0.5946 Y0.4631 
G01 X0.5869 Y0.4554 
G01 X0.5869 Y0.4326 
G01 X0.5801 Y0.4297 
G01 X0.5702 Y0.4199 
G01 X0.5649 Y0.4070 
G01 X0.5649 Y0.3930 
G01 X0.5702 Y0.3801 
G01 X0.5801 Y0.3702 
G01 X0.5930 Y0.3649 
G01 X0.6070 Y0.3649 
G01 X0.6199 Y0.3702 
G01 X0.6297 Y0.3801 
G01 X0.6351 Y0.3930 
G00 Z0.0200 
G00 X0.6073 Y1.3131 
G01 Z-0.0100 F10.00 
G01 X0.5927 Y1.3131 
G01 X0.5791 Y1.3187 
G01 X0.5687 Y1.3291 
G01 X0.5631 Y1.3427 
G01 X0.5631 Y1.3573 
G01 X0.5687 Y1.3709 
G01 X0.5791 Y1.3813 
G01 X0.5927 Y1.3869 
G01 X0.6073 Y1.3869 
G01 X0.6209 Y1.3813 
G01 X0.6313 Y1.3709 
G01 X0.6369 Y1.3573 
G01 X0.6369 Y1.3427 
G01 X0.6313 Y1.3291 
G01 X0.6209 Y1.3187 
G01 X0.6073 Y1.3131 
G00 Z0.0200 
G00 X0.6351 Y1.3430 
G01 Z-0.0100 F10.00 
G01 X0.6351 Y1.3570 
G01 X0.6297 Y1.3699 
G01 X0.6199 Y1.3797 
G01 X0.6070 Y1.3851 
G01 X0.5930 Y1.3851 
G01 X0.5801 Y1.3797 
G01 X0.5702 Y1.3699 
G01 X0.5649 Y1.3570 
G01 X0.5649 Y1.3430 
G01 X0.5702 Y1.3301 
G01 X0.5801 Y1.3202 
G01 X0.5930 Y1.3149 
G01 X0.6070 Y1.3149 
G01 X0.6199 Y1.3202 
G01 X0.6297 Y1.3301 
G01 X0.6351 Y1.3430 
G00 Z0.0200 
G00 X2.6073 Y0.6131 
G01 Z-0.0100 F10.00 
G01 X2.5927 Y0.6131 
G01 X2.5791 Y0.6187 
G01 X2.5687 Y0.6291 
G01 X2.5631 Y0.6427 
G01 X2.5631 Y0.6573 
G01 X2.5687 Y0.6709 
G01 X2.5791 Y0.6813 
G01 X2.5927 Y0.6869 
G01 X2.6073 Y0.6869 
G01 X2.6209 Y0.6813 
G01 X2.6313 Y0.6709 
G01 X2.6369 Y0.6573 
G01 X2.6369 Y0.6427 
G01 X2.6313 Y0.6291 
G01 X2.6209 Y0.6187 
G01 X2.6073 Y0.6131 
G00 Z0.0200 
G00 X2.6351 Y0.6430 
G01 Z-0.0100 F10.00 
G01 X2.6351 Y0.6570 
G01 X2.6297 Y0.6699 
G01 X2.6199 Y0.6797 
G01 X2.6070 Y0.6851 
G01 X2.5930 Y0.6851 
G01 X2.5801 Y0.6797 
G01 X2.5702 Y0.6699 
G01 X2.5649 Y0.6570 
G01 X2.5649 Y0.6430 
G01 X2.5702 Y0.6301 
G01 X2.5801 Y0.6202 
G01 X2.5930 Y0.6149 
G01 X2.6070 Y0.6149 
G01 X2.6199 Y0.6202 
G01 X2.6297 Y0.6301 
G01 X2.6351 Y0.6430 
G00 Z0.0200 
G00 X2.6451 Y0.8351 
G01 Z-0.0100 F10.00 
G01 X2.6425 Y0.8362 
G01 X2.6399 Y0.8351 
G01 X2.6371 Y0.8351 
G01 X2.6351 Y0.8331 
G01 X2.6325 Y0.8320 
G01 X2.6314 Y0.8294 
G01 X2.6294 Y0.8274 
G01 X2.6294 Y0.8272 
G01 X2.6209 Y0.8187 
G01 X2.6073 Y0.8131 
G01 X2.5927 Y0.8131 
G01 X2.5791 Y0.8187 
G01 X2.5687 Y0.8291 
G01 X2.5631 Y0.8427 
G01 X2.5631 Y0.8573 
G01 X2.5687 Y0.8709 
G01 X2.5791 Y0.8813 
G01 X2.5927 Y0.8869 
G01 X2.6073 Y0.8869 
G01 X2.6209 Y0.8813 
G01 X2.6294 Y0.8728 
G01 X2.6294 Y0.8726 
G01 X2.6314 Y0.8706 
G01 X2.6325 Y0.8680 
G01 X2.6351 Y0.8669 
G01 X2.6371 Y0.8649 
G01 X2.6399 Y0.8649 
G01 X2.6425 Y0.8638 
G01 X2.6451 Y0.8649 
G01 X2.6999 Y0.8649 
G01 X2.7030 Y0.8649 
G01 X2.7084 Y0.8626 
G01 X2.7089 Y0.8622 
G01 X2.7089 Y0.8622 
G01 X2.7119 Y0.8592 
G01 X2.7166 Y0.8545 
G01 X2.7274 Y0.8545 
G01 X2.7274 Y0.8545 
G01 X2.7312 Y0.8583 
G01 X2.7351 Y0.8622 
G01 X2.7351 Y0.8730 
G01 X2.7351 Y0.9274 
G01 X2.7274 Y0.9351 
G01 X2.7166 Y0.9351 
G01 X2.6451 Y0.9351 
G01 X2.6425 Y0.9362 
G01 X2.6399 Y0.9351 
G01 X2.6371 Y0.9351 
G01 X2.6351 Y0.9331 
G01 X2.6325 Y0.9320 
G01 X2.6314 Y0.9294 
G01 X2.6294 Y0.9274 
G01 X2.6294 Y0.9272 
G01 X2.6209 Y0.9187 
G01 X2.6073 Y0.9131 
G01 X2.5927 Y0.9131 
G01 X2.5791 Y0.9187 
G01 X2.5687 Y0.9291 
G01 X2.5631 Y0.9427 
G01 X2.5631 Y0.9573 
G01 X2.5687 Y0.9709 
G01 X2.5791 Y0.9813 
G01 X2.5927 Y0.9869 
G01 X2.6073 Y0.9869 
G01 X2.6209 Y0.9813 
G01 X2.6294 Y0.9728 
G01 X2.6294 Y0.9726 
G01 X2.6314 Y0.9706 
G01 X2.6325 Y0.9680 
G01 X2.6351 Y0.9669 
G01 X2.6371 Y0.9649 
G01 X2.6399 Y0.9649 
G01 X2.6425 Y0.9638 
G01 X2.6451 Y0.9649 
G01 X2.7499 Y0.9649 
G01 X2.7530 Y0.9649 
G01 X2.7584 Y0.9626 
G01 X2.7589 Y0.9622 
G01 X2.7589 Y0.9622 
G01 X2.7619 Y0.9592 
G01 X2.7666 Y0.9545 
G01 X2.7774 Y0.9545 
G01 X2.7774 Y0.9545 
G01 X2.7812 Y0.9583 
G01 X2.7851 Y0.9622 
G01 X2.7851 Y0.9730 
G01 X2.7851 Y1.1274 
G01 X2.7774 Y1.1351 
G01 X2.7666 Y1.1351 
G01 X2.6451 Y1.1351 
G01 X2.6425 Y1.1362 
G01 X2.6399 Y1.1351 
G01 X2.6371 Y1.1351 
G01 X2.6351 Y1.1331 
G01 X2.6325 Y1.1320 
G01 X2.6314 Y1.1294 
G01 X2.6294 Y1.1274 
G01 X2.6294 Y1.1272 
G01 X2.6209 Y1.1187 
G01 X2.6073 Y1.1131 
G01 X2.5927 Y1.1131 
G01 X2.5791 Y1.1187 
G01 X2.5687 Y1.1291 
G01 X2.5631 Y1.1427 
G01 X2.5631 Y1.1573 
G01 X2.5687 Y1.1709 
G01 X2.5791 Y1.1813 
G01 X2.5927 Y1.1869 
G01 X2.6073 Y1.1869 
G01 X2.6209 Y1.1813 
G01 X2.6294 Y1.1728 
G01 X2.6294 Y1.1726 
G01 X2.6314 Y1.1706 
G01 X2.6325 Y1.1680 
G01 X2.6351 Y1.1669 
G01 X2.6371 Y1.1649 
G01 X2.6399 Y1.1649 
G01 X2.6425 Y1.1638 
G01 X2.6451 Y1.1649 
G01 X2.7999 Y1.1649 
G01 X2.8030 Y1.1649 
G01 X2.8084 Y1.1626 
G01 X2.8089 Y1.1622 
G01 X2.8089 Y1.1622 
G01 X2.8119 Y1.1592 
G01 X2.8166 Y1.1545 
G01 X2.8274 Y1.1545 
G01 X2.8274 Y1.1545 
G01 X2.8312 Y1.1583 
G01 X2.8351 Y1.1622 
G01 X2.8351 Y1.1730 
G01 X2.8351 Y1.2274 
G01 X2.8274 Y1.2351 
G01 X2.8166 Y1.2351 
G01 X2.6451 Y1.2351 
G01 X2.6425 Y1.2362 
G01 X2.6399 Y1.2351 
G01 X2.6371 Y1.2351 
G01 X2.6351 Y1.2331 
G01 X2.6325 Y1.2320 
G01 X2.6314 Y1.2294 
G01 X2.6294 Y1.2274 
G01 X2.6294 Y1.2272 
G01 X2.6209 Y1.2187 
G01 X2.6073 Y1.2131 
G01 X2.5927 Y1.2131 
G01 X2.5791 Y1.2187 
G01 X2.5687 Y1.2291 
G01 X2.5631 Y1.2427 
G01 X2.5631 Y1.2573 
G01 X2.5687 Y1.2709 
G01 X2.5791 Y1.2813 
G01 X2.5927 Y1.2869 
G01 X2.6073 Y1.2869 
G01 X2.6209 Y1.2813 
G01 X2.6294 Y1.2728 
G01 X2.6294 Y1.2726 
G01 X2.6314 Y1.2706 
G01 X2.6325 Y1.2680 
G01 X2.6351 Y1.2669 
G01 X2.6371 Y1.2649 
G01 X2.6399 Y1.2649 
G01 X2.6425 Y1.2638 
G01 X2.6451 Y1.2649 
G01 X2.8499 Y1.2649 
G01 X2.8530 Y1.2649 
G01 X2.8584 Y1.2626 
G01 X2.8626 Y1.2584 
G01 X2.8649 Y1.2530 
G01 X2.8649 Y0.5062 
G01 X2.8726 Y0.4985 
G01 X2.9104 Y0.4606 
G01 X2.9126 Y0.4584 
G01 X2.9149 Y0.4530 
G01 X2.9149 Y0.4451 
G01 X2.9138 Y0.4425 
G01 X2.9149 Y0.4399 
G01 X2.9149 Y0.4371 
G01 X2.9169 Y0.4351 
G01 X2.9180 Y0.4325 
G01 X2.9206 Y0.4314 
G01 X2.9226 Y0.4294 
G01 X2.9228 Y0.4294 
G01 X2.9313 Y0.4209 
G01 X2.9369 Y0.4073 
G01 X2.9369 Y0.3927 
G01 X2.9313 Y0.3791 
G01 X2.9209 Y0.3687 
G01 X2.9073 Y0.3631 
G01 X2.8927 Y0.3631 
G01 X2.8791 Y0.3687 
G01 X2.8687 Y0.3791 
G01 X2.8631 Y0.3927 
G01 X2.8631 Y0.4073 
G01 X2.8687 Y0.4209 
G01 X2.8829 Y0.4351 
G01 X2.8829 Y0.4460 
G01 X2.8753 Y0.4536 
G01 X2.8753 Y0.4536 
G01 X2.8334 Y0.4955 
G01 X2.8226 Y0.4955 
G01 X2.8149 Y0.4878 
G01 X2.8149 Y0.4770 
G01 X2.8149 Y0.4451 
G01 X2.8138 Y0.4425 
G01 X2.8149 Y0.4399 
G01 X2.8149 Y0.4371 
G01 X2.8169 Y0.4351 
G01 X2.8180 Y0.4325 
G01 X2.8206 Y0.4314 
G01 X2.8226 Y0.4294 
G01 X2.8228 Y0.4294 
G01 X2.8313 Y0.4209 
G01 X2.8369 Y0.4073 
G01 X2.8369 Y0.3927 
G01 X2.8313 Y0.3791 
G01 X2.8209 Y0.3687 
G01 X2.8073 Y0.3631 
G01 X2.7927 Y0.3631 
G01 X2.7791 Y0.3687 
G01 X2.7687 Y0.3791 
G01 X2.7631 Y0.3927 
G01 X2.7631 Y0.4073 
G01 X2.7687 Y0.4209 
G01 X2.7772 Y0.4294 
G01 X2.7774 Y0.4294 
G01 X2.7794 Y0.4314 
G01 X2.7820 Y0.4325 
G01 X2.7831 Y0.4351 
G01 X2.7851 Y0.4371 
G01 X2.7851 Y0.4399 
G01 X2.7862 Y0.4425 
G01 X2.7851 Y0.4451 
G01 X2.7851 Y0.4878 
G01 X2.7774 Y0.4955 
G01 X2.7666 Y0.4955 
G01 X2.7589 Y0.4878 
G01 X2.7247 Y0.4536 
G01 X2.7247 Y0.4536 
G01 X2.7172 Y0.4461 
G01 X2.7171 Y0.4460 
G01 X2.7171 Y0.4351 
G01 X2.7171 Y0.4351 
G01 X2.7313 Y0.4209 
G01 X2.7369 Y0.4073 
G01 X2.7369 Y0.3927 
G01 X2.7313 Y0.3791 
G01 X2.7209 Y0.3687 
G01 X2.7073 Y0.3631 
G01 X2.6927 Y0.3631 
G01 X2.6791 Y0.3687 
G01 X2.6687 Y0.3791 
G01 X2.6631 Y0.3926 
G01 X2.6631 Y0.4073 
G01 X2.6687 Y0.4209 
G01 X2.6772 Y0.4294 
G01 X2.6774 Y0.4294 
G01 X2.6794 Y0.4314 
G01 X2.6820 Y0.4325 
G01 X2.6831 Y0.4351 
G01 X2.6851 Y0.4371 
G01 X2.6851 Y0.4399 
G01 X2.6862 Y0.4425 
G01 X2.6851 Y0.4451 
G01 X2.6851 Y0.4530 
G01 X2.6874 Y0.4584 
G01 X2.6972 Y0.4683 
G01 X2.7351 Y0.5062 
G01 X2.7351 Y0.5170 
G01 X2.7351 Y0.5378 
G01 X2.7274 Y0.5455 
G01 X2.7166 Y0.5455 
G01 X2.7089 Y0.5378 
G01 X2.6247 Y0.4536 
G01 X2.6247 Y0.4536 
G01 X2.6172 Y0.4461 
G01 X2.6171 Y0.4460 
G01 X2.6171 Y0.4351 
G01 X2.6171 Y0.4351 
G01 X2.6313 Y0.4209 
G01 X2.6369 Y0.4073 
G01 X2.6369 Y0.3927 
G01 X2.6313 Y0.3791 
G01 X2.6209 Y0.3687 
G01 X2.6073 Y0.3631 
G01 X2.5927 Y0.3631 
G01 X2.5791 Y0.3687 
G01 X2.5687 Y0.3791 
G01 X2.5631 Y0.3927 
G01 X2.5631 Y0.4073 
G01 X2.5687 Y0.4209 
G01 X2.5772 Y0.4294 
G01 X2.5774 Y0.4294 
G01 X2.5794 Y0.4314 
G01 X2.5820 Y0.4325 
G01 X2.5831 Y0.4351 
G01 X2.5851 Y0.4371 
G01 X2.5851 Y0.4399 
G01 X2.5862 Y0.4425 
G01 X2.5851 Y0.4451 
G01 X2.5851 Y0.4530 
G01 X2.5874 Y0.4584 
G01 X2.5972 Y0.4683 
G01 X2.6851 Y0.5562 
G01 X2.6851 Y0.5670 
G01 X2.6851 Y0.8274 
G01 X2.6774 Y0.8351 
G01 X2.6666 Y0.8351 
G01 X2.6451 Y0.8351 
G00 Z0.0200 
G00 X2.6297 Y1.1699 
G01 Z-0.0100 F10.00 
G01 X2.6199 Y1.1797 
G01 X2.6070 Y1.1851 
G01 X2.5930 Y1.1851 
G01 X2.5801 Y1.1797 
G01 X2.5702 Y1.1699 
G01 X2.5649 Y1.1570 
G01 X2.5649 Y1.1430 
G01 X2.5702 Y1.1301 
G01 X2.5801 Y1.1202 
G01 X2.5930 Y1.1149 
G01 X2.6070 Y1.1149 
G01 X2.6199 Y1.1202 
G01 X2.6297 Y1.1301 
G01 X2.6326 Y1.1369 
G01 X2.7869 Y1.1369 
G01 X2.7869 Y0.4326 
G01 X2.7801 Y0.4297 
G01 X2.7702 Y0.4199 
G01 X2.7649 Y0.4070 
G01 X2.7649 Y0.3930 
G01 X2.7702 Y0.3801 
G01 X2.7801 Y0.3702 
G01 X2.7930 Y0.3649 
G01 X2.8070 Y0.3649 
G01 X2.8199 Y0.3702 
G01 X2.8297 Y0.3801 
G01 X2.8351 Y0.3930 
G01 X2.8351 Y0.4070 
G01 X2.8297 Y0.4199 
G01 X2.8199 Y0.4297 
G01 X2.8131 Y0.4326 
G01 X2.8131 Y1.1554 
G01 X2.8054 Y1.1631 
G01 X2.7946 Y1.1631 
G01 X2.6326 Y1.1631 
G01 X2.6297 Y1.1699 
G00 Z0.0200 
G00 X2.6297 Y0.9699 
G01 Z-0.0100 F10.00 
G01 X2.6199 Y0.9797 
G01 X2.6070 Y0.9851 
G01 X2.5930 Y0.9851 
G01 X2.5801 Y0.9797 
G01 X2.5702 Y0.9699 
G01 X2.5649 Y0.9570 
G01 X2.5649 Y0.9430 
G01 X2.5702 Y0.9301 
G01 X2.5801 Y0.9202 
G01 X2.5930 Y0.9149 
G01 X2.6070 Y0.9149 
G01 X2.6199 Y0.9202 
G01 X2.6297 Y0.9301 
G01 X2.6326 Y0.9369 
G01 X2.7369 Y0.9369 
G01 X2.7369 Y0.5054 
G01 X2.6946 Y0.4631 
G01 X2.6869 Y0.4554 
G01 X2.6869 Y0.4326 
G01 X2.6801 Y0.4297 
G01 X2.6702 Y0.4199 
G01 X2.6649 Y0.4070 
G01 X2.6649 Y0.3930 
G01 X2.6702 Y0.3801 
G01 X2.6801 Y0.3702 
G01 X2.6930 Y0.3649 
G01 X2.7070 Y0.3649 
G01 X2.7199 Y0.3702 
G01 X2.7297 Y0.3801 
G01 X2.7351 Y0.3930 
G01 X2.7351 Y0.4070 
G01 X2.7297 Y0.4199 
G01 X2.7199 Y0.4297 
G01 X2.7131 Y0.4326 
G01 X2.7131 Y0.4446 
G01 X2.7631 Y0.4946 
G01 X2.7631 Y0.5054 
G01 X2.7631 Y0.9554 
G01 X2.7554 Y0.9631 
G01 X2.7446 Y0.9631 
G01 X2.6326 Y0.9631 
G01 X2.6297 Y0.9699 
G00 Z0.0200 
G00 X2.6297 Y0.8699 
G01 Z-0.0100 F10.00 
G01 X2.6199 Y0.8797 
G01 X2.6070 Y0.8851 
G01 X2.5930 Y0.8851 
G01 X2.5801 Y0.8797 
G01 X2.5702 Y0.8699 
G01 X2.5649 Y0.8570 
G01 X2.5649 Y0.8430 
G01 X2.5702 Y0.8301 
G01 X2.5801 Y0.8202 
G01 X2.5930 Y0.8149 
G01 X2.6070 Y0.8149 
G01 X2.6199 Y0.8202 
G01 X2.6297 Y0.8301 
G01 X2.6326 Y0.8369 
G01 X2.6869 Y0.8369 
G01 X2.6869 Y0.5554 
G01 X2.5946 Y0.4631 
G01 X2.5869 Y0.4554 
G01 X2.5869 Y0.4326 
G01 X2.5801 Y0.4297 
G01 X2.5702 Y0.4199 
G01 X2.5649 Y0.4070 
G01 X2.5649 Y0.3930 
G01 X2.5702 Y0.3801 
G01 X2.5801 Y0.3702 
G01 X2.5930 Y0.3649 
G01 X2.6070 Y0.3649 
G01 X2.6199 Y0.3702 
G01 X2.6297 Y0.3801 
G01 X2.6351 Y0.3930 
G01 X2.6351 Y0.4070 
G01 X2.6297 Y0.4199 
G01 X2.6199 Y0.4297 
G01 X2.6131 Y0.4326 
G01 X2.6131 Y0.4446 
G01 X2.7131 Y0.5446 
G01 X2.7131 Y0.5554 
G01 X2.7131 Y0.8554 
G01 X2.7054 Y0.8631 
G01 X2.6946 Y0.8631 
G01 X2.6326 Y0.8631 
G01 X2.6297 Y0.8699 
G00 Z0.0200 
G00 X2.6297 Y1.2699 
G01 Z-0.0100 F10.00 
G01 X2.6199 Y1.2797 
G01 X2.6070 Y1.2851 
G01 X2.5930 Y1.2851 
G01 X2.5801 Y1.2797 
G01 X2.5702 Y1.2699 
G01 X2.5649 Y1.2570 
G01 X2.5649 Y1.2430 
G01 X2.5702 Y1.2301 
G01 X2.5801 Y1.2202 
G01 X2.5930 Y1.2149 
G01 X2.6070 Y1.2149 
G01 X2.6199 Y1.2202 
G01 X2.6297 Y1.2301 
G01 X2.6326 Y1.2369 
G01 X2.8369 Y1.2369 
G01 X2.8369 Y0.5054 
G01 X2.8369 Y0.4946 
G01 X2.8869 Y0.4446 
G01 X2.8869 Y0.4326 
G01 X2.8801 Y0.4297 
G01 X2.8702 Y0.4199 
G01 X2.8649 Y0.4070 
G01 X2.8649 Y0.3930 
G01 X2.8702 Y0.3801 
G01 X2.8801 Y0.3702 
G01 X2.8930 Y0.3649 
G01 X2.9070 Y0.3649 
G01 X2.9199 Y0.3702 
G01 X2.9297 Y0.3801 
G01 X2.9351 Y0.3930 
G01 X2.9351 Y0.4070 
G01 X2.9297 Y0.4199 
G01 X2.9199 Y0.4297 
G01 X2.9131 Y0.4326 
G01 X2.9131 Y0.4554 
G01 X2.9054 Y0.4631 
G01 X2.8631 Y0.5054 
G01 X2.8631 Y1.2554 
G01 X2.8554 Y1.2631 
G01 X2.8446 Y1.2631 
G01 X2.6326 Y1.2631 
G01 X2.6297 Y1.2699 
G00 Z0.0200 
G00 X2.6073 Y0.7131 
G01 Z-0.0100 F10.00 
G01 X2.5927 Y0.7131 
G01 X2.5791 Y0.7187 
G01 X2.5687 Y0.7291 
G01 X2.5631 Y0.7427 
G01 X2.5631 Y0.7573 
G01 X2.5687 Y0.7709 
G01 X2.5791 Y0.7813 
G01 X2.5927 Y0.7869 
G01 X2.6073 Y0.7869 
G01 X2.6209 Y0.7813 
G01 X2.6313 Y0.7709 
G01 X2.6369 Y0.7573 
G01 X2.6369 Y0.7427 
G01 X2.6313 Y0.7291 
G01 X2.6209 Y0.7187 
G01 X2.6073 Y0.7131 
G00 Z0.0200 
G00 X2.6351 Y0.7430 
G01 Z-0.0100 F10.00 
G01 X2.6351 Y0.7570 
G01 X2.6297 Y0.7699 
G01 X2.6199 Y0.7797 
G01 X2.6070 Y0.7851 
G01 X2.5930 Y0.7851 
G01 X2.5801 Y0.7797 
G01 X2.5702 Y0.7699 
G01 X2.5649 Y0.7570 
G01 X2.5649 Y0.7430 
G01 X2.5702 Y0.7301 
G01 X2.5801 Y0.7202 
G01 X2.5930 Y0.7149 
G01 X2.6070 Y0.7149 
G01 X2.6199 Y0.7202 
G01 X2.6297 Y0.7301 
G01 X2.6351 Y0.7430 
G00 Z0.0200 
G00 X3.3073 Y0.7131 
G01 Z-0.0100 F10.00 
G01 X3.2927 Y0.7131 
G01 X3.2791 Y0.7187 
G01 X3.2687 Y0.7291 
G01 X3.2631 Y0.7427 
G01 X3.2631 Y0.7573 
G01 X3.2687 Y0.7709 
G01 X3.2791 Y0.7813 
G01 X3.2927 Y0.7869 
G01 X3.3073 Y0.7869 
G01 X3.3209 Y0.7813 
G01 X3.3313 Y0.7709 
G01 X3.3369 Y0.7573 
G01 X3.3369 Y0.7427 
G01 X3.3313 Y0.7291 
G01 X3.3209 Y0.7187 
G01 X3.3073 Y0.7131 
G00 Z0.0200 
G00 X3.3351 Y0.7430 
G01 Z-0.0100 F10.00 
G01 X3.3351 Y0.7570 
G01 X3.3297 Y0.7699 
G01 X3.3199 Y0.7797 
G01 X3.3070 Y0.7851 
G01 X3.2930 Y0.7851 
G01 X3.2801 Y0.7797 
G01 X3.2702 Y0.7699 
G01 X3.2649 Y0.7570 
G01 X3.2649 Y0.7430 
G01 X3.2702 Y0.7301 
G01 X3.2801 Y0.7202 
G01 X3.2930 Y0.7149 
G01 X3.3070 Y0.7149 
G01 X3.3199 Y0.7202 
G01 X3.3297 Y0.7301 
G01 X3.3351 Y0.7430 
G00 Z0.0200 
G00 X3.3073 Y0.9131 
G01 Z-0.0100 F10.00 
G01 X3.2927 Y0.9131 
G01 X3.2791 Y0.9187 
G01 X3.2687 Y0.9291 
G01 X3.2631 Y0.9427 
G01 X3.2631 Y0.9573 
G01 X3.2687 Y0.9709 
G01 X3.2791 Y0.9813 
G01 X3.2927 Y0.9869 
G01 X3.3073 Y0.9869 
G01 X3.3209 Y0.9813 
G01 X3.3313 Y0.9709 
G01 X3.3369 Y0.9573 
G01 X3.3369 Y0.9427 
G01 X3.3313 Y0.9291 
G01 X3.3209 Y0.9187 
G01 X3.3073 Y0.9131 
G00 Z0.0200 
G00 X3.3351 Y0.9430 
G01 Z-0.0100 F10.00 
G01 X3.3351 Y0.9570 
G01 X3.3297 Y0.9699 
G01 X3.3199 Y0.9797 
G01 X3.3070 Y0.9851 
G01 X3.2930 Y0.9851 
G01 X3.2801 Y0.9797 
G01 X3.2702 Y0.9699 
G01 X3.2649 Y0.9570 
G01 X3.2649 Y0.9430 
G01 X3.2702 Y0.9301 
G01 X3.2801 Y0.9202 
G01 X3.2930 Y0.9149 
G01 X3.3070 Y0.9149 
G01 X3.3199 Y0.9202 
G01 X3.3297 Y0.9301 
G01 X3.3351 Y0.9430 
G00 Z0.0200 
G00 X3.3073 Y1.1131 
G01 Z-0.0100 F10.00 
G01 X3.2927 Y1.1131 
G01 X3.2791 Y1.1187 
G01 X3.2687 Y1.1291 
G01 X3.2631 Y1.1427 
G01 X3.2631 Y1.1573 
G01 X3.2687 Y1.1709 
G01 X3.2791 Y1.1813 
G01 X3.2927 Y1.1869 
G01 X3.3073 Y1.1869 
G01 X3.3209 Y1.1813 
G01 X3.3313 Y1.1709 
G01 X3.3369 Y1.1573 
G01 X3.3369 Y1.1427 
G01 X3.3313 Y1.1291 
G01 X3.3209 Y1.1187 
G01 X3.3073 Y1.1131 
G00 Z0.0200 
G00 X3.3351 Y1.1430 
G01 Z-0.0100 F10.00 
G01 X3.3351 Y1.1570 
G01 X3.3297 Y1.1699 
G01 X3.3199 Y1.1797 
G01 X3.3070 Y1.1851 
G01 X3.2930 Y1.1851 
G01 X3.2801 Y1.1797 
G01 X3.2702 Y1.1699 
G01 X3.2649 Y1.1570 
G01 X3.2649 Y1.1430 
G01 X3.2702 Y1.1301 
G01 X3.2801 Y1.1202 
G01 X3.2930 Y1.1149 
G01 X3.3070 Y1.1149 
G01 X3.3199 Y1.1202 
G01 X3.3297 Y1.1301 
G01 X3.3351 Y1.1430 
G00 Z0.0200 
G00 X3.3073 Y1.3131 
G01 Z-0.0100 F10.00 
G01 X3.2927 Y1.3131 
G01 X3.2791 Y1.3187 
G01 X3.2687 Y1.3291 
G01 X3.2631 Y1.3427 
G01 X3.2631 Y1.3573 
G01 X3.2687 Y1.3709 
G01 X3.2791 Y1.3813 
G01 X3.2927 Y1.3869 
G01 X3.3073 Y1.3869 
G01 X3.3209 Y1.3813 
G01 X3.3313 Y1.3709 
G01 X3.3369 Y1.3573 
G01 X3.3369 Y1.3427 
G01 X3.3313 Y1.3291 
G01 X3.3209 Y1.3187 
G01 X3.3073 Y1.3131 
G00 Z0.0200 
G00 X3.3351 Y1.3430 
G01 Z-0.0100 F10.00 
G01 X3.3351 Y1.3570 
G01 X3.3297 Y1.3699 
G01 X3.3199 Y1.3797 
G01 X3.3070 Y1.3851 
G01 X3.2930 Y1.3851 
G01 X3.2801 Y1.3797 
G01 X3.2702 Y1.3699 
G01 X3.2649 Y1.3570 
G01 X3.2649 Y1.3430 
G01 X3.2702 Y1.3301 
G01 X3.2801 Y1.3202 
G01 X3.2930 Y1.3149 
G01 X3.3070 Y1.3149 
G01 X3.3199 Y1.3202 
G01 X3.3297 Y1.3301 
G01 X3.3351 Y1.3430 
G00 Z0.0200 
G00 X3.3073 Y1.2131 
G01 Z-0.0100 F10.00 
G01 X3.2927 Y1.2131 
G01 X3.2791 Y1.2187 
G01 X3.2687 Y1.2291 
G01 X3.2631 Y1.2427 
G01 X3.2631 Y1.2573 
G01 X3.2687 Y1.2709 
G01 X3.2791 Y1.2813 
G01 X3.2927 Y1.2869 
G01 X3.3073 Y1.2869 
G01 X3.3209 Y1.2813 
G01 X3.3313 Y1.2709 
G01 X3.3369 Y1.2573 
G01 X3.3369 Y1.2427 
G01 X3.3313 Y1.2291 
G01 X3.3209 Y1.2187 
G01 X3.3073 Y1.2131 
G00 Z0.0200 
G00 X3.3351 Y1.2430 
G01 Z-0.0100 F10.00 
G01 X3.3351 Y1.2570 
G01 X3.3297 Y1.2699 
G01 X3.3199 Y1.2797 
G01 X3.3070 Y1.2851 
G01 X3.2930 Y1.2851 
G01 X3.2801 Y1.2797 
G01 X3.2702 Y1.2699 
G01 X3.2649 Y1.2570 
G01 X3.2649 Y1.2430 
G01 X3.2702 Y1.2301 
G01 X3.2801 Y1.2202 
G01 X3.2930 Y1.2149 
G01 X3.3070 Y1.2149 
G01 X3.3199 Y1.2202 
G01 X3.3297 Y1.2301 
G01 X3.3351 Y1.2430 
G00 Z0.0200 
G00 X3.3073 Y1.0131 
G01 Z-0.0100 F10.00 
G01 X3.2927 Y1.0131 
G01 X3.2791 Y1.0187 
G01 X3.2687 Y1.0291 
G01 X3.2631 Y1.0427 
G01 X3.2631 Y1.0573 
G01 X3.2687 Y1.0709 
G01 X3.2791 Y1.0813 
G01 X3.2927 Y1.0869 
G01 X3.3073 Y1.0869 
G01 X3.3209 Y1.0813 
G01 X3.3313 Y1.0709 
G01 X3.3369 Y1.0573 
G01 X3.3369 Y1.0427 
G01 X3.3313 Y1.0291 
G01 X3.3209 Y1.0187 
G01 X3.3073 Y1.0131 
G00 Z0.0200 
G00 X3.3351 Y1.0430 
G01 Z-0.0100 F10.00 
G01 X3.3351 Y1.0570 
G01 X3.3297 Y1.0699 
G01 X3.3199 Y1.0797 
G01 X3.3070 Y1.0851 
G01 X3.2930 Y1.0851 
G01 X3.2801 Y1.0797 
G01 X3.2702 Y1.0699 
G01 X3.2649 Y1.0570 
G01 X3.2649 Y1.0430 
G01 X3.2702 Y1.0301 
G01 X3.2801 Y1.0202 
G01 X3.2930 Y1.0149 
G01 X3.3070 Y1.0149 
G01 X3.3199 Y1.0202 
G01 X3.3297 Y1.0301 
G01 X3.3351 Y1.0430 
G00 Z0.0200 
G00 X3.3073 Y0.8131 
G01 Z-0.0100 F10.00 
G01 X3.2927 Y0.8131 
G01 X3.2791 Y0.8187 
G01 X3.2687 Y0.8291 
G01 X3.2631 Y0.8427 
G01 X3.2631 Y0.8573 
G01 X3.2687 Y0.8709 
G01 X3.2791 Y0.8813 
G01 X3.2927 Y0.8869 
G01 X3.3073 Y0.8869 
G01 X3.3209 Y0.8813 
G01 X3.3313 Y0.8709 
G01 X3.3369 Y0.8573 
G01 X3.3369 Y0.8427 
G01 X3.3313 Y0.8291 
G01 X3.3209 Y0.8187 
G01 X3.3073 Y0.8131 
G00 Z0.0200 
G00 X3.3351 Y0.8430 
G01 Z-0.0100 F10.00 
G01 X3.3351 Y0.8570 
G01 X3.3297 Y0.8699 
G01 X3.3199 Y0.8797 
G01 X3.3070 Y0.8851 
G01 X3.2930 Y0.8851 
G01 X3.2801 Y0.8797 
G01 X3.2702 Y0.8699 
G01 X3.2649 Y0.8570 
G01 X3.2649 Y0.8430 
G01 X3.2702 Y0.8301 
G01 X3.2801 Y0.8202 
G01 X3.2930 Y0.8149 
G01 X3.3070 Y0.8149 
G01 X3.3199 Y0.8202 
G01 X3.3297 Y0.8301 
G01 X3.3351 Y0.8430 
G00 Z0.0200 
G00 X3.3073 Y0.6131 
G01 Z-0.0100 F10.00 
G01 X3.2927 Y0.6131 
G01 X3.2791 Y0.6187 
G01 X3.2687 Y0.6291 
G01 X3.2631 Y0.6427 
G01 X3.2631 Y0.6573 
G01 X3.2687 Y0.6709 
G01 X3.2791 Y0.6813 
G01 X3.2927 Y0.6869 
G01 X3.3073 Y0.6869 
G01 X3.3209 Y0.6813 
G01 X3.3313 Y0.6709 
G01 X3.3369 Y0.6573 
G01 X3.3369 Y0.6427 
G01 X3.3313 Y0.6291 
G01 X3.3209 Y0.6187 
G01 X3.3073 Y0.6131 
G00 Z0.0200 
G00 X3.3351 Y0.6430 
G01 Z-0.0100 F10.00 
G01 X3.3351 Y0.6570 
G01 X3.3297 Y0.6699 
G01 X3.3199 Y0.6797 
G01 X3.3070 Y0.6851 
G01 X3.2930 Y0.6851 
G01 X3.2801 Y0.6797 
G01 X3.2702 Y0.6699 
G01 X3.2649 Y0.6570 
G01 X3.2649 Y0.6430 
G01 X3.2702 Y0.6301 
G01 X3.2801 Y0.6202 
G01 X3.2930 Y0.6149 
G01 X3.3070 Y0.6149 
G01 X3.3199 Y0.6202 
G01 X3.3297 Y0.6301 
G01 X3.3351 Y0.6430 
G00 Z0.0200 
G00 X0.1569 Y0.7153 
G01 Z-0.0100 F10.00 
G01 X0.1431 Y0.7153 
G01 X0.1303 Y0.7206 
G01 X0.1206 Y0.7303 
G01 X0.1153 Y0.7431 
G01 X0.1153 Y0.7569 
G01 X0.1206 Y0.7696 
G01 X0.1303 Y0.7794 
G01 X0.1431 Y0.7847 
G01 X0.1569 Y0.7847 
G01 X0.1696 Y0.7794 
G01 X0.1794 Y0.7696 
G01 X0.1847 Y0.7569 
G01 X0.1847 Y0.7431 
G01 X0.1794 Y0.7303 
G01 X0.1696 Y0.7206 
G01 X0.1569 Y0.7153 
G00 Z0.0200 
G00 X0.1829 Y0.7435 
G01 Z-0.0100 F10.00 
G01 X0.1829 Y0.7565 
G01 X0.1779 Y0.7686 
G01 X0.1686 Y0.7779 
G01 X0.1565 Y0.7829 
G01 X0.1435 Y0.7829 
G01 X0.1314 Y0.7779 
G01 X0.1221 Y0.7686 
G01 X0.1171 Y0.7565 
G01 X0.1171 Y0.7435 
G01 X0.1221 Y0.7314 
G01 X0.1314 Y0.7221 
G01 X0.1435 Y0.7171 
G01 X0.1565 Y0.7171 
G01 X0.1686 Y0.7221 
G01 X0.1779 Y0.7314 
G01 X0.1829 Y0.7435 
G00 Z0.0200 
G00 X0.1569 Y0.9153 
G01 Z-0.0100 F10.00 
G01 X0.1431 Y0.9153 
G01 X0.1303 Y0.9206 
G01 X0.1206 Y0.9303 
G01 X0.1153 Y0.9431 
G01 X0.1153 Y0.9569 
G01 X0.1206 Y0.9696 
G01 X0.1303 Y0.9794 
G01 X0.1431 Y0.9847 
G01 X0.1569 Y0.9847 
G01 X0.1696 Y0.9794 
G01 X0.1794 Y0.9696 
G01 X0.1847 Y0.9569 
G01 X0.1847 Y0.9431 
G01 X0.1794 Y0.9303 
G01 X0.1696 Y0.9206 
G01 X0.1569 Y0.9153 
G00 Z0.0200 
G00 X0.1829 Y0.9435 
G01 Z-0.0100 F10.00 
G01 X0.1829 Y0.9565 
G01 X0.1779 Y0.9686 
G01 X0.1686 Y0.9779 
G01 X0.1565 Y0.9829 
G01 X0.1435 Y0.9829 
G01 X0.1314 Y0.9779 
G01 X0.1221 Y0.9686 
G01 X0.1171 Y0.9565 
G01 X0.1171 Y0.9435 
G01 X0.1221 Y0.9314 
G01 X0.1314 Y0.9221 
G01 X0.1435 Y0.9171 
G01 X0.1565 Y0.9171 
G01 X0.1686 Y0.9221 
G01 X0.1779 Y0.9314 
G01 X0.1829 Y0.9435 
G00 Z0.0200 
G00 X0.1569 Y1.1153 
G01 Z-0.0100 F10.00 
G01 X0.1431 Y1.1153 
G01 X0.1303 Y1.1206 
G01 X0.1206 Y1.1303 
G01 X0.1153 Y1.1431 
G01 X0.1153 Y1.1569 
G01 X0.1206 Y1.1696 
G01 X0.1303 Y1.1794 
G01 X0.1431 Y1.1847 
G01 X0.1569 Y1.1847 
G01 X0.1696 Y1.1794 
G01 X0.1794 Y1.1696 
G01 X0.1847 Y1.1569 
G01 X0.1847 Y1.1431 
G01 X0.1794 Y1.1303 
G01 X0.1696 Y1.1206 
G01 X0.1569 Y1.1153 
G00 Z0.0200 
G00 X0.1829 Y1.1435 
G01 Z-0.0100 F10.00 
G01 X0.1829 Y1.1565 
G01 X0.1779 Y1.1686 
G01 X0.1686 Y1.1779 
G01 X0.1565 Y1.1829 
G01 X0.1435 Y1.1829 
G01 X0.1314 Y1.1779 
G01 X0.1221 Y1.1686 
G01 X0.1171 Y1.1565 
G01 X0.1171 Y1.1435 
G01 X0.1221 Y1.1314 
G01 X0.1314 Y1.1221 
G01 X0.1435 Y1.1171 
G01 X0.1565 Y1.1171 
G01 X0.1686 Y1.1221 
G01 X0.1779 Y1.1314 
G01 X0.1829 Y1.1435 
G00 Z0.0200 
G00 X0.1569 Y1.2153 
G01 Z-0.0100 F10.00 
G01 X0.1431 Y1.2153 
G01 X0.1303 Y1.2206 
G01 X0.1206 Y1.2303 
G01 X0.1153 Y1.2431 
G01 X0.1153 Y1.2569 
G01 X0.1206 Y1.2696 
G01 X0.1303 Y1.2794 
G01 X0.1431 Y1.2847 
G01 X0.1569 Y1.2847 
G01 X0.1696 Y1.2794 
G01 X0.1794 Y1.2696 
G01 X0.1847 Y1.2569 
G01 X0.1847 Y1.2431 
G01 X0.1794 Y1.2303 
G01 X0.1696 Y1.2206 
G01 X0.1569 Y1.2153 
G00 Z0.0200 
G00 X0.1829 Y1.2435 
G01 Z-0.0100 F10.00 
G01 X0.1829 Y1.2565 
G01 X0.1779 Y1.2686 
G01 X0.1686 Y1.2779 
G01 X0.1565 Y1.2829 
G01 X0.1435 Y1.2829 
G01 X0.1314 Y1.2779 
G01 X0.1221 Y1.2686 
G01 X0.1171 Y1.2565 
G01 X0.1171 Y1.2435 
G01 X0.1221 Y1.2314 
G01 X0.1314 Y1.2221 
G01 X0.1435 Y1.2171 
G01 X0.1565 Y1.2171 
G01 X0.1686 Y1.2221 
G01 X0.1779 Y1.2314 
G01 X0.1829 Y1.2435 
G00 Z0.0200 
G00 X0.1569 Y1.0153 
G01 Z-0.0100 F10.00 
G01 X0.1431 Y1.0153 
G01 X0.1303 Y1.0206 
G01 X0.1206 Y1.0303 
G01 X0.1153 Y1.0431 
G01 X0.1153 Y1.0569 
G01 X0.1206 Y1.0696 
G01 X0.1303 Y1.0794 
G01 X0.1431 Y1.0847 
G01 X0.1569 Y1.0847 
G01 X0.1696 Y1.0794 
G01 X0.1794 Y1.0696 
G01 X0.1847 Y1.0569 
G01 X0.1847 Y1.0431 
G01 X0.1794 Y1.0303 
G01 X0.1696 Y1.0206 
G01 X0.1569 Y1.0153 
G00 Z0.0200 
G00 X0.1829 Y1.0435 
G01 Z-0.0100 F10.00 
G01 X0.1829 Y1.0565 
G01 X0.1779 Y1.0686 
G01 X0.1686 Y1.0779 
G01 X0.1565 Y1.0829 
G01 X0.1435 Y1.0829 
G01 X0.1314 Y1.0779 
G01 X0.1221 Y1.0686 
G01 X0.1171 Y1.0565 
G01 X0.1171 Y1.0435 
